;FLAVOR:Marlin
;TIME:2013
;Filament used: 2.21009m
;Layer height: 0.4
;MINX:74.702
;MINY:97.204
;MINZ:0.3
;MAXX:144.371
;MAXY:122.796
;MAXZ:13.9
;Generated with Cura_SteamEngine 5.4.0
M140 S98
M105
M190 S98
M104 S240
M105
M109 S240
M82 ;absolute extrusion mode
G28 ;Home
G1 Z15.0 F2000 ;Move the platform
G92 E0
G92 E0
G1 F1500 E-6.5
;LAYER_COUNT:35
;LAYER:0
M107
M204 S1000
G0 F7500 X77.782 Y98.768 Z0.3
;TYPE:SKIRT
G1 F1500 E0
G1 X79.805 Y97.561 E0.11753
G1 X81.523 Y97.279 E0.20439
G1 X137.424 Y97.204 E2.9933
G1 X139.32 Y97.67 E3.09071
G1 X141.348 Y98.723 E3.20471
G1 X142.807 Y100.284 E3.31131
G1 X144.014 Y102.307 E3.42884
G1 X144.296 Y104.025 E3.51569
G1 X144.371 Y115.839 E4.10511
G1 X143.903 Y117.747 E4.20312
G1 X142.852 Y119.773 E4.31699
G1 X141.291 Y121.232 E4.42359
G1 X139.268 Y122.439 E4.54112
G1 X137.55 Y122.721 E4.62798
G1 X81.649 Y122.796 E7.41689
G1 X79.753 Y122.33 E7.5143
G1 X77.725 Y121.277 E7.6283
G1 X76.266 Y119.716 E7.7349
G1 X75.059 Y117.693 E7.85243
G1 X74.777 Y115.975 E7.93928
G1 X74.702 Y104.161 E8.5287
G1 X75.17 Y102.253 E8.62671
G1 X76.221 Y100.227 E8.74058
G1 X77.782 Y98.768 E8.84718
G0 F7500 X78.021 Y99.092
G1 F1500 X79.945 Y97.944 E8.95896
G1 X81.588 Y97.674 E9.04203
G1 X137.378 Y97.604 E11.8254
G1 X139.177 Y98.046 E11.91782
G1 X141.103 Y99.046 E12.02609
G1 X142.483 Y100.523 E12.12694
G1 X143.631 Y102.447 E12.23872
G1 X143.901 Y104.09 E12.32179
G1 X143.971 Y115.794 E12.90571
G1 X143.527 Y117.604 E12.99869
G1 X142.529 Y119.528 E13.10682
G1 X141.052 Y120.908 E13.20767
G1 X139.128 Y122.056 E13.31945
G1 X137.485 Y122.326 E13.40252
G1 X81.695 Y122.396 E16.18589
G1 X79.896 Y121.954 E16.27831
G1 X77.97 Y120.954 E16.38658
G1 X76.59 Y119.477 E16.48743
G1 X75.442 Y117.553 E16.59921
G1 X75.172 Y115.91 E16.68228
G1 X75.102 Y104.206 E17.2662
G1 X75.546 Y102.396 E17.35918
G1 X76.544 Y100.472 E17.46731
G1 X78.021 Y99.092 E17.56816
G0 F7500 X78.263 Y99.413
G1 F1500 X80.083 Y98.327 E17.6739
G1 X81.653 Y98.069 E17.75327
G1 X137.331 Y98.004 E20.53106
G1 X139.035 Y98.423 E20.61861
G1 X140.858 Y99.369 E20.72107
G1 X142.162 Y100.765 E20.81638
G1 X143.248 Y102.585 E20.92212
G1 X143.506 Y104.155 E21.00149
G1 X143.571 Y115.749 E21.57993
G1 X143.151 Y117.461 E21.66787
G1 X142.206 Y119.283 E21.77027
G1 X140.81 Y120.587 E21.86558
G1 X138.99 Y121.673 E21.97132
G1 X137.42 Y121.931 E22.05069
G1 X81.742 Y121.996 E24.82848
G1 X80.038 Y121.577 E24.91603
G1 X78.215 Y120.631 E25.01849
G1 X76.911 Y119.235 E25.1138
G1 X75.825 Y117.415 E25.21954
G1 X75.567 Y115.845 E25.29891
G1 X75.502 Y104.251 E25.87735
G1 X75.922 Y102.539 E25.96529
G1 X76.867 Y100.717 E26.06769
G1 X78.263 Y99.413 E26.163
G0 F7500 X78.505 Y99.734
G1 F1500 X80.221 Y98.71 E26.26269
G1 X81.718 Y98.464 E26.33838
G1 X137.285 Y98.404 E29.11063
G1 X138.892 Y98.799 E29.19319
G1 X140.613 Y99.692 E29.28992
G1 X141.841 Y101.007 E29.37969
G1 X142.865 Y102.723 E29.47938
G1 X143.111 Y104.22 E29.55507
G1 X143.171 Y115.704 E30.12802
G1 X142.775 Y117.318 E30.21093
G1 X141.883 Y119.038 E30.30759
G1 X140.568 Y120.266 E30.39736
G1 X138.852 Y121.29 E30.49705
G1 X137.355 Y121.536 E30.57274
G1 X81.788 Y121.596 E33.34499
G1 X80.181 Y121.201 E33.42755
G1 X78.46 Y120.308 E33.52428
G1 X77.232 Y118.993 E33.61405
G1 X76.208 Y117.277 E33.71374
G1 X75.962 Y115.78 E33.78943
G1 X75.902 Y104.296 E34.36238
G1 X76.298 Y102.682 E34.44529
G1 X77.19 Y100.962 E34.54195
G1 X78.505 Y99.734 E34.63172
G0 F7500 X78.747 Y100.055
G1 F1500 X80.359 Y99.093 E34.72537
G1 X81.783 Y98.859 E34.79737
G1 X137.239 Y98.804 E37.56408
G1 X138.749 Y99.175 E37.64165
G1 X140.368 Y100.015 E37.73265
G1 X141.52 Y101.249 E37.81687
G1 X142.482 Y102.861 E37.91053
G1 X142.716 Y104.285 E37.98252
G1 X142.771 Y115.659 E38.54998
G1 X142.399 Y117.175 E38.62786
G1 X141.56 Y118.793 E38.71879
G1 X140.326 Y119.945 E38.80301
G1 X138.714 Y120.907 E38.89667
G1 X137.29 Y121.141 E38.96866
G1 X81.834 Y121.196 E41.73538
G1 X80.324 Y120.825 E41.81295
G1 X78.705 Y119.985 E41.90395
G1 X77.553 Y118.751 E41.98817
G1 X76.591 Y117.139 E42.08183
G1 X76.357 Y115.715 E42.15382
G1 X76.302 Y104.341 E42.72128
G1 X76.674 Y102.825 E42.79916
G1 X77.513 Y101.207 E42.89009
G1 X78.747 Y100.055 E42.97431
G0 F7500 X78.989 Y100.376
G1 F1500 X80.497 Y99.476 E43.06192
G1 X81.848 Y99.254 E43.13023
G1 X137.192 Y99.204 E45.89135
G1 X138.607 Y99.552 E45.96405
G1 X140.123 Y100.338 E46.04925
G1 X141.199 Y101.491 E46.12793
G1 X142.099 Y102.999 E46.21554
G1 X142.321 Y104.35 E46.28385
G1 X142.371 Y115.614 E46.84582
G1 X142.023 Y117.032 E46.91866
G1 X141.237 Y118.548 E47.00385
G1 X140.084 Y119.624 E47.08254
G1 X138.576 Y120.524 E47.17015
G1 X137.225 Y120.746 E47.23846
G1 X81.881 Y120.796 E49.99958
G1 X80.466 Y120.448 E50.07228
G1 X78.95 Y119.662 E50.15747
G1 X77.874 Y118.509 E50.23615
G1 X76.974 Y117.001 E50.32377
G1 X76.752 Y115.65 E50.39207
G1 X76.702 Y104.386 E50.95404
G1 X77.05 Y102.968 E51.02689
G1 X77.836 Y101.452 E51.11208
G1 X78.989 Y100.376 E51.19076
G0 F7500 X79.231 Y100.697
G1 F1500 X80.635 Y99.859 E51.27234
G1 X81.913 Y99.649 E51.33695
G1 X137.146 Y99.604 E54.09254
G1 X138.464 Y99.928 E54.16025
G1 X139.878 Y100.661 E54.23971
G1 X140.878 Y101.733 E54.31285
G1 X141.716 Y103.137 E54.39442
G1 X141.926 Y104.415 E54.45904
G1 X141.971 Y115.569 E55.01552
G1 X141.647 Y116.889 E55.08333
G1 X140.914 Y118.303 E55.16279
G1 X139.842 Y119.303 E55.23593
G1 X138.438 Y120.141 E55.3175
G1 X137.16 Y120.351 E55.38212
G1 X81.927 Y120.396 E58.1377
G1 X80.609 Y120.072 E58.20542
G1 X79.195 Y119.339 E58.28488
G1 X78.195 Y118.267 E58.35802
G1 X77.357 Y116.863 E58.43959
G1 X77.147 Y115.585 E58.5042
G1 X77.102 Y104.431 E59.06068
G1 X77.426 Y103.111 E59.12849
G1 X78.159 Y101.697 E59.20795
G1 X79.231 Y100.697 E59.28109
G0 F7500 X79.476 Y101.016
G1 F1500 X80.773 Y100.242 E59.35645
G1 X81.978 Y100.044 E59.41737
G1 X137.1 Y100.004 E62.16742
G1 X138.321 Y100.304 E62.23015
G1 X139.631 Y100.983 E62.30376
G1 X140.559 Y101.978 E62.37164
G1 X141.333 Y103.275 E62.447
G1 X141.531 Y104.48 E62.50792
G1 X141.571 Y115.524 E63.05891
G1 X141.271 Y116.746 E63.12169
G1 X140.592 Y118.056 E63.1953
G1 X139.597 Y118.984 E63.26318
G1 X138.3 Y119.758 E63.33853
G1 X137.095 Y119.956 E63.39946
G1 X81.973 Y119.996 E66.14951
G1 X80.752 Y119.696 E66.21223
G1 X79.442 Y119.017 E66.28585
G1 X78.514 Y118.022 E66.35373
G1 X77.74 Y116.725 E66.42908
G1 X77.542 Y115.52 E66.49001
G1 X77.502 Y104.476 E67.041
G1 X77.802 Y103.254 E67.10377
G1 X78.481 Y101.944 E67.17739
G1 X79.476 Y101.016 E67.24527
G0 F7500 X79.718 Y101.338
G1 F1500 X80.913 Y100.625 E67.31469
G1 X82.043 Y100.439 E67.37183
G1 X137.054 Y100.404 E70.11634
G1 X138.178 Y100.68 E70.17408
G1 X139.384 Y101.305 E70.24185
G1 X140.237 Y102.22 E70.30426
G1 X140.95 Y103.415 E70.37368
G1 X141.136 Y104.545 E70.43081
G1 X141.171 Y115.479 E70.97632
G1 X140.895 Y116.603 E71.03406
G1 X140.27 Y117.809 E71.10183
G1 X139.355 Y118.662 E71.16424
G1 X138.16 Y119.375 E71.23366
G1 X137.03 Y119.561 E71.29079
G1 X82.019 Y119.596 E74.03531
G1 X80.895 Y119.32 E74.09305
G1 X79.689 Y118.695 E74.16081
G1 X78.836 Y117.78 E74.22322
G1 X78.123 Y116.585 E74.29265
G1 X77.937 Y115.455 E74.34978
G1 X77.902 Y104.521 E74.89529
G1 X78.178 Y103.397 E74.95303
G1 X78.803 Y102.191 E75.0208
G1 X79.718 Y101.338 E75.0832
G0 F7500 X79.96 Y101.66
G1 F1500 X81.053 Y101.008 E75.1467
G1 X82.108 Y100.834 E75.20004
G1 X137.007 Y100.804 E77.93897
G1 X138.036 Y101.057 E77.99183
G1 X139.137 Y101.627 E78.05369
G1 X139.915 Y102.462 E78.11063
G1 X140.567 Y103.555 E78.17412
G1 X140.741 Y104.61 E78.22747
G1 X140.771 Y115.432 E78.76738
G1 X140.518 Y116.461 E78.82025
G1 X139.948 Y117.562 E78.8821
G1 X139.113 Y118.34 E78.93904
G1 X138.02 Y118.992 E79.00253
G1 X136.965 Y119.166 E79.05588
G1 X82.066 Y119.196 E81.7948
G1 X81.037 Y118.943 E81.84767
G1 X79.936 Y118.373 E81.90952
G1 X79.158 Y117.538 E81.96646
G1 X78.506 Y116.445 E82.02995
G1 X78.332 Y115.39 E82.0833
G1 X78.302 Y104.568 E82.62321
G1 X78.555 Y103.539 E82.67608
G1 X79.125 Y102.438 E82.73793
G1 X79.96 Y101.66 E82.79487
G0 F7500 X80.202 Y101.982
G1 F1500 X81.193 Y101.391 E82.85244
G1 X82.173 Y101.229 E82.90199
G1 X136.961 Y101.204 E85.63538
G1 X137.893 Y101.433 E85.68326
G1 X138.89 Y101.949 E85.73927
G1 X139.593 Y102.704 E85.79073
G1 X140.184 Y103.695 E85.8483
G1 X140.346 Y104.675 E85.89785
G1 X140.371 Y115.386 E86.43223
G1 X140.142 Y116.318 E86.48011
G1 X139.626 Y117.315 E86.53612
G1 X138.871 Y118.018 E86.58759
G1 X137.88 Y118.609 E86.64515
G1 X136.9 Y118.771 E86.69471
G1 X82.112 Y118.796 E89.42809
G1 X81.18 Y118.567 E89.47597
G1 X80.183 Y118.051 E89.53198
G1 X79.48 Y117.296 E89.58345
G1 X78.889 Y116.305 E89.64101
G1 X78.727 Y115.325 E89.69057
G1 X78.702 Y104.614 E90.22495
G1 X78.931 Y103.682 E90.27283
G1 X79.447 Y102.685 E90.32883
G1 X80.202 Y101.982 E90.3803
G0 F7500 X80.441 Y102.306
G1 F1500 X81.333 Y101.774 E90.43212
G1 X82.238 Y101.624 E90.47788
G1 X136.915 Y101.604 E93.20573
G1 X137.75 Y101.809 E93.24863
G1 X138.645 Y102.272 E93.2989
G1 X139.269 Y102.943 E93.34461
G1 X139.801 Y103.835 E93.39643
G1 X139.951 Y104.74 E93.4422
G1 X139.971 Y115.34 E93.97103
G1 X139.766 Y116.175 E94.01393
G1 X139.303 Y117.07 E94.0642
G1 X138.632 Y117.694 E94.10992
G1 X137.74 Y118.226 E94.16173
G1 X136.835 Y118.376 E94.2075
G1 X82.158 Y118.396 E96.93534
G1 X81.323 Y118.191 E96.97824
G1 X80.428 Y117.728 E97.02851
G1 X79.804 Y117.057 E97.07423
G1 X79.272 Y116.165 E97.12604
G1 X79.122 Y115.26 E97.17181
G1 X79.102 Y104.66 E97.70065
G1 X79.307 Y103.825 E97.74354
G1 X79.77 Y102.93 E97.79382
G1 X80.441 Y102.306 E97.83953
G0 F7500 X80.68 Y102.63
G1 F1500 X81.473 Y102.157 E97.8856
G1 X82.304 Y102.019 E97.92762
G1 X136.869 Y102.004 E100.64988
G1 X137.607 Y102.185 E100.68779
G1 X138.4 Y102.595 E100.73233
G1 X138.945 Y103.182 E100.77229
G1 X139.418 Y103.975 E100.81836
G1 X139.556 Y104.806 E100.86038
G1 X139.571 Y115.294 E101.38363
G1 X139.39 Y116.032 E101.42154
G1 X138.98 Y116.825 E101.46608
G1 X138.393 Y117.37 E101.50604
G1 X137.6 Y117.843 E101.55211
G1 X136.769 Y117.981 E101.59414
G1 X82.204 Y117.996 E104.3164
G1 X81.466 Y117.815 E104.35431
G1 X80.673 Y117.405 E104.39884
G1 X80.128 Y116.818 E104.43881
G1 X79.655 Y116.025 E104.48487
G1 X79.517 Y115.194 E104.5269
G1 X79.502 Y104.706 E105.05015
G1 X79.683 Y103.968 E105.08806
G1 X80.093 Y103.175 E105.1326
G1 X80.68 Y102.63 E105.17256
G0 F7500 X80.919 Y102.954
G1 F1500 X81.613 Y102.54 E105.21287
G1 X82.37 Y102.414 E105.25116
G1 X136.819 Y102.404 E107.96763
G1 X137.468 Y102.563 E108.00097
G1 X138.155 Y102.918 E108.03955
G1 X138.621 Y103.421 E108.07376
G1 X139.035 Y104.115 E108.11407
G1 X139.161 Y104.872 E108.15236
G1 X139.171 Y115.244 E108.66982
G1 X139.012 Y115.893 E108.70316
G1 X138.657 Y116.58 E108.74174
G1 X138.154 Y117.046 E108.77595
G1 X137.46 Y117.46 E108.81626
G1 X136.703 Y117.586 E108.85455
G1 X82.254 Y117.596 E111.57102
G1 X81.605 Y117.437 E111.60436
G1 X80.918 Y117.082 E111.64294
G1 X80.452 Y116.579 E111.67715
G1 X80.038 Y115.885 E111.71746
G1 X79.912 Y115.128 E111.75575
G1 X79.902 Y104.756 E112.27321
G1 X80.061 Y104.107 E112.30655
G1 X80.416 Y103.42 E112.34513
G1 X80.919 Y102.954 E112.37934
G0 F7500 X81.158 Y103.278
G1 F1500 X81.753 Y102.923 E112.4139
G1 X82.436 Y102.809 E112.44845
G1 X136.769 Y102.804 E115.15913
G1 X137.329 Y102.941 E115.1879
G1 X137.909 Y103.241 E115.22047
G1 X138.297 Y103.66 E115.24896
G1 X138.652 Y104.255 E115.28353
G1 X138.766 Y104.938 E115.31808
G1 X138.771 Y115.194 E115.82975
G1 X138.634 Y115.754 E115.85851
G1 X138.334 Y116.334 E115.89109
G1 X137.915 Y116.722 E115.91958
G1 X137.32 Y117.077 E115.95415
G1 X136.637 Y117.191 E115.9887
G1 X82.304 Y117.196 E118.69938
G1 X81.744 Y117.059 E118.72814
G1 X81.164 Y116.759 E118.76072
G1 X80.776 Y116.34 E118.78921
G1 X80.421 Y115.745 E118.82378
G1 X80.307 Y115.062 E118.85832
G1 X80.302 Y104.806 E119.37
G1 X80.439 Y104.246 E119.39876
G1 X80.739 Y103.666 E119.43134
G1 X81.158 Y103.278 E119.45983
G0 F7500 X81.4 Y103.599
G1 F1500 X81.891 Y103.306 E119.48835
G1 X82.502 Y103.204 E119.51926
G1 X136.719 Y103.204 E122.22416
G1 X137.19 Y103.319 E122.24834
G1 X137.663 Y103.564 E122.27492
G1 X137.976 Y103.902 E122.2979
G1 X138.269 Y104.393 E122.32643
G1 X138.371 Y105.004 E122.35733
G1 X138.371 Y115.144 E122.86322
G1 X138.256 Y115.615 E122.88741
G1 X138.011 Y116.088 E122.91398
G1 X137.673 Y116.401 E122.93697
G1 X137.182 Y116.694 E122.96549
G1 X136.571 Y116.796 E122.9964
G1 X82.354 Y116.796 E125.7013
G1 X81.883 Y116.681 E125.72548
G1 X81.41 Y116.436 E125.75206
G1 X81.097 Y116.098 E125.77504
G1 X80.804 Y115.607 E125.80357
G1 X80.702 Y114.996 E125.83447
G1 X80.702 Y104.856 E126.34036
G1 X80.817 Y104.385 E126.36455
G1 X81.062 Y103.912 E126.39112
G1 X81.4 Y103.599 E126.41411
G0 F7500 X81.642 Y103.92
G1 F1500 X82.029 Y103.689 E126.43659
G1 X82.502 Y103.604 E126.46057
G1 X136.669 Y103.604 E129.16297
G1 X137.051 Y103.697 E129.18259
G1 X137.417 Y103.887 E129.20316
G1 X137.655 Y104.144 E129.22064
G1 X137.886 Y104.531 E129.24312
G1 X137.971 Y105.004 E129.2671
G1 X137.971 Y115.094 E129.77049
G1 X137.878 Y115.476 E129.7901
G1 X137.688 Y115.842 E129.81068
G1 X137.431 Y116.08 E129.82815
G1 X137.044 Y116.311 E129.85064
G1 X136.571 Y116.396 E129.87461
G1 X82.404 Y116.396 E132.57702
G1 X82.022 Y116.303 E132.59663
G1 X81.656 Y116.113 E132.6172
G1 X81.418 Y115.856 E132.63468
G1 X81.187 Y115.469 E132.65717
G1 X81.102 Y114.996 E132.68114
G1 X81.102 Y104.906 E133.18453
G1 X81.195 Y104.524 E133.20415
G1 X81.385 Y104.158 E133.22472
G1 X81.642 Y103.92 E133.2422
G0 F7500 X81.847 Y104.264
G1 F1500 X82.174 Y104.069 E133.26119
G1 X82.502 Y104.004 E133.27787
G1 X136.62 Y104.004 E135.97783
G1 X136.909 Y104.074 E135.99267
G1 X137.172 Y104.211 E136.00746
G1 X137.311 Y104.349 E136.01723
G1 X137.506 Y104.676 E136.03623
G1 X137.571 Y105.004 E136.05291
G1 X137.571 Y115.045 E136.55386
G1 X137.501 Y115.334 E136.56869
G1 X137.364 Y115.597 E136.58349
G1 X137.226 Y115.736 E136.59326
G1 X136.899 Y115.931 E136.61226
G1 X136.571 Y115.996 E136.62894
G1 X82.453 Y115.996 E139.3289
G1 X82.164 Y115.926 E139.34373
G1 X81.901 Y115.789 E139.35853
G1 X81.762 Y115.651 E139.3683
G1 X81.567 Y115.324 E139.38729
G1 X81.502 Y114.996 E139.40397
G1 X81.502 Y104.955 E139.90492
G1 X81.572 Y104.666 E139.91976
G1 X81.709 Y104.403 E139.93455
G1 X81.847 Y104.264 E139.94432
G0 F7500 X82.341 Y104.885
G1 F1500 X82.502 Y104.804 E139.95331
G1 X136.571 Y104.804 E142.65083
G1 X136.69 Y104.843 E142.65708
G1 X136.771 Y105.004 E142.66607
G1 X136.771 Y114.996 E143.16457
G1 X136.732 Y115.115 E143.17082
G1 X136.571 Y115.196 E143.17981
G1 X82.502 Y115.196 E145.87732
G1 X82.383 Y115.157 E145.88357
G1 X82.302 Y114.996 E145.89256
G1 X82.302 Y105.004 E146.39106
G1 X82.341 Y104.885 E146.39731
G0 F7500 X82.052 Y104.608
G1 F1500 X82.322 Y104.447 E146.413
G1 X82.502 Y104.404 E146.42223
G1 X136.571 Y104.404 E149.11974
G1 X136.815 Y104.463 E149.13227
G1 X136.967 Y104.554 E149.1411
G1 X137.128 Y104.824 E149.15679
G1 X137.171 Y105.004 E149.16602
G1 X137.171 Y114.996 E149.66452
G1 X137.112 Y115.24 E149.67705
G1 X137.021 Y115.392 E149.68589
G1 X136.751 Y115.553 E149.70157
G1 X136.571 Y115.596 E149.7108
G1 X82.502 Y115.596 E152.40832
G1 X82.258 Y115.537 E152.42084
G1 X82.106 Y115.446 E152.42968
G1 X81.945 Y115.176 E152.44536
G1 X81.902 Y114.996 E152.45459
G1 X81.902 Y105.004 E152.9531
G1 X81.961 Y104.76 E152.96562
G1 X82.052 Y104.608 E152.97446
G1 F1500 E146.47446
;MESH:Lower Belt C Primo Mirrored.stl
G0 F7500 X83.302 Y105.804
G0 X135.971 Y114.396
;TYPE:WALL-INNER
G1 F1500 E152.97446
G1 X135.971 Y105.604 E153.41309
G1 X83.102 Y105.604 E156.05074
G1 X83.102 Y114.396 E156.48937
G1 X135.971 Y114.396 E159.12702
G0 F7500 X136.371 Y114.796
;TYPE:WALL-OUTER
G1 F1500 X136.371 Y105.204 E159.60557
G1 X82.702 Y105.204 E162.28312
G1 X82.702 Y114.796 E162.76167
G1 X136.371 Y114.796 E165.43923
G0 F7500 X136.371 Y114.596
G0 X135.611 Y114.036
;TYPE:SKIN
G1 F1500 X83.462 Y114.036 E168.04095
G1 X83.462 Y105.964 E168.44367
G1 X135.611 Y105.964 E171.04539
G1 X135.611 Y114.036 E171.4481
G0 F7500 X135.871 Y114.036
G0 X135.871 Y106.56
G0 X135.41 Y106.56
G1 F1500 X135.014 Y106.164 E171.47604
G0 F7500 X134.448 Y106.164
G1 F1500 X135.41 Y107.125 E171.54388
G0 F7500 X135.41 Y107.691
