;FLAVOR:Marlin
;TIME:517
;Filament used: 0.553571m
;Layer height: 0.4
;MINX:95.349
;MINY:84.004
;MINZ:0.3
;MAXX:124.651
;MAXY:135.999
;MAXZ:4.3
;Generated with Cura_SteamEngine 5.4.0
M140 S98
M105
M190 S98
M104 S240
M105
M109 S240
M82 ;absolute extrusion mode
G28 ;Home
G1 Z15.0 F2000 ;Move the platform
G92 E0
G92 E0
G1 F1500 E-6.5
;LAYER_COUNT:11
;LAYER:0
M107
M204 S1000
G0 F7500 X99.004 Y88.957 Z0.3
;TYPE:SKIRT
G1 F1500 E0
G1 X100.335 Y87.64 E0.09342
G1 X101.424 Y86.765 E0.16311
G1 X101.962 Y86.395 E0.19569
G1 X103.149 Y85.702 E0.26426
G1 X103.859 Y85.348 E0.30384
G1 X104.673 Y84.999 E0.34803
G1 X105.756 Y84.633 E0.40506
G1 X106.583 Y84.402 E0.4479
G1 X107.154 Y84.277 E0.47706
G1 X108.786 Y84.059 E0.55921
G1 X109.761 Y84.004 E0.60793
G1 X110.239 Y84.004 E0.63177
G1 X111.535 Y84.089 E0.69657
G1 X112.565 Y84.234 E0.74846
G1 X113.708 Y84.476 E0.80675
G1 X114.437 Y84.685 E0.84459
G1 X115.183 Y84.947 E0.88403
G1 X115.982 Y85.278 E0.92718
G1 X116.616 Y85.575 E0.96211
G1 X117.288 Y85.939 E1.00024
G1 X118.627 Y86.799 E1.07963
G1 X119.22 Y87.257 E1.11702
G1 X120.335 Y88.263 E1.19194
G1 X120.652 Y88.587 E1.21455
G1 X121.561 Y89.649 E1.28429
G1 X122.095 Y90.38 E1.32946
G1 X122.554 Y91.102 E1.37214
G1 X123.247 Y92.376 E1.4445
G1 X123.478 Y92.891 E1.47266
G1 X123.872 Y93.941 E1.52861
G1 X124.243 Y95.237 E1.59586
G1 X124.499 Y96.522 E1.66123
G1 X124.609 Y97.523 E1.71147
G1 X124.65 Y98.586 E1.76454
G1 X124.651 Y122.215 E2.9434
G1 X124.563 Y123.637 E3.01448
G1 X124.44 Y124.487 E3.05733
G1 X124.045 Y126.097 E3.14003
G1 X123.804 Y126.807 E3.17744
G1 X123.476 Y127.596 E3.22007
G1 X122.857 Y128.825 E3.28872
G1 X122.507 Y129.394 E3.32205
G1 X121.885 Y130.271 E3.37569
G1 X120.925 Y131.405 E3.44982
G1 X120.328 Y131.995 E3.49169
G1 X119.372 Y132.81 E3.55437
G1 X118.799 Y133.238 E3.59005
G1 X118.201 Y133.646 E3.62617
G1 X117.75 Y133.921 E3.65252
G1 X116.833 Y134.419 E3.70458
G1 X116.359 Y134.643 E3.73074
G1 X115.194 Y135.104 E3.79324
G1 X114.106 Y135.451 E3.85022
G1 X113.56 Y135.594 E3.87838
G1 X112.837 Y135.745 E3.91523
G1 X111.958 Y135.882 E3.95961
G1 X111.435 Y135.939 E3.98586
G1 X110.386 Y135.994 E4.03826
G1 X109.894 Y135.999 E4.06281
G1 X108.307 Y135.911 E4.14211
G1 X107.637 Y135.824 E4.17581
G1 X106.782 Y135.668 E4.21917
G1 X106.191 Y135.53 E4.24945
G1 X104.976 Y135.164 E4.31276
G1 X103.713 Y134.675 E4.38033
G1 X103.014 Y134.339 E4.41902
G1 X101.963 Y133.746 E4.47923
G1 X101.44 Y133.407 E4.51032
G1 X100.523 Y132.735 E4.56704
G1 X100.018 Y132.312 E4.5999
G1 X99.234 Y131.57 E4.65376
G1 X98.8 Y131.107 E4.68542
G1 X98.181 Y130.354 E4.73405
G1 X97.711 Y129.717 E4.77355
G1 X97.204 Y128.927 E4.82038
G1 X96.688 Y127.971 E4.87458
G1 X96.469 Y127.493 E4.90081
G1 X95.994 Y126.223 E4.96845
G1 X95.763 Y125.417 E5.01029
G1 X95.46 Y123.891 E5.0879
G1 X95.397 Y123.329 E5.11612
G1 X95.35 Y122.15 E5.17498
G1 X95.349 Y98.398 E6.35998
G1 X95.363 Y97.972 E6.38124
G1 X95.505 Y96.518 E6.45413
G1 X95.593 Y95.984 E6.48113
G1 X95.843 Y94.861 E6.53853
G1 X96.009 Y94.279 E6.56872
G1 X96.814 Y92.269 E6.67674
G1 X97.373 Y91.213 E6.73635
G1 X97.672 Y90.727 E6.76482
G1 X98.538 Y89.518 E6.83902
G1 X99.004 Y88.957 E6.8754
G0 F7500 X99.312 Y89.213
G1 F1500 X100.616 Y87.925 E6.96684
G1 X101.651 Y87.095 E7.03303
G1 X102.189 Y86.725 E7.06561
G1 X103.328 Y86.06 E7.13141
G1 X104.017 Y85.716 E7.16983
G1 X104.831 Y85.367 E7.21401
G1 X105.864 Y85.018 E7.26841
G1 X106.669 Y84.793 E7.31011
G1 X107.24 Y84.668 E7.33928
G1 X108.809 Y84.458 E7.41825
G1 X109.761 Y84.404 E7.46582
G1 X110.239 Y84.404 E7.48967
G1 X111.479 Y84.485 E7.55167
G1 X112.509 Y84.63 E7.60356
G1 X113.598 Y84.861 E7.6591
G1 X114.327 Y85.07 E7.69693
G1 X115.03 Y85.317 E7.73411
G1 X115.812 Y85.64 E7.77632
G1 X116.425 Y85.927 E7.81009
G1 X117.097 Y86.291 E7.84822
G1 X118.382 Y87.116 E7.9244
G1 X118.975 Y87.574 E7.96178
G1 X120.049 Y88.543 E8.03395
G1 X120.366 Y88.867 E8.05657
G1 X121.238 Y89.885 E8.12344
G1 X121.757 Y90.595 E8.16732
G1 X122.216 Y91.317 E8.21
G1 X122.882 Y92.54 E8.27948
G1 X123.103 Y93.032 E8.30638
G1 X123.497 Y94.082 E8.36234
G1 X123.851 Y95.315 E8.42633
G1 X124.101 Y96.566 E8.48998
G1 X124.211 Y97.567 E8.54022
G1 X124.25 Y98.586 E8.5911
G1 X124.251 Y122.215 E9.76995
G1 X124.167 Y123.58 E9.83818
G1 X124.044 Y124.43 E9.88103
G1 X123.666 Y125.968 E9.96005
G1 X123.425 Y126.678 E9.99745
G1 X123.107 Y127.442 E10.03874
G1 X122.516 Y128.615 E10.10427
G1 X122.166 Y129.184 E10.1376
G1 X121.559 Y130.039 E10.18991
G1 X120.644 Y131.12 E10.26057
G1 X120.047 Y131.71 E10.30244
G1 X119.132 Y132.49 E10.36243
G1 X118.573 Y132.908 E10.39725
G1 X117.993 Y133.304 E10.43229
G1 X117.542 Y133.579 E10.45864
G1 X116.662 Y134.057 E10.5086
G1 X116.188 Y134.281 E10.53476
G1 X115.047 Y134.732 E10.59597
G1 X114.004 Y135.064 E10.65058
G1 X113.478 Y135.202 E10.67771
G1 X112.755 Y135.353 E10.71456
G1 X111.915 Y135.484 E10.75697
G1 X111.392 Y135.541 E10.78322
G1 X110.382 Y135.594 E10.83368
G1 X109.89 Y135.599 E10.85822
G1 X108.359 Y135.514 E10.93472
G1 X107.689 Y135.427 E10.96843
G1 X106.873 Y135.278 E11.00981
G1 X106.282 Y135.14 E11.04009
G1 X105.092 Y134.781 E11.1021
G1 X103.886 Y134.314 E11.16662
G1 X103.187 Y133.978 E11.20532
G1 X102.181 Y133.41 E11.26295
G1 X101.658 Y133.071 E11.29405
G1 X100.78 Y132.428 E11.34834
G1 X100.275 Y132.005 E11.38121
G1 X99.526 Y131.296 E11.43266
G1 X99.092 Y130.833 E11.46432
G1 X98.503 Y130.116 E11.51062
G1 X98.048 Y129.501 E11.54878
G1 X97.541 Y128.711 E11.59562
G1 X97.052 Y127.804 E11.64702
G1 X96.833 Y127.326 E11.67325
G1 X96.379 Y126.113 E11.73787
G1 X96.148 Y125.307 E11.7797
G1 X95.858 Y123.846 E11.85401
G1 X95.795 Y123.284 E11.88223
G1 X95.75 Y122.15 E11.93885
G1 X95.749 Y98.411 E13.12319
G1 X95.763 Y97.985 E13.14446
G1 X95.9 Y96.583 E13.21473
G1 X95.988 Y96.049 E13.24174
G1 X96.228 Y94.971 E13.29683
G1 X96.394 Y94.389 E13.32703
G1 X97.168 Y92.456 E13.43091
G1 X97.714 Y91.423 E13.4892
G1 X98.013 Y90.937 E13.51767
G1 X98.846 Y89.774 E13.58904
G1 X99.312 Y89.213 E13.62542
G0 F7500 X99.62 Y89.469
G1 F1500 X100.866 Y88.237 E13.71284
G1 X101.878 Y87.425 E13.77758
G1 X102.416 Y87.055 E13.81015
G1 X103.529 Y86.406 E13.87443
G1 X104.175 Y86.084 E13.91044
G1 X104.989 Y85.735 E13.95463
G1 X105.972 Y85.403 E14.00639
G1 X106.755 Y85.184 E14.04695
G1 X107.326 Y85.059 E14.07612
G1 X108.832 Y84.857 E14.15192
G1 X109.761 Y84.804 E14.19835
G1 X110.239 Y84.804 E14.22219
G1 X111.423 Y84.881 E14.28139
G1 X112.453 Y85.026 E14.33328
G1 X113.488 Y85.246 E14.38607
G1 X114.217 Y85.455 E14.42391
G1 X114.877 Y85.687 E14.45881
G1 X115.659 Y86.01 E14.50102
G1 X116.234 Y86.279 E14.53269
G1 X116.906 Y86.643 E14.57082
G1 X118.137 Y87.433 E14.6438
G1 X118.73 Y87.891 E14.68118
G1 X119.763 Y88.823 E14.75059
G1 X120.08 Y89.147 E14.7732
G1 X120.915 Y90.121 E14.83721
G1 X121.419 Y90.81 E14.8798
G1 X121.878 Y91.532 E14.92248
G1 X122.517 Y92.704 E14.98908
G1 X122.728 Y93.173 E15.01474
G1 X123.122 Y94.223 E15.07069
G1 X123.459 Y95.394 E15.13148
G1 X123.703 Y96.61 E15.19336
G1 X123.813 Y97.611 E15.2436
G1 X123.85 Y98.586 E15.29227
G1 X123.851 Y122.215 E16.47113
G1 X123.771 Y123.523 E16.53651
G1 X123.655 Y124.335 E16.57743
G1 X123.287 Y125.839 E16.65468
G1 X123.046 Y126.549 E16.69209
G1 X122.75 Y127.262 E16.7306
G1 X122.175 Y128.405 E16.79444
G1 X121.825 Y128.974 E16.82776
G1 X121.233 Y129.807 E16.87875
G1 X120.363 Y130.835 E16.94594
G1 X119.766 Y131.425 E16.98781
G1 X118.892 Y132.17 E17.04511
G1 X118.348 Y132.578 E17.07903
G1 X117.785 Y132.962 E17.11303
G1 X117.334 Y133.237 E17.13939
G1 X116.491 Y133.695 E17.18725
G1 X116.017 Y133.919 E17.21341
G1 X114.925 Y134.351 E17.27199
G1 X113.903 Y134.677 E17.32551
G1 X113.396 Y134.81 E17.35166
G1 X112.673 Y134.961 E17.38851
G1 X111.872 Y135.086 E17.42896
G1 X111.349 Y135.143 E17.4552
G1 X110.378 Y135.194 E17.50371
G1 X109.886 Y135.199 E17.52826
G1 X108.411 Y135.117 E17.60196
G1 X107.741 Y135.03 E17.63567
G1 X106.964 Y134.888 E17.67508
G1 X106.373 Y134.75 E17.70536
G1 X105.208 Y134.398 E17.76607
G1 X104.059 Y133.953 E17.82755
G1 X103.36 Y133.617 E17.86624
G1 X102.399 Y133.074 E17.92131
G1 X101.876 Y132.735 E17.9524
G1 X101.037 Y132.121 E18.00427
G1 X100.532 Y131.698 E18.03714
G1 X99.818 Y131.022 E18.08619
G1 X99.384 Y130.559 E18.11785
G1 X98.825 Y129.878 E18.16181
G1 X98.37 Y129.263 E18.19997
G1 X97.893 Y128.521 E18.24398
G1 X97.416 Y127.637 E18.2941
G1 X97.197 Y127.159 E18.32033
G1 X96.764 Y126.003 E18.38191
G1 X96.533 Y125.197 E18.42374
G1 X96.256 Y123.801 E18.49475
G1 X96.193 Y123.239 E18.52296
G1 X96.15 Y122.15 E18.57733
G1 X96.149 Y98.424 E19.76103
G1 X96.163 Y97.998 E19.78229
G1 X96.295 Y96.648 E19.84997
G1 X96.383 Y96.114 E19.87697
G1 X96.613 Y95.081 E19.92977
G1 X96.779 Y94.499 E19.95996
G1 X97.522 Y92.643 E20.0597
G1 X98.055 Y91.633 E20.11668
G1 X98.354 Y91.147 E20.14514
G1 X99.154 Y90.03 E20.21369
G1 X99.62 Y89.469 E20.25007
G0 F7500 X99.928 Y89.725
G1 F1500 X101.116 Y88.549 E20.33347
G1 X102.105 Y87.755 E20.39675
G1 X102.643 Y87.385 E20.42932
G1 X103.707 Y86.764 E20.49079
G1 X104.333 Y86.452 E20.52568
G1 X105.147 Y86.103 E20.56987
G1 X106.08 Y85.788 E20.619
G1 X106.841 Y85.575 E20.65842
G1 X107.412 Y85.45 E20.68758
G1 X108.855 Y85.256 E20.76022
G1 X109.761 Y85.204 E20.8055
G1 X110.239 Y85.204 E20.82935
G1 X111.367 Y85.277 E20.88574
G1 X112.397 Y85.422 E20.93763
G1 X113.378 Y85.631 E20.98767
G1 X114.107 Y85.84 E21.02551
G1 X114.724 Y86.057 E21.05814
G1 X115.506 Y86.38 E21.10035
G1 X116.043 Y86.631 E21.12992
G1 X116.715 Y86.995 E21.16805
G1 X117.892 Y87.75 E21.23782
G1 X118.485 Y88.208 E21.2752
G1 X119.477 Y89.103 E21.34185
G1 X119.794 Y89.427 E21.36447
G1 X120.592 Y90.358 E21.42564
G1 X121.081 Y91.025 E21.46691
G1 X121.54 Y91.747 E21.50959
G1 X122.152 Y92.869 E21.57335
G1 X122.353 Y93.314 E21.59771
G1 X122.747 Y94.364 E21.65366
G1 X123.067 Y95.473 E21.71125
G1 X123.305 Y96.654 E21.77135
G1 X123.415 Y97.655 E21.82159
G1 X123.45 Y98.586 E21.86808
G1 X123.451 Y122.215 E23.04693
G1 X123.375 Y123.466 E23.10946
G1 X123.259 Y124.278 E23.15038
G1 X122.908 Y125.71 E23.22394
G1 X122.667 Y126.42 E23.26135
G1 X122.381 Y127.108 E23.29852
G1 X121.834 Y128.195 E23.35923
G1 X121.484 Y128.764 E23.39256
G1 X120.907 Y129.575 E23.44221
G1 X120.082 Y130.55 E23.50593
G1 X119.485 Y131.14 E23.54781
G1 X118.652 Y131.85 E23.60241
G1 X118.122 Y132.248 E23.63548
G1 X117.577 Y132.62 E23.6684
G1 X117.126 Y132.895 E23.69475
G1 X116.32 Y133.333 E23.74052
G1 X115.846 Y133.557 E23.76668
G1 X114.778 Y133.979 E23.82397
G1 X113.802 Y134.29 E23.87507
G1 X113.314 Y134.418 E23.90024
G1 X112.591 Y134.569 E23.93709
G1 X111.829 Y134.688 E23.97557
G1 X111.306 Y134.745 E24.00181
G1 X110.374 Y134.794 E24.04838
G1 X109.882 Y134.799 E24.07292
G1 X108.463 Y134.72 E24.14383
G1 X107.793 Y134.633 E24.17753
G1 X107.055 Y134.498 E24.21496
G1 X106.464 Y134.36 E24.24524
G1 X105.352 Y134.025 E24.30318
G1 X104.232 Y133.592 E24.36309
G1 X103.533 Y133.256 E24.40178
G1 X102.616 Y132.738 E24.45433
G1 X102.112 Y132.412 E24.48427
G1 X101.294 Y131.814 E24.53483
G1 X100.789 Y131.391 E24.56769
G1 X100.11 Y130.748 E24.61435
G1 X99.676 Y130.285 E24.64601
G1 X99.146 Y129.64 E24.68766
G1 X98.706 Y129.046 E24.72454
G1 X98.245 Y128.331 E24.76698
G1 X97.78 Y127.47 E24.8158
G1 X97.561 Y126.992 E24.84203
G1 X97.149 Y125.893 E24.90059
G1 X96.918 Y125.087 E24.94242
G1 X96.654 Y123.756 E25.01011
G1 X96.591 Y123.194 E25.03833
G1 X96.55 Y122.15 E25.09045
G1 X96.549 Y98.437 E26.2735
G1 X96.563 Y98.011 E26.29476
G1 X96.69 Y96.713 E26.35983
G1 X96.778 Y96.179 E26.38683
G1 X96.998 Y95.191 E26.43733
G1 X97.164 Y94.609 E26.46752
G1 X97.893 Y92.792 E26.5652
G1 X98.396 Y91.843 E26.61878
G1 X98.695 Y91.357 E26.64725
G1 X99.462 Y90.286 E26.71297
G1 X99.928 Y89.725 E26.74936
G0 F7500 X100.236 Y89.981
G1 F1500 X101.367 Y88.861 E26.82877
G1 X102.332 Y88.085 E26.89055
G1 X102.87 Y87.715 E26.92312
G1 X103.886 Y87.122 E26.98181
G1 X104.491 Y86.82 E27.01555
G1 X105.305 Y86.471 E27.05974
G1 X106.188 Y86.173 E27.10623
G1 X106.927 Y85.966 E27.14452
G1 X107.498 Y85.841 E27.17368
G1 X108.878 Y85.655 E27.24315
G1 X109.761 Y85.604 E27.28728
G1 X110.239 Y85.604 E27.31112
G1 X111.311 Y85.673 E27.36472
G1 X112.341 Y85.818 E27.41661
G1 X113.268 Y86.016 E27.4639
G1 X113.997 Y86.225 E27.50174
G1 X114.571 Y86.427 E27.5321
G1 X115.337 Y86.743 E27.57344
G1 X115.852 Y86.983 E27.60178
G1 X116.524 Y87.347 E27.63991
G1 X117.647 Y88.067 E27.70646
G1 X118.24 Y88.525 E27.74385
G1 X119.191 Y89.383 E27.80775
G1 X119.508 Y89.707 E27.83036
G1 X120.269 Y90.595 E27.88871
G1 X120.758 Y91.262 E27.92997
G1 X121.202 Y91.961 E27.97128
G1 X121.787 Y93.034 E28.03225
G1 X121.988 Y93.479 E28.05661
G1 X122.372 Y94.504 E28.11122
G1 X122.675 Y95.552 E28.16565
G1 X122.907 Y96.698 E28.22398
G1 X123.017 Y97.699 E28.27422
G1 X123.05 Y98.586 E28.31851
G1 X123.051 Y122.215 E29.49736
G1 X122.979 Y123.409 E29.55704
G1 X122.863 Y124.221 E29.59796
G1 X122.529 Y125.581 E29.66783
G1 X122.288 Y126.291 E29.70524
G1 X122.012 Y126.954 E29.74107
G1 X121.493 Y127.985 E29.79865
G1 X121.143 Y128.554 E29.83198
G1 X120.581 Y129.343 E29.88031
G1 X119.801 Y130.265 E29.94056
G1 X119.204 Y130.855 E29.98243
G1 X118.412 Y131.53 E30.03435
G1 X117.896 Y131.918 E30.06656
G1 X117.369 Y132.278 E30.0984
G1 X116.918 Y132.553 E30.12475
G1 X116.149 Y132.971 E30.16842
G1 X115.675 Y133.195 E30.19458
G1 X114.631 Y133.607 E30.25057
G1 X113.701 Y133.903 E30.29926
G1 X113.232 Y134.026 E30.32345
G1 X112.509 Y134.177 E30.3603
G1 X111.786 Y134.29 E30.39681
G1 X111.263 Y134.347 E30.42306
G1 X110.37 Y134.394 E30.46767
G1 X109.878 Y134.399 E30.49222
G1 X108.514 Y134.323 E30.56037
G1 X107.865 Y134.239 E30.59302
G1 X107.146 Y134.108 E30.62948
G1 X106.555 Y133.97 E30.65976
G1 X105.468 Y133.642 E30.71641
G1 X104.405 Y133.231 E30.77327
G1 X103.706 Y132.895 E30.81196
G1 X102.833 Y132.402 E30.86198
G1 X102.348 Y132.089 E30.89078
G1 X101.551 Y131.507 E30.94001
G1 X101.046 Y131.084 E30.97288
G1 X100.402 Y130.474 E31.01713
G1 X99.968 Y130.011 E31.04879
G1 X99.467 Y129.402 E31.08814
G1 X99.042 Y128.829 E31.12373
G1 X98.597 Y128.141 E31.16461
G1 X98.144 Y127.303 E31.21213
G1 X97.925 Y126.825 E31.23837
G1 X97.533 Y125.782 E31.29395
G1 X97.31 Y125.009 E31.33409
G1 X97.052 Y123.711 E31.40012
G1 X96.989 Y123.149 E31.42833
G1 X96.95 Y122.15 E31.47821
G1 X96.949 Y98.45 E32.66061
G1 X96.963 Y98.024 E32.68187
G1 X97.085 Y96.778 E32.74433
G1 X97.173 Y96.244 E32.77133
G1 X97.383 Y95.301 E32.81953
G1 X97.549 Y94.719 E32.84973
G1 X98.247 Y92.979 E32.94326
G1 X98.737 Y92.053 E32.99553
G1 X99.036 Y91.567 E33.02399
G1 X99.77 Y90.542 E33.08689
G1 X100.236 Y89.981 E33.12328
G0 F7500 X100.544 Y90.237
G1 F1500 X101.648 Y89.146 E33.20071
G1 X102.559 Y88.415 E33.25898
G1 X103.097 Y88.045 E33.29156
G1 X104.087 Y87.468 E33.34873
G1 X104.649 Y87.188 E33.38005
G1 X105.463 Y86.839 E33.42424
G1 X106.296 Y86.558 E33.4681
G1 X107.013 Y86.357 E33.50525
G1 X107.584 Y86.232 E33.53441
G1 X108.901 Y86.054 E33.60071
G1 X109.761 Y86.004 E33.64369
G1 X110.239 Y86.004 E33.66754
G1 X111.255 Y86.069 E33.71833
G1 X112.285 Y86.214 E33.77023
G1 X113.158 Y86.401 E33.81477
G1 X113.887 Y86.61 E33.8526
G1 X114.419 Y86.797 E33.88074
G1 X115.168 Y87.105 E33.92114
G1 X115.661 Y87.335 E33.94828
G1 X116.333 Y87.699 E33.98641
G1 X117.402 Y88.384 E34.04975
G1 X117.995 Y88.842 E34.08713
G1 X118.905 Y89.663 E34.14828
G1 X119.222 Y89.987 E34.17089
G1 X119.946 Y90.832 E34.22641
G1 X120.435 Y91.499 E34.26767
G1 X120.864 Y92.175 E34.30761
G1 X121.422 Y93.199 E34.3658
G1 X121.623 Y93.644 E34.39016
G1 X121.988 Y94.616 E34.44196
G1 X122.283 Y95.632 E34.49474
G1 X122.509 Y96.742 E34.55125
G1 X122.619 Y97.743 E34.60149
G1 X122.65 Y98.586 E34.64358
G1 X122.651 Y122.215 E35.82243
G1 X122.583 Y123.352 E35.87926
G1 X122.467 Y124.164 E35.92018
G1 X122.15 Y125.452 E35.98636
G1 X121.909 Y126.162 E36.02377
G1 X121.643 Y126.8 E36.05825
G1 X121.152 Y127.775 E36.11271
G1 X120.802 Y128.344 E36.14604
G1 X120.255 Y129.111 E36.19304
G1 X119.52 Y129.98 E36.24982
G1 X118.923 Y130.57 E36.2917
G1 X118.171 Y131.211 E36.341
G1 X117.671 Y131.588 E36.37224
G1 X117.161 Y131.936 E36.40304
G1 X116.71 Y132.211 E36.4294
G1 X115.978 Y132.609 E36.47096
G1 X115.504 Y132.833 E36.49712
G1 X114.509 Y133.226 E36.55049
G1 X113.6 Y133.516 E36.59809
