;FLAVOR:Marlin
;TIME:12108
;Filament used: 15.885m
;Layer height: 0.4
;MINX:67.637
;MINY:88.29
;MINZ:0.3
;MAXX:152.426
;MAXY:134.556
;MAXZ:70.3
;Generated with Cura_SteamEngine 5.4.0
M140 S98
M105
M190 S98
M104 S240
M105
M109 S240
M82 ;absolute extrusion mode
G28 ;Home
G1 Z15.0 F2000 ;Move the platform
G92 E0
G92 E0
G1 F1500 E-6.5
;LAYER_COUNT:176
;LAYER:0
M107
M204 S1000
G0 F7500 X86.469 Y95.472 Z0.3
;TYPE:SKIRT
G1 F1500 E0
G1 X87.714 Y94.419 E0.08135
G1 X88.715 Y93.675 E0.14357
G1 X90.592 Y92.461 E0.2551
G1 X91.687 Y91.859 E0.31744
G1 X93.414 Y91.053 E0.41252
G1 X95.252 Y90.355 E0.51061
G1 X96.624 Y89.939 E0.58214
G1 X98.501 Y89.502 E0.67828
G1 X99.746 Y89.295 E0.74125
G1 X101.991 Y89.087 E0.85373
G1 X103.711 Y89.053 E0.93956
G1 X105.195 Y89.124 E1.01368
G1 X106.822 Y89.307 E1.09537
G1 X129.917 Y92.644 E2.25955
G1 X131.572 Y93.122 E2.34549
G1 X133.112 Y93.809 E2.42962
G1 X135.721 Y95.331 E2.58031
G1 X137.234 Y96.469 E2.67476
G1 X137.834 Y97.04 E2.71609
G1 X151.076 Y111.667 E3.70045
G1 X152.179 Y113.881 E3.82386
G1 X152.384 Y115.43 E3.90181
G1 X152.426 Y127.609 E4.50943
G1 X151.96 Y129.505 E4.60684
G1 X150.907 Y131.533 E4.72084
G1 X149.346 Y132.992 E4.82744
G1 X147.323 Y134.199 E4.94497
G1 X145.605 Y134.481 E5.03182
G1 X114.721 Y134.556 E6.57264
G1 X112.825 Y134.09 E6.67004
G1 X110.797 Y133.037 E6.78405
G1 X109.338 Y131.476 E6.89065
G1 X108.131 Y129.453 E7.00817
G1 X107.849 Y127.735 E7.09503
G1 X107.774 Y114.503 E7.75519
G1 X107.745 Y113.827 E7.78895
G1 X107.711 Y113.504 E7.80515
G1 X107.667 Y113.25 E7.81801
G1 X107.574 Y112.88 E7.83705
G1 X107.347 Y112.32 E7.86719
G1 X107.141 Y111.935 E7.88898
G1 X106.774 Y111.391 E7.92172
G1 X106.504 Y111.093 E7.94178
G1 X106.296 Y110.892 E7.95621
G1 X106.013 Y110.655 E7.97462
G1 X105.778 Y110.483 E7.98915
G1 X105.511 Y110.318 E8.00481
G1 X105.163 Y110.131 E8.02452
G1 X104.733 Y109.958 E8.04765
G1 X104.171 Y109.798 E8.0768
G1 X103.723 Y109.735 E8.09937
G1 X103.403 Y109.713 E8.11537
G1 X103.097 Y109.713 E8.13064
G1 X102.776 Y109.735 E8.14669
G1 X102.504 Y109.774 E8.1604
G1 X102.135 Y109.851 E8.1792
G1 X101.83 Y109.939 E8.19504
G1 X101.565 Y110.033 E8.20907
G1 X101.267 Y110.166 E8.22535
G1 X100.988 Y110.314 E8.24111
G1 X100.75 Y110.462 E8.25509
G1 X100.484 Y110.659 E8.2716
G1 X100.228 Y110.872 E8.28822
G1 X99.984 Y111.107 E8.30512
G1 X99.716 Y111.401 E8.32497
G1 X99.365 Y111.924 E8.35639
G1 X99.189 Y112.224 E8.37374
G1 X98.93 Y112.868 E8.40837
G1 X98.836 Y113.24 E8.42752
G1 X98.788 Y113.518 E8.44159
G1 X98.755 Y113.827 E8.45709
G1 X98.726 Y114.529 E8.49215
G1 X98.725 Y127.546 E9.14157
G1 X98.259 Y129.442 E9.23898
G1 X97.206 Y131.47 E9.35298
G1 X95.645 Y132.929 E9.45958
G1 X93.622 Y134.136 E9.5771
G1 X91.904 Y134.418 E9.66396
G1 X74.584 Y134.494 E10.52807
G1 X72.716 Y134.049 E10.62387
G1 X70.654 Y132.979 E10.73977
G1 X69.174 Y131.384 E10.84833
G1 X68.032 Y129.468 E10.95961
G1 X67.981 Y129.326 E10.96714
G1 X67.701 Y127.547 E11.05698
G1 X67.637 Y114.995 E11.68321
G1 X68.394 Y112.747 E11.80155
G1 X68.806 Y111.935 E11.84698
G1 X69.776 Y110.787 E11.92196
G1 X86.469 Y95.472 E13.05218
G0 F7500 X86.727 Y95.777
G1 F1500 X87.953 Y94.74 E13.13229
G1 X88.954 Y93.996 E13.19451
G1 X90.785 Y92.812 E13.3033
G1 X91.88 Y92.21 E13.36564
G1 X93.583 Y91.416 E13.45938
G1 X95.368 Y90.738 E13.55464
G1 X96.715 Y90.329 E13.62487
G1 X98.567 Y89.897 E13.71975
G1 X99.812 Y89.69 E13.78272
G1 X101.999 Y89.487 E13.8923
G1 X103.692 Y89.453 E13.97678
G1 X105.176 Y89.524 E14.0509
G1 X106.765 Y89.703 E14.13068
G1 X129.86 Y93.04 E15.29486
G1 X131.409 Y93.487 E15.37529
G1 X132.91 Y94.155 E15.45726
G1 X135.519 Y95.677 E15.60795
G1 X136.958 Y96.759 E15.69777
G1 X137.558 Y97.33 E15.73909
G1 X150.743 Y111.895 E16.71926
G1 X151.79 Y113.998 E16.83646
G1 X151.987 Y115.483 E16.9112
G1 X152.026 Y127.563 E17.51388
G1 X151.584 Y129.362 E17.6063
G1 X150.584 Y131.288 E17.71457
G1 X149.107 Y132.668 E17.81541
G1 X147.183 Y133.816 E17.92719
G1 X145.54 Y134.086 E18.01026
G1 X114.767 Y134.156 E19.54553
G1 X112.968 Y133.714 E19.63795
G1 X111.042 Y132.714 E19.74622
G1 X109.662 Y131.237 E19.84707
G1 X108.514 Y129.313 E19.95885
G1 X108.244 Y127.67 E20.04192
G1 X108.174 Y114.486 E20.69968
G1 X108.145 Y113.805 E20.73368
G1 X108.108 Y113.45 E20.75149
G1 X108.058 Y113.164 E20.76598
G1 X107.984 Y112.87 E20.7811
G1 X107.902 Y112.625 E20.79399
G1 X107.709 Y112.148 E20.81966
G1 X107.484 Y111.727 E20.84348
G1 X107.092 Y111.146 E20.87844
G1 X106.796 Y110.819 E20.90045
G1 X106.553 Y110.585 E20.91728
G1 X106.264 Y110.343 E20.93609
G1 X106 Y110.15 E20.9524
G1 X105.708 Y109.969 E20.96954
G1 X105.348 Y109.776 E20.98992
G1 X105.104 Y109.667 E21.00325
G1 X104.857 Y109.577 E21.01637
G1 X104.255 Y109.406 E21.04759
G1 X103.765 Y109.337 E21.07228
G1 X103.415 Y109.313 E21.08978
G1 X103.083 Y109.313 E21.10634
G1 X102.735 Y109.337 E21.12375
G1 X102.426 Y109.381 E21.13932
G1 X102.048 Y109.46 E21.15858
G1 X101.701 Y109.56 E21.1766
G1 X101.415 Y109.662 E21.19175
G1 X101.095 Y109.804 E21.20921
G1 X100.789 Y109.967 E21.22651
G1 X100.526 Y110.131 E21.24198
G1 X100.238 Y110.343 E21.25982
G1 X99.955 Y110.579 E21.2782
G1 X99.693 Y110.832 E21.29637
G1 X99.401 Y111.153 E21.31802
G1 X99.027 Y111.709 E21.35145
G1 X98.829 Y112.048 E21.37104
G1 X98.548 Y112.746 E21.40858
G1 X98.445 Y113.154 E21.42957
G1 X98.391 Y113.464 E21.44527
G1 X98.355 Y113.81 E21.46263
G1 X98.326 Y114.512 E21.49768
G1 X98.325 Y127.5 E22.14565
G1 X97.883 Y129.299 E22.23807
G1 X96.883 Y131.225 E22.34634
G1 X95.406 Y132.605 E22.44719
G1 X93.482 Y133.753 E22.55897
G1 X91.839 Y134.023 E22.64203
G1 X74.63 Y134.094 E23.5006
G1 X72.856 Y133.671 E23.59159
G1 X70.9 Y132.656 E23.70153
G1 X69.498 Y131.145 E23.80437
G1 X68.376 Y129.263 E23.91368
G1 X68.101 Y127.545 E24.00048
G1 X68.037 Y115.059 E24.62342
G1 X68.751 Y112.928 E24.73554
G1 X69.142 Y112.158 E24.77863
G1 X70.082 Y111.045 E24.85131
G1 X86.727 Y95.777 E25.97818
G0 F7500 X86.985 Y96.082
G1 F1500 X88.192 Y95.061 E26.05705
G1 X89.193 Y94.317 E26.11927
G1 X90.978 Y93.163 E26.22531
G1 X92.073 Y92.561 E26.28766
G1 X93.725 Y91.79 E26.37861
G1 X95.484 Y91.121 E26.4725
G1 X96.806 Y90.719 E26.54144
G1 X98.633 Y90.292 E26.63504
G1 X99.878 Y90.085 E26.69801
G1 X102.007 Y89.887 E26.80468
G1 X103.673 Y89.853 E26.88782
G1 X105.131 Y89.922 E26.96064
G1 X106.708 Y90.099 E27.03981
G1 X129.803 Y93.436 E28.20399
G1 X131.247 Y93.853 E28.27897
G1 X132.708 Y94.501 E28.35871
G1 X135.317 Y96.023 E28.5094
G1 X136.682 Y97.049 E28.5946
G1 X137.282 Y97.62 E28.63592
G1 X150.41 Y112.123 E29.61188
G1 X151.402 Y114.115 E29.72291
G1 X151.59 Y115.535 E29.79437
G1 X151.626 Y127.516 E30.39211
G1 X151.207 Y129.22 E30.47965
G1 X150.261 Y131.043 E30.58212
G1 X148.865 Y132.347 E30.67742
G1 X147.045 Y133.433 E30.78316
G1 X145.475 Y133.691 E30.86254
G1 X114.814 Y133.756 E32.39222
G1 X113.11 Y133.337 E32.47977
G1 X111.287 Y132.391 E32.58224
G1 X109.983 Y130.995 E32.67754
G1 X108.897 Y129.175 E32.78328
G1 X108.639 Y127.605 E32.86266
G1 X108.574 Y114.469 E33.51802
G1 X108.545 Y113.788 E33.55203
G1 X108.505 Y113.399 E33.57154
G1 X108.45 Y113.082 E33.58759
G1 X108.372 Y112.772 E33.60354
G1 X108.273 Y112.475 E33.61915
G1 X108.077 Y111.989 E33.6453
G1 X107.956 Y111.742 E33.65902
G1 X107.824 Y111.516 E33.67208
G1 X107.406 Y110.897 E33.70934
G1 X107.087 Y110.544 E33.73308
G1 X106.82 Y110.286 E33.7516
G1 X106.515 Y110.031 E33.77144
G1 X106.223 Y109.817 E33.7895
G1 X105.905 Y109.62 E33.80816
G1 X105.528 Y109.418 E33.8295
G1 X105.258 Y109.297 E33.84426
G1 X104.976 Y109.195 E33.85922
G1 X104.339 Y109.014 E33.89226
G1 X103.806 Y108.939 E33.91911
G1 X103.429 Y108.913 E33.93797
G1 X103.069 Y108.913 E33.95593
G1 X102.694 Y108.939 E33.97468
G1 X102.349 Y108.988 E33.99207
G1 X101.961 Y109.069 E34.01184
G1 X101.566 Y109.183 E34.03235
G1 X101.272 Y109.288 E34.04793
G1 X100.917 Y109.446 E34.06731
G1 X100.586 Y109.622 E34.08602
G1 X100.305 Y109.797 E34.10253
G1 X99.992 Y110.027 E34.12191
G1 X99.682 Y110.286 E34.14206
G1 X99.409 Y110.55 E34.16101
G1 X99.086 Y110.905 E34.18495
G1 X98.69 Y111.494 E34.22036
G1 X98.469 Y111.871 E34.24217
G1 X98.166 Y112.624 E34.28266
G1 X98.054 Y113.066 E34.30541
G1 X97.994 Y113.414 E34.32303
G1 X97.955 Y113.793 E34.34203
G1 X97.926 Y114.495 E34.37709
G1 X97.925 Y127.453 E35.02356
G1 X97.506 Y129.157 E35.11111
G1 X96.56 Y130.98 E35.21358
G1 X95.164 Y132.284 E35.30888
G1 X93.344 Y133.37 E35.41462
G1 X91.774 Y133.628 E35.494
G1 X74.676 Y133.694 E36.34703
G1 X72.996 Y133.293 E36.4332
G1 X71.146 Y132.333 E36.53718
G1 X69.822 Y130.906 E36.6343
G1 X68.759 Y129.123 E36.73786
G1 X68.501 Y127.543 E36.81773
G1 X68.437 Y115.124 E37.43732
G1 X69.108 Y113.109 E37.54328
G1 X69.478 Y112.381 E37.58402
G1 X70.388 Y111.303 E37.6544
G1 X86.985 Y96.082 E38.77792
G0 F7500 X87.243 Y96.387
G1 F1500 X88.431 Y95.382 E38.85555
G1 X89.432 Y94.638 E38.91778
G1 X91.171 Y93.514 E39.02108
G1 X92.266 Y92.912 E39.08342
G1 X93.894 Y92.153 E39.17304
G1 X95.601 Y91.504 E39.26415
G1 X96.897 Y91.109 E39.33174
G1 X98.724 Y90.682 E39.42535
G1 X99.943 Y90.48 E39.48699
G1 X102.015 Y90.287 E39.59081
G1 X103.654 Y90.253 E39.6726
G1 X105.112 Y90.322 E39.74542
G1 X106.651 Y90.495 E39.82269
G1 X129.746 Y93.832 E40.98686
G1 X131.085 Y94.219 E41.0564
G1 X132.506 Y94.847 E41.13391
G1 X135.115 Y96.369 E41.2846
G1 X136.406 Y97.339 E41.36517
G1 X137.006 Y97.91 E41.40649
G1 X150.077 Y112.351 E42.37825
G1 X151.014 Y114.232 E42.48309
G1 X151.193 Y115.587 E42.55128
G1 X151.226 Y127.47 E43.14413
G1 X150.831 Y129.077 E43.22669
G1 X149.938 Y130.798 E43.32342
G1 X148.623 Y132.026 E43.41319
G1 X146.907 Y133.05 E43.51288
G1 X145.41 Y133.296 E43.58857
G1 X114.86 Y133.356 E45.11272
G1 X113.253 Y132.961 E45.19528
G1 X111.532 Y132.068 E45.29201
G1 X110.304 Y130.753 E45.38177
G1 X109.28 Y129.037 E45.48147
G1 X109.034 Y127.54 E45.55716
G1 X108.974 Y114.452 E46.21013
G1 X108.945 Y113.761 E46.24463
G1 X108.902 Y113.35 E46.26525
G1 X108.841 Y112.998 E46.28307
G1 X108.755 Y112.655 E46.30071
G1 X108.65 Y112.339 E46.31732
G1 X108.445 Y111.831 E46.34466
G1 X108.306 Y111.547 E46.36043
G1 X108.161 Y111.3 E46.37472
G1 X107.801 Y110.766 E46.40685
G1 X107.64 Y110.559 E46.41993
G1 X107.379 Y110.27 E46.43936
G1 X107.087 Y109.989 E46.45958
G1 X106.757 Y109.712 E46.48107
G1 X106.445 Y109.484 E46.50035
G1 X106.101 Y109.271 E46.52054
G1 X105.713 Y109.063 E46.5425
G1 X105.407 Y108.926 E46.55923
G1 X105.095 Y108.813 E46.57578
G1 X104.546 Y108.657 E46.60426
G1 X104.286 Y108.603 E46.61751
G1 X103.847 Y108.541 E46.63962
G1 X103.443 Y108.513 E46.65983
G1 X103.057 Y108.513 E46.67909
G1 X102.65 Y108.541 E46.69944
G1 X102.273 Y108.595 E46.71844
G1 X101.879 Y108.677 E46.73852
G1 X101.437 Y108.804 E46.76146
G1 X101.118 Y108.919 E46.77838
G1 X100.746 Y109.084 E46.79868
G1 X100.387 Y109.275 E46.81897
G1 X100.079 Y109.467 E46.83708
G1 X99.75 Y109.708 E46.85742
G1 X99.415 Y109.989 E46.87924
G1 X99.118 Y110.275 E46.89981
G1 X98.771 Y110.657 E46.92556
G1 X98.352 Y111.279 E46.96297
G1 X98.109 Y111.695 E46.98701
G1 X97.834 Y112.378 E47.02374
G1 X97.75 Y112.635 E47.03723
G1 X97.662 Y112.985 E47.05524
G1 X97.597 Y113.362 E47.07432
G1 X97.555 Y113.776 E47.09508
G1 X97.526 Y114.478 E47.13013
G1 X97.525 Y127.407 E47.77517
G1 X97.13 Y129.014 E47.85773
G1 X96.237 Y130.735 E47.95446
G1 X94.922 Y131.963 E48.04422
G1 X93.206 Y132.987 E48.14392
G1 X91.709 Y133.233 E48.2196
G1 X74.722 Y133.294 E49.06709
G1 X73.136 Y132.915 E49.14845
G1 X71.392 Y132.01 E49.24647
G1 X70.146 Y130.667 E49.33787
G1 X69.142 Y128.983 E49.43569
G1 X68.896 Y127.478 E49.51177
G1 X68.837 Y115.189 E50.12487
G1 X69.465 Y113.29 E50.22466
G1 X69.814 Y112.604 E50.26306
G1 X70.694 Y111.561 E50.33114
G1 X87.243 Y96.387 E51.45131
G0 F7500 X87.501 Y96.692
G1 F1500 X88.67 Y95.703 E51.5277
G1 X89.671 Y94.959 E51.58993
G1 X91.364 Y93.865 E51.69049
G1 X92.459 Y93.263 E51.75283
G1 X94.036 Y92.527 E51.83966
G1 X95.718 Y91.887 E51.92944
G1 X96.988 Y91.499 E51.99569
G1 X98.815 Y91.072 E52.0893
G1 X100.008 Y90.875 E52.14962
G1 X102.023 Y90.687 E52.25059
G1 X103.635 Y90.653 E52.33103
G1 X105.093 Y90.722 E52.40385
G1 X106.594 Y90.891 E52.47921
G1 X129.689 Y94.228 E53.64339
G1 X130.924 Y94.585 E53.70752
G1 X132.304 Y95.193 E53.78276
G1 X134.913 Y96.715 E53.93345
G1 X136.13 Y97.629 E54.00938
G1 X136.73 Y98.2 E54.05071
G1 X149.744 Y112.579 E55.01827
G1 X150.626 Y114.349 E55.11693
G1 X150.796 Y115.639 E55.18185
G1 X150.826 Y127.424 E55.7698
G1 X150.455 Y128.934 E55.84738
G1 X149.615 Y130.553 E55.93838
G1 X148.381 Y131.705 E56.0226
G1 X146.769 Y132.667 E56.11625
G1 X145.345 Y132.901 E56.18825
G1 X114.906 Y132.956 E57.70686
G1 X113.396 Y132.585 E57.78443
G1 X111.777 Y131.745 E57.87543
G1 X110.625 Y130.511 E57.95965
G1 X109.663 Y128.899 E58.05331
G1 X109.429 Y127.475 E58.12531
G1 X109.374 Y114.435 E58.77588
G1 X109.345 Y113.744 E58.81038
G1 X109.299 Y113.3 E58.83265
G1 X109.233 Y112.917 E58.85204
G1 X109.138 Y112.538 E58.87154
G1 X109.027 Y112.203 E58.88914
G1 X108.81 Y111.666 E58.91804
G1 X108.656 Y111.353 E58.93544
G1 X108.502 Y111.089 E58.95069
G1 X108.126 Y110.531 E58.98426
G1 X107.951 Y110.306 E58.99848
G1 X107.671 Y109.996 E59.01932
G1 X107.354 Y109.691 E59.04127
G1 X107 Y109.394 E59.06432
G1 X106.673 Y109.155 E59.08453
G1 X106.29 Y108.918 E59.107
G1 X105.898 Y108.708 E59.12919
G1 X105.556 Y108.555 E59.14788
G1 X105.214 Y108.431 E59.16603
G1 X104.639 Y108.268 E59.19584
G1 X104.36 Y108.21 E59.21006
G1 X103.888 Y108.143 E59.23385
G1 X103.457 Y108.113 E59.2554
G1 X103.043 Y108.113 E59.27605
G1 X102.609 Y108.143 E59.29776
G1 X102.195 Y108.202 E59.31862
G1 X101.792 Y108.286 E59.33916
G1 X101.317 Y108.423 E59.36382
G1 X100.966 Y108.549 E59.38243
G1 X100.568 Y108.726 E59.40416
G1 X100.175 Y108.935 E59.42637
G1 X99.862 Y109.13 E59.44477
G1 X99.508 Y109.389 E59.46665
G1 X99.148 Y109.691 E59.49009
G1 X98.827 Y110 E59.51232
G1 X98.538 Y110.319 E59.5338
G1 X98.372 Y110.533 E59.54731
G1 X98.02 Y111.055 E59.57872
G1 X97.815 Y111.406 E59.599
G1 X97.697 Y111.648 E59.61243
G1 X97.46 Y112.235 E59.64401
G1 X97.363 Y112.532 E59.6596
G1 X97.271 Y112.901 E59.67857
G1 X97.2 Y113.312 E59.69938
G1 X97.155 Y113.751 E59.7214
G1 X97.126 Y114.462 E59.7569
G1 X97.125 Y127.361 E60.40043
G1 X96.754 Y128.871 E60.47801
G1 X95.914 Y130.49 E60.56901
G1 X94.68 Y131.642 E60.65323
G1 X93.068 Y132.604 E60.74688
G1 X91.644 Y132.838 E60.81888
G1 X74.768 Y132.894 E61.66083
G1 X73.276 Y132.537 E61.73737
G1 X71.638 Y131.687 E61.82944
G1 X70.47 Y130.428 E61.91512
G1 X69.525 Y128.843 E62.00718
G1 X69.291 Y127.413 E62.07947
G1 X69.237 Y115.254 E62.68609
G1 X69.845 Y113.416 E62.78268
G1 X70.149 Y112.828 E62.8157
G1 X71 Y111.819 E62.88155
G1 X87.501 Y96.692 E63.99837
G0 F7500 X87.759 Y96.997
G1 F1500 X88.909 Y96.024 E64.07352
G1 X89.91 Y95.28 E64.13575
G1 X91.557 Y94.216 E64.23357
G1 X92.652 Y93.614 E64.29591
G1 X94.205 Y92.89 E64.3814
G1 X95.835 Y92.27 E64.4684
G1 X97.105 Y91.882 E64.53466
G1 X98.88 Y91.467 E64.6256
G1 X100.073 Y91.27 E64.68592
G1 X102.032 Y91.087 E64.78408
G1 X103.616 Y91.053 E64.86313
G1 X105.048 Y91.12 E64.93465
G1 X106.537 Y91.287 E65.0094
G1 X129.632 Y94.624 E66.17358
G1 X130.763 Y94.951 E66.23232
G1 X132.102 Y95.539 E66.30528
G1 X134.711 Y97.061 E66.45597
G1 X135.854 Y97.919 E66.52727
G1 X136.454 Y98.49 E66.5686
G1 X149.411 Y112.807 E67.53196
G1 X150.238 Y114.466 E67.62444
G1 X150.399 Y115.691 E67.68608
G1 X150.426 Y127.377 E68.2691
G1 X150.078 Y128.792 E68.3418
G1 X149.292 Y130.308 E68.42699
G1 X148.139 Y131.384 E68.50567
G1 X146.631 Y132.284 E68.59329
G1 X145.28 Y132.506 E68.66159
G1 X114.953 Y132.556 E70.17461
G1 X113.538 Y132.208 E70.24731
G1 X112.022 Y131.422 E70.33251
G1 X110.946 Y130.269 E70.41119
G1 X110.046 Y128.761 E70.4988
G1 X109.824 Y127.41 E70.56711
G1 X109.774 Y114.418 E71.21529
G1 X109.745 Y113.717 E71.25029
G1 X109.697 Y113.258 E71.27331
G1 X109.624 Y112.833 E71.29483
G1 X109.521 Y112.421 E71.31602
G1 X109.407 Y112.077 E71.3341
G1 X109.175 Y111.501 E71.36508
G1 X109.012 Y111.17 E71.38348
G1 X108.834 Y110.865 E71.4011
G1 X108.458 Y110.307 E71.43467
G1 X108.256 Y110.047 E71.4511
G1 X107.956 Y109.715 E71.47342
G1 X107.621 Y109.392 E71.49664
G1 X107.251 Y109.082 E71.52072
G1 X106.901 Y108.826 E71.54235
G1 X106.479 Y108.565 E71.56711
