;FLAVOR:Marlin
;TIME:1751
;Filament used: 1.961m
;Layer height: 0.4
;MINX:83.212
;MINY:87.603
;MINZ:0.3
;MAXX:136.789
;MAXY:132.376
;MAXZ:15.1
;Generated with Cura_SteamEngine 5.4.0
M140 S98
M105
M190 S98
M104 S240
M105
M109 S240
M82 ;absolute extrusion mode
G28 ;Home
G1 Z15.0 F2000 ;Move the platform
G92 E0
G92 E0
G1 F1500 E-6.5
;LAYER_COUNT:38
;LAYER:0
M107
M204 S1000
G0 F7500 X88.826 Y95.737 Z0.3
;TYPE:SKIRT
G1 F1500 E0
G1 X91.063 Y93.668 E0.15202
G1 X92.749 Y92.453 E0.2557
G1 X95.08 Y91.151 E0.38891
G1 X96.898 Y90.384 E0.48735
G1 X99.675 Y89.58 E0.63158
G1 X101.296 Y89.297 E0.71368
G1 X104.634 Y89.119 E0.88045
G1 X106.37 Y89.232 E0.96724
G1 X108.767 Y89.455 E1.08735
G1 X111.416 Y89.556 E1.2196
G1 X113.687 Y89.498 E1.33294
G1 X115.998 Y89.321 E1.44857
G1 X118.596 Y88.977 E1.57932
G1 X120.772 Y88.566 E1.6898
G1 X123.8 Y87.826 E1.84531
G1 X125.278 Y87.622 E1.91975
G1 X126.148 Y87.603 E1.96316
G1 X128.878 Y87.964 E2.10055
G1 X130.348 Y88.526 E2.17907
G1 X132.018 Y89.403 E2.27317
G1 X133.434 Y90.594 E2.36548
G1 X134.606 Y91.921 E2.45381
G1 X135.72 Y93.741 E2.56027
G1 X136.229 Y94.993 E2.6277
G1 X136.616 Y96.565 E2.70847
G1 X136.777 Y98.148 E2.78785
G1 X136.789 Y108.804 E3.31948
G1 X136.5 Y109.976 E3.3797
G1 X136.789 Y110.809 E3.42369
G1 X136.736 Y122.542 E4.00906
G1 X136.605 Y123.538 E4.05918
G1 X136.084 Y125.396 E4.15545
G1 X135.395 Y126.992 E4.24218
G1 X134.092 Y128.723 E4.35027
G1 X132.903 Y129.871 E4.43273
G1 X131.138 Y131.083 E4.53954
G1 X129.81 Y131.698 E4.61256
G1 X128.222 Y132.211 E4.69582
G1 X126.677 Y132.376 E4.77333
G1 X124.156 Y132.249 E4.89927
G1 X123.45 Y132.108 E4.93519
G1 X120.792 Y131.44 E5.07192
G1 X118.271 Y130.961 E5.19994
G1 X116.273 Y130.695 E5.3005
G1 X113.702 Y130.501 E5.42913
G1 X111.398 Y130.444 E5.54411
G1 X108.739 Y130.547 E5.67687
G1 X106.075 Y130.797 E5.81036
G1 X104.161 Y130.892 E5.90597
G1 X101.268 Y130.705 E6.0506
G1 X99.422 Y130.369 E6.14422
G1 X96.534 Y129.482 E6.29494
G1 X94.921 Y128.777 E6.38276
G1 X92.258 Y127.223 E6.53659
G1 X91.013 Y126.298 E6.61397
G1 X88.574 Y123.997 E6.78126
G1 X87.356 Y122.515 E6.87696
G1 X85.873 Y120.23 E7.01286
G1 X84.837 Y118.115 E7.13036
G1 X84.031 Y115.84 E7.25077
G1 X83.583 Y113.981 E7.34618
G1 X83.212 Y110.692 E7.5113
G1 X83.269 Y108.271 E7.63212
G1 X83.504 Y106.429 E7.72476
G1 X84.203 Y103.586 E7.87083
G1 X84.742 Y102.107 E7.94936
G1 X86.258 Y99.107 E8.11706
G1 X87.341 Y97.503 E8.21361
G1 X88.826 Y95.737 E8.32873
G0 F7500 X89.098 Y96.03
G1 F1500 X91.297 Y93.993 E8.47827
G1 X92.983 Y92.778 E8.58196
G1 X95.235 Y91.52 E8.71065
G1 X97.053 Y90.753 E8.80909
G1 X99.744 Y89.974 E8.94886
G1 X101.365 Y89.691 E9.03095
G1 X104.608 Y89.518 E9.19298
G1 X106.333 Y89.63 E9.27922
G1 X108.752 Y89.855 E9.40042
G1 X111.411 Y89.956 E9.53318
G1 X113.709 Y89.898 E9.64786
G1 X116.045 Y89.719 E9.76475
G1 X118.649 Y89.374 E9.8958
G1 X120.849 Y88.959 E10.00749
G1 X123.855 Y88.222 E10.1619
G1 X125.289 Y88.022 E10.23414
G1 X126.096 Y88 E10.27441
G1 X128.779 Y88.355 E10.40944
G1 X130.205 Y88.9 E10.4856
G1 X131.792 Y89.736 E10.57509
G1 X133.135 Y90.86 E10.66246
G1 X134.265 Y92.131 E10.74731
G1 X135.349 Y93.892 E10.85048
G1 X135.858 Y95.144 E10.9179
G1 X136.218 Y96.605 E10.99297
G1 X136.379 Y98.188 E11.07236
G1 X136.389 Y108.757 E11.59965
G1 X136.083 Y109.996 E11.66332
G1 X136.389 Y110.876 E11.7098
G1 X136.339 Y122.49 E12.28923
G1 X136.208 Y123.486 E12.33935
G1 X135.717 Y125.237 E12.43008
G1 X135.048 Y126.787 E12.5143
G1 X133.772 Y128.482 E12.62015
G1 X132.677 Y129.541 E12.69615
G1 X130.912 Y130.753 E12.80296
G1 X129.687 Y131.317 E12.87025
G1 X128.138 Y131.817 E12.95145
G1 X126.634 Y131.978 E13.02692
G1 X124.234 Y131.857 E13.14681
G1 X123.547 Y131.72 E13.18175
G1 X120.876 Y131.049 E13.31915
G1 X118.327 Y130.564 E13.4486
G1 X116.321 Y130.297 E13.54957
G1 X113.722 Y130.101 E13.6796
G1 X111.393 Y130.044 E13.79583
G1 X108.723 Y130.147 E13.92913
G1 X106.055 Y130.397 E14.06282
G1 X104.141 Y130.492 E14.15843
G1 X101.34 Y130.311 E14.29847
G1 X99.494 Y129.975 E14.39208
G1 X96.694 Y129.115 E14.53821
G1 X95.081 Y128.41 E14.62603
G1 X92.497 Y126.902 E14.7753
G1 X91.252 Y125.977 E14.85268
G1 X88.883 Y123.743 E15.01513
G1 X87.692 Y122.297 E15.10859
G1 X86.209 Y120.012 E15.24449
G1 X85.214 Y117.981 E15.35733
G1 X84.42 Y115.746 E15.47566
G1 X83.972 Y113.887 E15.57106
G1 X83.612 Y110.701 E15.73102
G1 X83.666 Y108.322 E15.84974
G1 X83.901 Y106.48 E15.94238
G1 X84.579 Y103.723 E16.08403
G1 X85.118 Y102.244 E16.16257
G1 X86.59 Y99.331 E16.3254
G1 X87.673 Y97.727 E16.42195
G1 X89.098 Y96.03 E16.53251
G0 F7500 X89.404 Y96.288
G1 F1500 X91.531 Y94.318 E16.67715
G1 X93.217 Y93.103 E16.78083
G1 X95.39 Y91.889 E16.90501
G1 X97.208 Y91.122 E17.00345
G1 X99.813 Y90.368 E17.13875
G1 X101.434 Y90.085 E17.22085
G1 X104.582 Y89.917 E17.37812
G1 X106.296 Y90.028 E17.46381
G1 X108.736 Y90.255 E17.58607
G1 X111.406 Y90.356 E17.71937
G1 X113.731 Y90.298 E17.8354
G1 X116.09 Y90.117 E17.95344
G1 X118.704 Y89.771 E18.08499
G1 X120.943 Y89.348 E18.19867
G1 X123.95 Y88.611 E18.35313
G1 X125.3 Y88.422 E18.42114
G1 X126.107 Y88.4 E18.46142
G1 X128.678 Y88.745 E18.59083
G1 X130.019 Y89.254 E18.66239
G1 X131.566 Y90.069 E18.74963
G1 X132.878 Y91.167 E18.83498
G1 X133.925 Y92.342 E18.9135
G1 X134.978 Y94.043 E19.01331
G1 X135.487 Y95.295 E19.08074
G1 X135.82 Y96.645 E19.15011
G1 X135.981 Y98.228 E19.22949
G1 X135.989 Y108.71 E19.75244
G1 X135.666 Y110.017 E19.81961
G1 X135.989 Y110.944 E19.86858
G1 X135.942 Y122.438 E20.44203
G1 X135.811 Y123.434 E20.49214
G1 X135.35 Y125.079 E20.57738
G1 X134.702 Y126.581 E20.65899
G1 X133.452 Y128.241 E20.76266
G1 X132.45 Y129.212 E20.83227
G1 X130.744 Y130.39 E20.9357
G1 X129.564 Y130.936 E21.00057
G1 X128.054 Y131.424 E21.07974
G1 X126.592 Y131.58 E21.15309
G1 X124.312 Y131.465 E21.26699
G1 X123.645 Y131.332 E21.30092
G1 X120.964 Y130.658 E21.43884
G1 X118.401 Y130.171 E21.56899
G1 X116.351 Y129.898 E21.67217
G1 X113.742 Y129.701 E21.80271
G1 X111.388 Y129.644 E21.92018
G1 X108.707 Y129.747 E22.05404
G1 X106.035 Y129.997 E22.18793
G1 X104.121 Y130.092 E22.28353
G1 X101.412 Y129.917 E22.41897
G1 X99.566 Y129.581 E22.51258
G1 X96.854 Y128.748 E22.65412
G1 X95.241 Y128.043 E22.74194
G1 X92.736 Y126.581 E22.88664
G1 X91.491 Y125.656 E22.96403
G1 X89.191 Y123.488 E23.12171
G1 X88.028 Y122.079 E23.21286
G1 X86.545 Y119.794 E23.34877
G1 X85.591 Y117.847 E23.45694
G1 X84.809 Y115.652 E23.57319
G1 X84.361 Y113.793 E23.66859
G1 X84.012 Y110.71 E23.82338
G1 X84.063 Y108.373 E23.94
G1 X84.298 Y106.531 E24.03265
G1 X84.955 Y103.86 E24.16988
G1 X85.494 Y102.381 E24.24841
G1 X86.922 Y99.555 E24.40638
G1 X88.005 Y97.951 E24.50293
G1 X89.404 Y96.288 E24.61136
G0 F7500 X89.676 Y96.581
G1 F1500 X91.765 Y94.643 E24.75352
G1 X93.451 Y93.428 E24.8572
G1 X95.545 Y92.258 E24.97687
G1 X97.363 Y91.491 E25.07531
G1 X99.882 Y90.762 E25.20614
G1 X101.503 Y90.479 E25.28824
G1 X104.556 Y90.316 E25.44077
G1 X106.259 Y90.426 E25.52591
G1 X108.721 Y90.655 E25.64927
G1 X111.401 Y90.756 E25.78307
G1 X113.753 Y90.698 E25.90045
G1 X116.137 Y90.515 E26.01974
G1 X118.757 Y90.168 E26.15159
G1 X121.037 Y89.737 E26.26735
G1 X124.045 Y89 E26.42186
G1 X125.311 Y88.822 E26.48565
G1 X126.118 Y88.8 E26.52592
G1 X128.579 Y89.135 E26.64983
G1 X129.832 Y89.608 E26.71665
G1 X131.344 Y90.405 E26.80192
G1 X132.579 Y91.433 E26.88209
G1 X133.626 Y92.608 E26.96061
G1 X134.607 Y94.194 E27.05365
G1 X135.116 Y95.446 E27.12107
G1 X135.422 Y96.685 E27.18474
G1 X135.583 Y98.268 E27.26413
G1 X135.589 Y108.663 E27.78274
G1 X135.249 Y110.038 E27.8534
G1 X135.589 Y111.012 E27.90487
G1 X135.545 Y122.386 E28.47233
G1 X135.414 Y123.382 E28.52245
G1 X134.983 Y124.921 E28.60218
G1 X134.355 Y126.377 E28.68129
G1 X133.172 Y127.955 E28.77968
G1 X132.222 Y128.883 E28.84594
G1 X130.575 Y130.027 E28.94598
G1 X129.441 Y130.555 E29.00839
G1 X127.97 Y131.03 E29.08551
G1 X126.549 Y131.182 E29.15681
G1 X124.39 Y131.073 E29.26466
G1 X123.742 Y130.944 E29.29762
G1 X121.048 Y130.267 E29.43621
G1 X118.457 Y129.774 E29.56779
G1 X116.399 Y129.5 E29.67137
G1 X113.762 Y129.301 E29.80331
G1 X111.383 Y129.244 E29.92203
G1 X108.691 Y129.347 E30.05643
G1 X106.015 Y129.597 E30.19052
G1 X104.101 Y129.692 E30.28613
G1 X101.484 Y129.523 E30.41696
G1 X99.638 Y129.187 E30.51057
G1 X97.014 Y128.381 E30.64752
G1 X95.401 Y127.676 E30.73534
G1 X92.975 Y126.26 E30.87549
G1 X91.73 Y125.335 E30.95287
G1 X89.499 Y123.233 E31.10579
G1 X88.364 Y121.861 E31.19463
G1 X86.881 Y119.576 E31.33053
G1 X85.968 Y117.712 E31.43408
G1 X85.198 Y115.558 E31.54821
G1 X84.75 Y113.699 E31.64361
G1 X84.412 Y110.718 E31.79328
G1 X84.46 Y108.424 E31.90776
G1 X84.695 Y106.582 E32.0004
G1 X85.331 Y103.997 E32.13321
G1 X85.87 Y102.518 E32.21175
G1 X87.254 Y99.779 E32.36485
G1 X88.337 Y98.175 E32.46141
G1 X89.676 Y96.581 E32.56527
G0 F7500 X89.982 Y96.839
G1 F1500 X91.999 Y94.968 E32.70252
G1 X93.685 Y93.753 E32.8062
G1 X95.7 Y92.627 E32.92136
G1 X97.518 Y91.86 E33.01981
G1 X99.951 Y91.156 E33.14617
G1 X101.572 Y90.873 E33.22826
G1 X104.53 Y90.715 E33.37605
G1 X106.222 Y90.824 E33.46064
G1 X108.705 Y91.055 E33.58505
G1 X111.396 Y91.156 E33.7194
G1 X113.775 Y91.098 E33.83812
G1 X116.182 Y90.913 E33.95856
G1 X118.812 Y90.565 E34.09092
G1 X121.132 Y90.126 E34.20872
G1 X124.14 Y89.389 E34.36323
G1 X125.322 Y89.222 E34.42278
G1 X126.129 Y89.2 E34.46306
G1 X128.481 Y89.525 E34.58151
G1 X129.645 Y89.962 E34.64354
G1 X131.122 Y90.741 E34.72685
G1 X132.28 Y91.699 E34.80183
G1 X133.327 Y92.874 E34.88035
G1 X134.236 Y94.345 E34.96662
G1 X134.745 Y95.597 E35.03405
G1 X135.024 Y96.725 E35.09202
G1 X135.185 Y98.308 E35.1714
G1 X135.189 Y108.616 E35.68567
G1 X134.832 Y110.059 E35.75983
G1 X135.189 Y111.08 E35.8138
G1 X135.148 Y122.334 E36.37526
G1 X135.017 Y123.33 E36.42538
G1 X134.616 Y124.763 E36.49962
G1 X134.007 Y126.176 E36.57638
G1 X132.892 Y127.669 E36.66935
G1 X131.942 Y128.597 E36.73561
G1 X130.405 Y129.665 E36.82898
G1 X129.318 Y130.174 E36.88886
G1 X127.886 Y130.637 E36.96395
G1 X126.507 Y130.784 E37.03314
G1 X124.468 Y130.681 E37.13499
G1 X123.839 Y130.556 E37.16699
G1 X121.132 Y129.876 E37.30624
G1 X118.531 Y129.381 E37.43833
G1 X116.429 Y129.101 E37.54412
G1 X113.782 Y128.901 E37.67656
G1 X111.377 Y128.844 E37.79658
G1 X108.675 Y128.947 E37.93148
G1 X105.995 Y129.197 E38.06577
G1 X104.081 Y129.292 E38.16138
G1 X101.556 Y129.129 E38.28761
G1 X99.71 Y128.793 E38.38122
G1 X97.174 Y128.014 E38.51358
G1 X95.561 Y127.309 E38.6014
G1 X93.214 Y125.939 E38.73698
G1 X91.969 Y125.014 E38.81436
G1 X89.807 Y122.978 E38.96252
G1 X88.7 Y121.643 E39.04905
G1 X87.217 Y119.358 E39.18495
G1 X86.345 Y117.577 E39.28388
G1 X85.587 Y115.464 E39.39588
G1 X85.139 Y113.605 E39.49128
G1 X84.812 Y110.726 E39.63584
G1 X84.857 Y108.474 E39.74821
G1 X85.084 Y106.677 E39.83858
G1 X85.707 Y104.134 E39.9692
G1 X86.246 Y102.655 E40.04774
G1 X87.586 Y100.003 E40.19598
G1 X88.669 Y98.399 E40.29253
G1 X89.982 Y96.839 E40.39426
G0 F7500 X90.254 Y97.132
G1 F1500 X92.233 Y95.293 E40.52904
G1 X93.919 Y94.078 E40.63272
G1 X95.855 Y92.996 E40.74337
G1 X97.673 Y92.229 E40.84181
G1 X100.02 Y91.55 E40.96371
G1 X101.641 Y91.267 E41.0458
G1 X104.504 Y91.114 E41.18884
G1 X106.185 Y91.222 E41.27288
G1 X108.69 Y91.455 E41.39839
G1 X111.391 Y91.556 E41.53324
G1 X113.797 Y91.498 E41.65331
G1 X116.229 Y91.311 E41.775
G1 X118.865 Y90.962 E41.90766
G1 X121.227 Y90.515 E42.02759
G1 X124.235 Y89.778 E42.1821
G1 X125.333 Y89.622 E42.23743
G1 X126.14 Y89.6 E42.27771
G1 X128.383 Y89.915 E42.39071
G1 X129.504 Y90.336 E42.45045
G1 X130.897 Y91.074 E42.5291
G1 X131.982 Y91.966 E42.59917
G1 X132.987 Y93.085 E42.67421
G1 X133.865 Y94.496 E42.75712
G1 X134.374 Y95.748 E42.82455
G1 X134.626 Y96.765 E42.87682
G1 X134.787 Y98.348 E42.95621
G1 X134.789 Y108.569 E43.46613
G1 X134.415 Y110.08 E43.54379
G1 X134.789 Y111.148 E43.60025
G1 X134.751 Y122.282 E44.15573
G1 X134.62 Y123.278 E44.20585
G1 X134.249 Y124.605 E44.27459
G1 X133.66 Y125.972 E44.34885
G1 X132.611 Y127.384 E44.43661
G1 X131.713 Y128.269 E44.49951
G1 X130.234 Y129.303 E44.58954
G1 X129.195 Y129.793 E44.64685
G1 X127.802 Y130.243 E44.71989
G1 X126.464 Y130.386 E44.78702
G1 X124.546 Y130.289 E44.88283
G1 X123.937 Y130.168 E44.91381
G1 X121.22 Y129.485 E45.05358
G1 X118.605 Y128.988 E45.18638
G1 X116.46 Y128.702 E45.29434
G1 X113.802 Y128.501 E45.42732
G1 X111.371 Y128.444 E45.54864
G1 X108.659 Y128.547 E45.68404
G1 X105.975 Y128.797 E45.81853
G1 X104.061 Y128.892 E45.91413
G1 X101.628 Y128.735 E46.03577
G1 X99.782 Y128.399 E46.12938
G1 X97.334 Y127.647 E46.25714
G1 X95.721 Y126.942 E46.34497
G1 X93.453 Y125.618 E46.47599
G1 X92.208 Y124.693 E46.55337
G1 X90.115 Y122.722 E46.6968
G1 X89.036 Y121.425 E46.78097
G1 X87.553 Y119.14 E46.91688
G1 X86.722 Y117.442 E47.01119
G1 X85.964 Y115.329 E47.12319
G1 X85.528 Y113.512 E47.21641
G1 X85.212 Y110.734 E47.3559
G1 X85.254 Y108.524 E47.46618
G1 X85.481 Y106.727 E47.55654
G1 X86.083 Y104.271 E47.6827
G1 X86.622 Y102.792 E47.76123
G1 X87.918 Y100.227 E47.90461
G1 X89.001 Y98.623 E48.00117
G1 X90.254 Y97.132 E48.09833
G0 F7500 X90.56 Y97.39
G1 F1500 X92.467 Y95.618 E48.22821
G1 X94.153 Y94.403 E48.33189
G1 X96.01 Y93.365 E48.43802
G1 X97.828 Y92.598 E48.53647
G1 X100.089 Y91.944 E48.65389
G1 X101.71 Y91.661 E48.73599
G1 X104.478 Y91.513 E48.87428
G1 X106.148 Y91.62 E48.95777
G1 X108.675 Y91.855 E49.08438
G1 X111.386 Y91.956 E49.21973
G1 X113.819 Y91.898 E49.34115
G1 X116.276 Y91.709 E49.46409
G1 X118.918 Y91.359 E49.59705
G1 X121.304 Y90.907 E49.71821
G1 X124.292 Y90.174 E49.8717
G1 X125.344 Y90.022 E49.92473
G1 X126.151 Y90 E49.965
G1 X128.283 Y90.305 E50.07245
G1 X129.317 Y90.69 E50.1275
G1 X130.675 Y91.409 E50.20416
G1 X131.685 Y92.234 E50.26922
G1 X132.648 Y93.298 E50.34082
G1 X133.494 Y94.647 E50.42026
G1 X134.003 Y95.899 E50.48769
G1 X134.228 Y96.805 E50.53426
G1 X134.389 Y98.388 E50.61365
G1 X134.389 Y108.518 E51.11903
G1 X134.045 Y109.927 E51.19139
G1 X133.987 Y110.067 E51.19895
G1 X134.389 Y111.214 E51.25959
G1 X134.354 Y122.23 E51.80918
G1 X134.223 Y123.226 E51.8593
G1 X133.882 Y124.447 E51.92255
G1 X133.313 Y125.768 E51.99431
G1 X132.329 Y127.1 E52.07693
G1 X131.483 Y127.942 E52.13648
G1 X130.063 Y128.942 E52.22313
G1 X129.072 Y129.412 E52.27785
G1 X127.718 Y129.849 E52.34883
G1 X126.421 Y129.988 E52.41391
G1 X124.624 Y129.897 E52.50367
G1 X124.034 Y129.78 E52.53368
G1 X121.304 Y129.094 E52.67412
G1 X118.68 Y128.595 E52.80737
G1 X116.491 Y128.303 E52.91755
G1 X113.822 Y128.101 E53.05109
G1 X111.365 Y128.044 E53.1737
G1 X108.644 Y128.147 E53.30955
G1 X105.955 Y128.397 E53.44428
G1 X104.041 Y128.492 E53.53989
G1 X101.7 Y128.341 E53.65693
G1 X99.854 Y128.005 E53.75054
G1 X97.494 Y127.28 E53.87371
G1 X95.881 Y126.575 E53.96153
G1 X93.692 Y125.297 E54.08799
G1 X92.447 Y124.372 E54.16537
G1 X90.423 Y122.466 E54.30408
G1 X89.344 Y121.169 E54.38825
G1 X87.912 Y118.964 E54.51942
G1 X87.099 Y117.307 E54.6115
G1 X86.341 Y115.194 E54.7235
G1 X85.917 Y113.419 E54.81454
G1 X85.612 Y110.741 E54.94901
G1 X85.651 Y108.574 E55.05714
G1 X85.878 Y106.777 E55.14751
G1 X86.459 Y104.408 E55.2692
G1 X86.998 Y102.929 E55.34774
G1 X88.25 Y100.451 E55.48625
G1 X89.333 Y98.847 E55.5828
G1 X90.56 Y97.39 E55.67784
G0 F7500 X90.833 Y97.683
G1 F1500 X92.701 Y95.943 E55.8052
G1 X94.387 Y94.728 E55.90888
G1 X96.165 Y93.734 E56.01051
G1 X97.983 Y92.967 E56.10895
G1 X100.158 Y92.338 E56.22191
G1 X101.779 Y92.055 E56.304
G1 X104.452 Y91.912 E56.43755
G1 X106.111 Y92.018 E56.52048
G1 X108.66 Y92.255 E56.6482
G1 X111.38 Y92.356 E56.784
G1 X113.841 Y92.298 E56.90681
G1 X116.323 Y92.107 E57.03101
G1 X118.971 Y91.756 E57.16427
G1 X121.385 Y91.299 E57.28684
G1 X124.35 Y90.57 E57.43917
G1 X125.355 Y90.422 E57.48985
G1 X126.162 Y90.4 E57.53013
G1 X128.187 Y90.696 E57.63223
G1 X129.13 Y91.044 E57.68238
G1 X130.453 Y91.744 E57.75705
G1 X131.388 Y92.502 E57.81711
G1 X132.351 Y93.566 E57.8887
G1 X133.123 Y94.798 E57.96124
G1 X133.632 Y96.05 E58.02866
G1 X133.839 Y96.9 E58.07231
G1 X133.989 Y98.388 E58.14692
G1 X133.989 Y108.468 E58.64982
G1 X133.656 Y109.832 E58.71986
G1 X133.555 Y110.045 E58.73163
G1 X133.989 Y111.281 E58.79698
G1 X133.957 Y122.178 E59.34064
G1 X133.826 Y123.174 E59.39076
