;FLAVOR:Marlin
;TIME:3402
;Filament used: 1.79313m
;Layer height: 0.15
;MINX:74.7
;MINY:97.849
;MINZ:0.3
;MAXX:144.651
;MAXY:124
;MAXZ:13.8
;Generated with Cura_SteamEngine 5.4.0
M140 S98
M105
M190 S98
M104 S240
M105
M109 S240
M82 ;absolute extrusion mode
G28 ;Home
G1 Z15.0 F2000 ;Move the platform
G92 E0
G92 E0
G1 F1500 E-6.5
;LAYER_COUNT:91
;LAYER:0
M107
M204 S1000
G0 F7500 X77.78 Y99.414 Z0.3
;TYPE:SKIRT
G1 F1500 E0
G1 X79.803 Y98.207 E0.11753
G1 X81.521 Y97.925 E0.20439
G1 X137.629 Y97.849 E3.00363
G1 X139.579 Y98.339 E3.10394
G1 X141.179 Y99.194 E3.19444
G1 X141.988 Y99.761 E3.24373
G1 X143.386 Y101.448 E3.35304
G1 X144.087 Y102.998 E3.43791
G1 X144.651 Y104.749 E3.52969
G1 X144.647 Y117.02 E4.14189
G1 X144.167 Y118.594 E4.22399
G1 X143.409 Y120.328 E4.3184
G1 X141.703 Y122.238 E4.44617
G1 X139.639 Y123.439 E4.56531
G1 X138.912 Y123.734 E4.60445
G1 X137.526 Y123.939 E4.67435
G1 X81.647 Y124 E7.46217
G1 X79.751 Y123.534 E7.55957
G1 X77.723 Y122.481 E7.67358
G1 X76.264 Y120.92 E7.78017
G1 X75.057 Y118.897 E7.8977
G1 X74.775 Y117.179 E7.98456
G1 X74.7 Y104.807 E8.60181
G1 X75.168 Y102.899 E8.69983
G1 X76.219 Y100.873 E8.81369
G1 X77.78 Y99.414 E8.92029
G0 F7500 X78.019 Y99.738
G1 F1500 X79.943 Y98.59 E9.03207
G1 X81.586 Y98.32 E9.11514
G1 X137.579 Y98.249 E11.90864
G1 X139.433 Y98.715 E12.00402
G1 X140.99 Y99.547 E12.09209
G1 X141.716 Y100.059 E12.13641
G1 X143.044 Y101.662 E12.24027
G1 X143.706 Y103.121 E12.3202
G1 X144.251 Y104.813 E12.40888
G1 X144.247 Y116.959 E13.01485
G1 X143.784 Y118.477 E13.09403
G1 X143.069 Y120.109 E13.18292
G1 X141.447 Y121.924 E13.30436
G1 X139.438 Y123.093 E13.42032
G1 X138.81 Y123.344 E13.45406
G1 X137.467 Y123.543 E13.5218
G1 X81.693 Y123.6 E16.30438
G1 X79.894 Y123.158 E16.3968
G1 X77.968 Y122.158 E16.50507
G1 X76.588 Y120.681 E16.60591
G1 X75.44 Y118.757 E16.71769
G1 X75.17 Y117.114 E16.80076
G1 X75.1 Y104.852 E17.41252
G1 X75.544 Y103.042 E17.5055
G1 X76.542 Y101.118 E17.61363
G1 X78.019 Y99.738 E17.71448
G0 F7500 X78.261 Y100.059
G1 F1500 X80.081 Y98.973 E17.82022
G1 X81.651 Y98.715 E17.8996
G1 X137.529 Y98.649 E20.68736
G1 X139.287 Y99.091 E20.7778
G1 X140.801 Y99.9 E20.86344
G1 X141.443 Y100.356 E20.90273
G1 X142.701 Y101.875 E21.00112
G1 X143.325 Y103.244 E21.07618
G1 X143.851 Y104.877 E21.16178
G1 X143.847 Y116.898 E21.76151
G1 X143.401 Y118.36 E21.83777
G1 X142.729 Y119.889 E21.92109
G1 X141.191 Y121.61 E22.03624
G1 X139.237 Y122.747 E22.14903
G1 X138.708 Y122.954 E22.17737
G1 X137.408 Y123.147 E22.24294
G1 X81.74 Y123.2 E25.02023
G1 X80.036 Y122.781 E25.10777
G1 X78.213 Y121.835 E25.21024
G1 X76.909 Y120.439 E25.30554
G1 X75.823 Y118.619 E25.41128
G1 X75.565 Y117.049 E25.49066
G1 X75.5 Y104.897 E26.09693
G1 X75.92 Y103.185 E26.18488
G1 X76.865 Y101.363 E26.28728
G1 X78.261 Y100.059 E26.38258
G0 F7500 X78.503 Y100.38
G1 F1500 X80.219 Y99.356 E26.48228
G1 X81.716 Y99.11 E26.55796
G1 X137.479 Y99.049 E29.33999
G1 X139.141 Y99.467 E29.42549
G1 X140.612 Y100.253 E29.5087
G1 X141.169 Y100.652 E29.54288
G1 X142.358 Y102.087 E29.63586
G1 X142.944 Y103.367 E29.70609
G1 X143.451 Y104.941 E29.78859
G1 X143.447 Y116.837 E30.38209
G1 X143.018 Y118.243 E30.45543
G1 X142.388 Y119.67 E30.53325
G1 X140.935 Y121.296 E30.64204
G1 X139.036 Y122.401 E30.75165
G1 X138.606 Y122.564 E30.7746
G1 X137.349 Y122.751 E30.838
G1 X81.786 Y122.8 E33.61005
G1 X80.179 Y122.405 E33.69261
G1 X78.458 Y121.512 E33.78934
G1 X77.23 Y120.197 E33.8791
G1 X76.206 Y118.481 E33.9788
G1 X75.96 Y116.984 E34.05449
G1 X75.9 Y104.942 E34.65527
G1 X76.296 Y103.328 E34.73818
G1 X77.188 Y101.608 E34.83485
G1 X78.503 Y100.38 E34.92461
G0 F7500 X78.745 Y100.701
G1 F1500 X80.357 Y99.739 E35.01827
G1 X81.781 Y99.505 E35.09026
G1 X137.43 Y99.449 E37.8666
G1 X138.994 Y99.842 E37.94706
G1 X140.423 Y100.606 E38.0279
G1 X140.894 Y100.946 E38.05688
G1 X142.015 Y102.3 E38.14458
G1 X142.58 Y103.534 E38.21229
G1 X143.051 Y105.004 E38.2893
G1 X143.047 Y116.776 E38.87661
G1 X142.635 Y118.126 E38.94703
G1 X142.047 Y119.451 E39.01935
G1 X140.678 Y120.983 E39.12185
G1 X138.894 Y122.027 E39.22498
G1 X138.506 Y122.174 E39.24568
G1 X137.29 Y122.355 E39.30701
G1 X81.832 Y122.4 E42.07382
G1 X80.322 Y122.029 E42.1514
G1 X78.703 Y121.189 E42.24239
G1 X77.551 Y119.955 E42.32662
G1 X76.589 Y118.343 E42.42027
G1 X76.355 Y116.919 E42.49227
G1 X76.3 Y104.987 E43.08756
G1 X76.672 Y103.471 E43.16544
G1 X77.511 Y101.853 E43.25637
G1 X78.745 Y100.701 E43.34059
G0 F7500 X78.987 Y101.022
G1 F1500 X80.495 Y100.122 E43.42821
G1 X81.846 Y99.9 E43.49651
G1 X137.38 Y99.849 E46.26712
G1 X138.848 Y100.218 E46.34263
G1 X140.234 Y100.959 E46.42104
G1 X140.619 Y101.241 E46.44485
G1 X141.672 Y102.513 E46.52724
G1 X142.216 Y103.701 E46.59242
G1 X142.651 Y105.066 E46.6639
G1 X142.647 Y116.715 E47.24507
G1 X142.252 Y118.009 E47.31257
G1 X141.708 Y119.23 E47.37926
G1 X140.421 Y120.67 E47.47561
G1 X138.692 Y121.682 E47.57556
G1 X138.406 Y121.784 E47.59071
G1 X137.231 Y121.959 E47.64998
G1 X81.879 Y122 E50.4115
G1 X80.464 Y121.652 E50.4842
G1 X78.948 Y120.866 E50.56939
G1 X77.872 Y119.713 E50.64807
G1 X76.972 Y118.205 E50.73569
G1 X76.75 Y116.854 E50.80399
G1 X76.7 Y105.032 E51.3938
G1 X77.048 Y103.614 E51.46665
G1 X77.834 Y102.098 E51.55184
G1 X78.987 Y101.022 E51.63052
G0 F7500 X79.229 Y101.343
G1 F1500 X80.633 Y100.505 E51.7121
G1 X81.911 Y100.295 E51.77671
G1 X137.33 Y100.249 E54.54158
G1 X138.702 Y100.594 E54.61216
G1 X140.045 Y101.312 E54.68813
G1 X140.343 Y101.535 E54.7067
G1 X141.329 Y102.726 E54.78384
G1 X141.852 Y103.868 E54.84651
G1 X142.251 Y105.127 E54.9124
G1 X142.247 Y116.654 E55.48748
G1 X141.869 Y117.892 E55.55206
G1 X141.368 Y119.01 E55.61318
G1 X140.164 Y120.357 E55.70332
G1 X138.49 Y121.337 E55.80009
G1 X138.347 Y121.388 E55.80767
G1 X137.172 Y121.563 E55.86693
G1 X81.925 Y121.6 E58.62322
G1 X80.607 Y121.276 E58.69093
G1 X79.193 Y120.543 E58.77039
G1 X78.193 Y119.471 E58.84353
G1 X77.355 Y118.067 E58.92511
G1 X77.145 Y116.789 E58.98972
G1 X77.1 Y105.077 E59.57404
G1 X77.424 Y103.757 E59.64185
G1 X78.157 Y102.343 E59.72131
G1 X79.229 Y101.343 E59.79445
G0 F7500 X79.474 Y101.662
G1 F1500 X80.771 Y100.888 E59.8698
G1 X81.976 Y100.69 E59.93073
G1 X137.28 Y100.649 E62.68985
G1 X138.556 Y100.97 E62.7555
G1 X139.856 Y101.665 E62.82904
G1 X140.066 Y101.827 E62.84227
G1 X140.986 Y102.939 E62.91428
G1 X141.488 Y104.035 E62.97442
G1 X141.851 Y105.19 E63.03482
G1 X141.847 Y116.594 E63.60377
G1 X141.504 Y117.728 E63.66288
G1 X141.028 Y118.79 E63.72094
G1 X139.907 Y120.044 E63.80485
G1 X138.288 Y120.992 E63.89845
G1 X137.113 Y121.167 E63.95772
G1 X81.971 Y121.2 E66.70877
G1 X80.75 Y120.9 E66.7715
G1 X79.44 Y120.221 E66.84511
G1 X78.512 Y119.226 E66.91299
G1 X77.738 Y117.929 E66.98834
G1 X77.54 Y116.724 E67.04927
G1 X77.5 Y105.122 E67.6281
G1 X77.8 Y103.9 E67.69087
G1 X78.479 Y102.59 E67.76449
G1 X79.474 Y101.662 E67.83237
G0 F7500 X79.716 Y101.984
G1 F1500 X80.911 Y101.271 E67.90179
G1 X82.041 Y101.085 E67.95893
G1 X137.231 Y101.049 E70.71237
G1 X138.409 Y101.345 E70.77296
G1 X139.667 Y102.018 E70.84414
G1 X139.786 Y102.116 E70.85183
G1 X140.645 Y103.154 E70.91905
G1 X141.106 Y104.155 E70.97403
G1 X141.451 Y105.253 E71.03145
G1 X141.447 Y116.535 E71.59432
G1 X141.139 Y117.564 E71.6479
G1 X140.688 Y118.57 E71.70291
G1 X139.65 Y119.731 E71.7806
G1 X138.154 Y120.607 E71.86709
G1 X137.054 Y120.771 E71.92258
G1 X82.017 Y120.8 E74.66839
G1 X80.893 Y120.524 E74.72613
G1 X79.687 Y119.899 E74.7939
G1 X78.834 Y118.984 E74.85631
G1 X78.121 Y117.789 E74.92573
G1 X77.935 Y116.659 E74.98286
G1 X77.9 Y105.167 E75.55621
G1 X78.176 Y104.043 E75.61395
G1 X78.801 Y102.837 E75.68171
G1 X79.716 Y101.984 E75.74412
G0 F7500 X79.958 Y102.306
G1 F1500 X81.051 Y101.654 E75.80762
G1 X82.106 Y101.48 E75.86096
G1 X137.181 Y101.449 E78.60867
G1 X138.263 Y101.721 E78.66433
G1 X139.478 Y102.371 E78.73307
G1 X140.303 Y103.368 E78.79764
G1 X140.724 Y104.275 E78.84752
G1 X141.051 Y105.316 E78.90196
G1 X141.047 Y116.475 E79.45869
G1 X140.774 Y117.4 E79.5068
G1 X140.348 Y118.35 E79.55875
G1 X139.393 Y119.418 E79.63022
G1 X138.02 Y120.222 E79.7096
G1 X136.995 Y120.375 E79.76131
G1 X82.064 Y120.4 E82.50183
G1 X81.035 Y120.147 E82.55469
G1 X79.934 Y119.577 E82.61655
G1 X79.156 Y118.742 E82.67348
G1 X78.504 Y117.649 E82.73698
G1 X78.33 Y116.594 E82.79032
G1 X78.3 Y105.214 E83.35808
G1 X78.553 Y104.185 E83.41094
G1 X79.123 Y103.084 E83.4728
G1 X79.958 Y102.306 E83.52973
G0 F7500 X80.2 Y102.628
G1 F1500 X81.191 Y102.037 E83.5873
G1 X82.171 Y101.875 E83.63686
G1 X137.131 Y101.849 E86.37882
G1 X138.117 Y102.097 E86.42955
G1 X139.221 Y102.688 E86.49202
G1 X139.962 Y103.583 E86.54999
G1 X140.342 Y104.395 E86.59472
G1 X140.651 Y105.379 E86.64617
G1 X140.647 Y116.416 E87.19681
G1 X140.39 Y117.287 E87.24212
G1 X140.008 Y118.13 E87.28829
G1 X139.138 Y119.104 E87.35345
G1 X137.886 Y119.837 E87.42583
G1 X136.936 Y119.979 E87.47375
G1 X82.11 Y120 E90.20903
G1 X81.178 Y119.771 E90.25691
G1 X80.181 Y119.255 E90.31292
G1 X79.478 Y118.5 E90.36439
G1 X78.887 Y117.509 E90.42195
G1 X78.725 Y116.529 E90.47151
G1 X78.7 Y105.26 E91.03372
G1 X78.929 Y104.328 E91.0816
G1 X79.445 Y103.331 E91.13761
G1 X80.2 Y102.628 E91.18908
G0 F7500 X80.439 Y102.952
G1 F1500 X81.331 Y102.42 E91.24089
G1 X82.236 Y102.27 E91.28666
G1 X137.082 Y102.249 E94.02294
G1 X137.97 Y102.472 E94.06862
G1 X138.964 Y103.005 E94.12489
G1 X139.62 Y103.797 E94.17619
G1 X139.96 Y104.515 E94.21583
G1 X140.251 Y105.442 E94.2643
G1 X140.247 Y116.359 E94.80895
G1 X140.026 Y117.122 E94.84858
G1 X139.67 Y117.908 E94.89163
G1 X138.881 Y118.791 E94.95071
G1 X137.752 Y119.452 E95.01598
G1 X136.877 Y119.583 E95.06012
G1 X82.156 Y119.6 E97.79016
G1 X81.321 Y119.395 E97.83306
G1 X80.426 Y118.932 E97.88333
G1 X79.802 Y118.261 E97.92904
G1 X79.27 Y117.369 E97.98086
G1 X79.12 Y116.464 E98.02663
G1 X79.1 Y105.306 E98.5833
G1 X79.305 Y104.471 E98.6262
G1 X79.768 Y103.576 E98.67647
G1 X80.439 Y102.952 E98.72219
G0 F7500 X80.678 Y103.276
G1 F1500 X81.471 Y102.803 E98.76825
G1 X82.302 Y102.665 E98.81028
G1 X137.033 Y102.649 E101.54082
G1 X137.826 Y102.848 E101.58161
G1 X138.705 Y103.32 E101.63138
G1 X139.279 Y104.012 E101.67624
G1 X139.598 Y104.686 E101.71344
G1 X139.851 Y105.503 E101.75611
G1 X139.847 Y116.303 E102.29493
G1 X139.642 Y117.011 E102.3317
G1 X139.332 Y117.686 E102.36876
G1 X138.624 Y118.478 E102.42176
G1 X137.618 Y119.067 E102.47992
G1 X136.818 Y119.187 E102.52027
G1 X82.202 Y119.2 E105.24508
G1 X81.464 Y119.019 E105.28299
G1 X80.671 Y118.609 E105.32753
G1 X80.126 Y118.022 E105.36749
G1 X79.653 Y117.229 E105.41355
G1 X79.515 Y116.398 E105.45558
G1 X79.5 Y105.352 E106.00667
G1 X79.681 Y104.614 E106.04458
G1 X80.091 Y103.821 E106.08912
G1 X80.678 Y103.276 E106.12908
G0 F7500 X80.917 Y103.6
G1 F1500 X81.611 Y103.186 E106.16939
G1 X82.368 Y103.06 E106.20768
G1 X136.983 Y103.049 E108.93243
G1 X137.683 Y103.225 E108.96844
G1 X138.445 Y103.634 E109.01159
G1 X138.939 Y104.229 E109.05017
G1 X139.236 Y104.857 E109.08483
G1 X139.451 Y105.564 E109.1217
G1 X139.447 Y116.246 E109.65463
G1 X139.278 Y116.844 E109.68563
G1 X138.993 Y117.465 E109.71972
G1 X138.367 Y118.165 E109.76657
G1 X137.484 Y118.682 E109.81762
G1 X136.759 Y118.791 E109.85419
G1 X82.252 Y118.8 E112.57356
G1 X81.603 Y118.641 E112.6069
G1 X80.916 Y118.286 E112.64548
G1 X80.45 Y117.783 E112.67968
G1 X80.036 Y117.089 E112.72
G1 X79.91 Y116.332 E112.75829
G1 X79.9 Y105.402 E113.30359
G1 X80.059 Y104.753 E113.33692
G1 X80.414 Y104.066 E113.3755
G1 X80.917 Y103.6 E113.40971
G0 F7500 X81.156 Y103.924
G1 F1500 X81.751 Y103.569 E113.44428
G1 X82.434 Y103.455 E113.47883
G1 X136.934 Y103.449 E116.19784
G1 X137.539 Y103.601 E116.22896
G1 X138.185 Y103.948 E116.26555
G1 X138.599 Y104.446 E116.29786
G1 X138.874 Y105.028 E116.32997
G1 X139.051 Y105.622 E116.36089
G1 X139.047 Y116.19 E116.88813
G1 X138.893 Y116.735 E116.91639
G1 X138.656 Y117.242 E116.94431
G1 X138.11 Y117.852 E116.98515
G1 X137.35 Y118.297 E117.02909
G1 X136.699 Y118.395 E117.06194
G1 X82.302 Y118.4 E119.77581
G1 X81.742 Y118.263 E119.80458
G1 X81.162 Y117.963 E119.83715
G1 X80.774 Y117.544 E119.86564
G1 X80.419 Y116.949 E119.90021
G1 X80.305 Y116.266 E119.93476
G1 X80.3 Y105.452 E120.47427
G1 X80.437 Y104.892 E120.50303
G1 X80.737 Y104.312 E120.53561
G1 X81.156 Y103.924 E120.5641
G0 F7500 X81.398 Y104.245
G1 F1500 X81.889 Y103.952 E120.59263
G1 X82.5 Y103.85 E120.62353
G1 X136.885 Y103.849 E123.33681
G1 X137.395 Y103.977 E123.36304
G1 X137.925 Y104.262 E123.39307
G1 X138.26 Y104.665 E123.41921
G1 X138.491 Y105.142 E123.44565
G1 X138.651 Y105.679 E123.47361
G1 X138.647 Y116.134 E123.99521
G1 X138.508 Y116.626 E124.02072
G1 X138.32 Y117.017 E124.04236
G1 X137.853 Y117.539 E124.0773
G1 X137.216 Y117.912 E124.11413
G1 X136.639 Y117.999 E124.14324
G1 X82.352 Y118 E126.85163
G1 X81.881 Y117.885 E126.87582
G1 X81.408 Y117.64 E126.9024
G1 X81.095 Y117.302 E126.92538
G1 X80.802 Y116.811 E126.95391
G1 X80.7 Y116.2 E126.98481
G1 X80.7 Y105.502 E127.51854
G1 X80.815 Y105.031 E127.54273
G1 X81.06 Y104.558 E127.5693
G1 X81.398 Y104.245 E127.59228
G0 F7500 X81.64 Y104.566
G1 F1500 X82.027 Y104.335 E127.61477
G1 X82.5 Y104.25 E127.63875
G1 X136.835 Y104.249 E130.34953
G1 X137.252 Y104.354 E130.37098
G1 X137.665 Y104.576 E130.39438
G1 X137.921 Y104.884 E130.41436
G1 X138.131 Y105.317 E130.43837
G1 X138.251 Y105.735 E130.46006
G1 X138.247 Y116.078 E130.97608
G1 X138.123 Y116.517 E130.99884
G1 X137.985 Y116.791 E131.01414
G1 X137.596 Y117.226 E131.04326
G1 X137.081 Y117.528 E131.07304
G1 X136.639 Y117.599 E131.09537
G1 X82.402 Y117.6 E133.80127
G1 X82.02 Y117.507 E133.82088
G1 X81.654 Y117.317 E133.84146
G1 X81.416 Y117.06 E133.85893
G1 X81.185 Y116.673 E133.88142
G1 X81.1 Y116.2 E133.90539
G1 X81.1 Y105.552 E134.43663
G1 X81.193 Y105.17 E134.45624
G1 X81.383 Y104.804 E134.47681
G1 X81.64 Y104.566 E134.49429
G0 F7500 X81.845 Y104.91
G1 F1500 X82.172 Y104.715 E134.51328
G1 X82.5 Y104.65 E134.52997
G1 X136.785 Y104.649 E137.23826
G1 X137.107 Y104.73 E137.25482
G1 X137.408 Y104.892 E137.27187
G1 X137.561 Y105.059 E137.28317
G1 X137.771 Y105.492 E137.30718
G1 X137.851 Y105.79 E137.32258
G1 X137.847 Y116.022 E137.83305
G1 X137.738 Y116.408 E137.85306
G1 X137.651 Y116.565 E137.86202
G1 X137.341 Y116.912 E137.88523
G1 X136.944 Y117.145 E137.9082
G1 X136.639 Y117.199 E137.92365
G1 X82.451 Y117.2 E140.6271
G1 X82.162 Y117.13 E140.64194
G1 X81.899 Y116.993 E140.65673
G1 X81.76 Y116.855 E140.6665
G1 X81.565 Y116.528 E140.6855
G1 X81.5 Y116.2 E140.70218
G1 X81.5 Y105.601 E141.23097
G1 X81.57 Y105.312 E141.2458
G1 X81.707 Y105.049 E141.2606
G1 X81.845 Y104.91 E141.27037
G0 F7500 X82.339 Y105.531
G1 F1500 X82.5 Y105.45 E141.27936
G1 X136.735 Y105.449 E143.98516
G1 X136.884 Y105.498 E143.99298
G1 X137.051 Y105.842 E144.01206
G1 X137.047 Y115.966 E144.51715
G1 X136.996 Y116.099 E144.52425
G1 X136.788 Y116.332 E144.53984
G1 X136.639 Y116.399 E144.54799
G1 X82.5 Y116.4 E147.24899
G1 X82.381 Y116.361 E147.25524
G1 X82.3 Y116.2 E147.26423
G1 X82.3 Y105.65 E147.79057
G1 X82.339 Y105.531 E147.79682
G0 F7500 X82.05 Y105.254
G1 F1500 X82.32 Y105.093 E147.8125
G1 X82.5 Y105.05 E147.82174
G1 X136.735 Y105.049 E150.52753
G1 X137.009 Y105.118 E150.54163
G1 X137.201 Y105.234 E150.55282
G1 X137.411 Y105.667 E150.57683
G1 X137.451 Y105.842 E150.58579
G1 X137.447 Y115.966 E151.09087
G1 X137.353 Y116.299 E151.10814
G1 X137.086 Y116.598 E151.12814
G1 X136.803 Y116.764 E151.1445
G1 X136.639 Y116.799 E151.15287
G1 X82.5 Y116.8 E153.85388
G1 X82.256 Y116.741 E153.8664
G1 X82.104 Y116.65 E153.87524
G1 X81.943 Y116.38 E153.89092
G1 X81.9 Y116.2 E153.90016
G1 X81.9 Y105.65 E154.4265
G1 X81.959 Y105.406 E154.43902
G1 X82.05 Y105.254 E154.44786
G1 F1500 E147.94786
;MESH:Upper Belt C Primo Mirrored.stl
G0 F7500 X83.3 Y106.45
G0 X136.247 Y115.598
;TYPE:WALL-INNER
G1 F1500 E154.44786
G1 X136.249 Y106.25 E154.91423
G1 X83.1 Y106.25 E157.56585
G1 X83.1 Y115.6 E158.03232
G1 X136.247 Y115.598 E160.68384
G1 F1500 E154.18384
G0 F7500 X135.976 Y115.499
G0 X82.97 Y115.73
G0 X82.7 Y116
;TYPE:WALL-OUTER
G1 F1500 E160.68384
G1 X136.552 Y115.999 E163.37052
G1 X136.647 Y115.867 E163.37864
G1 X136.65 Y105.933 E163.87425
