;FLAVOR:Marlin
;TIME:1439
;Filament used: 1.76347m
;Layer height: 0.4
;MINX:77.495
;MINY:93.651
;MINZ:0.3
;MAXX:142.542
;MAXY:126.35
;MAXZ:17.9
;Generated with Cura_SteamEngine 5.4.0
M140 S98
M105
M190 S98
M104 S240
M105
M109 S240
M82 ;absolute extrusion mode
G28 ;Home
G1 Z15.0 F2000 ;Move the platform
G92 E0
G92 E0
G1 F1500 E-6.5
;LAYER_COUNT:45
;LAYER:0
M107
M204 S1000
G0 F7500 X79.718 Y96.078 Z0.3
;TYPE:SKIRT
G1 F1500 E0
G1 X81.485 Y94.811 E0.10848
G1 X82.821 Y94.077 E0.18453
G1 X84.802 Y93.651 E0.28562
G1 X101.067 Y93.651 E1.09708
G1 X103.219 Y94.354 E1.21003
G1 X104.979 Y95.401 E1.3122
G1 X106.578 Y97.181 E1.43157
G1 X107.496 Y99.088 E1.53716
G1 X107.831 Y100.072 E1.58902
G1 X107.966 Y101.911 E1.68102
G1 X108.107 Y102.593 E1.71576
G1 X108.321 Y103.199 E1.74783
G1 X108.523 Y103.589 E1.76974
G1 X108.803 Y104.049 E1.7966
G1 X109.095 Y104.405 E1.81958
G1 X109.454 Y104.789 E1.8458
G1 X109.802 Y105.071 E1.86815
G1 X110.12 Y105.294 E1.88753
G1 X110.475 Y105.508 E1.90821
G1 X111.027 Y105.745 E1.93818
G1 X111.372 Y105.869 E1.95647
G1 X112.095 Y106.018 E1.99329
G1 X112.474 Y106.042 E2.01224
G1 X112.879 Y106.041 E2.03245
G1 X113.268 Y106.015 E2.0519
G1 X113.797 Y105.905 E2.07885
G1 X114.291 Y105.765 E2.10447
G1 X114.886 Y105.506 E2.13684
G1 X115.349 Y105.222 E2.16394
G1 X115.562 Y105.071 E2.17697
G1 X115.756 Y104.912 E2.18948
G1 X116.154 Y104.538 E2.21673
G1 X116.485 Y104.131 E2.2429
G1 X116.728 Y103.786 E2.26396
G1 X117.049 Y103.169 E2.29866
G1 X117.646 Y101.833 E2.37166
G1 X118.885 Y100.114 E2.47738
G1 X120.831 Y98.517 E2.60297
G1 X123.369 Y97.457 E2.74019
G1 X123.956 Y97.311 E2.77037
G1 X126.579 Y97.252 E2.90127
G1 X129.284 Y97.923 E3.04031
G1 X131.349 Y99.295 E3.164
G1 X140.6 Y107.046 E3.76612
G1 X141.729 Y109.01 E3.87914
G1 X142.367 Y110.617 E3.9654
G1 X142.542 Y112.779 E4.07362
G1 X142.164 Y114.958 E4.18395
G1 X141.3 Y116.849 E4.28767
G1 X136.764 Y122.256 E4.63978
G1 X136.417 Y122.633 E4.66535
G1 X135.612 Y123.403 E4.72092
G1 X135.32 Y123.647 E4.73991
G1 X134.398 Y124.322 E4.79691
G1 X133.867 Y124.659 E4.82829
G1 X133.38 Y124.93 E4.8561
G1 X132.327 Y125.424 E4.91412
G1 X131.611 Y125.694 E4.9523
G1 X130.618 Y125.993 E5.00404
G1 X130.21 Y126.088 E5.02494
G1 X129.156 Y126.256 E5.07819
G1 X128.324 Y126.328 E5.11985
G1 X112.406 Y126.35 E5.914
G1 X111.22 Y126.309 E5.97321
G1 X109.554 Y126.149 E6.05671
G1 X107.489 Y125.802 E6.16118
G1 X105.727 Y125.37 E6.25169
G1 X104.6 Y125.015 E6.31064
G1 X102.713 Y124.283 E6.41161
G1 X101.032 Y123.487 E6.50441
G1 X99.954 Y122.887 E6.56596
G1 X98.47 Y121.927 E6.65414
G1 X96.953 Y120.793 E6.74863
G1 X95.752 Y119.761 E6.82763
G1 X94.309 Y118.335 E6.92884
G1 X93.529 Y117.451 E6.98766
G1 X92.18 Y115.699 E7.09797
G1 X91.511 Y114.696 E7.15812
G1 X90.563 Y113.049 E7.25293
G1 X84.444 Y113.048 E7.55821
G1 X82.548 Y112.582 E7.65562
G1 X80.52 Y111.529 E7.76962
G1 X79.053 Y109.96 E7.87678
G1 X78.072 Y108.295 E7.9732
G1 X77.806 Y107.675 E8.00686
G1 X77.547 Y105.954 E8.09368
G1 X77.495 Y100.873 E8.34719
G1 X77.701 Y99.784 E8.40248
G1 X78.438 Y97.956 E8.50082
G1 X79.718 Y96.078 E8.6142
G0 F7500 X80.008 Y96.363
G1 F1500 X81.678 Y95.162 E8.71683
G1 X82.964 Y94.455 E8.79004
G1 X84.844 Y94.051 E8.88598
G1 X101.004 Y94.051 E9.6922
G1 X103.052 Y94.72 E9.79969
G1 X104.722 Y95.713 E9.89662
G1 X106.243 Y97.407 E10.01021
G1 X107.117 Y99.217 E10.11048
G1 X107.436 Y100.154 E10.15987
G1 X107.569 Y101.968 E10.25061
G1 X107.72 Y102.7 E10.2879
G1 X107.917 Y103.256 E10.31733
G1 X108.019 Y103.487 E10.32993
G1 X108.177 Y103.791 E10.34702
G1 X108.406 Y104.167 E10.36898
G1 X108.561 Y104.385 E10.38233
G1 X108.791 Y104.665 E10.40041
G1 X109.18 Y105.082 E10.42886
G1 X109.566 Y105.394 E10.45362
G1 X109.903 Y105.63 E10.47414
G1 X110.169 Y105.79 E10.48963
G1 X110.418 Y105.919 E10.50362
G1 X110.87 Y106.113 E10.52816
G1 X111.141 Y106.211 E10.54254
G1 X111.401 Y106.284 E10.55601
G1 X112.04 Y106.415 E10.58855
G1 X112.465 Y106.442 E10.6098
G1 X112.891 Y106.441 E10.63105
G1 X113.326 Y106.412 E10.6528
G1 X113.888 Y106.295 E10.68144
G1 X114.428 Y106.142 E10.70944
G1 X115.069 Y105.863 E10.74432
G1 X115.564 Y105.559 E10.7733
G1 X115.811 Y105.384 E10.78841
G1 X116.015 Y105.217 E10.80156
G1 X116.446 Y104.812 E10.83106
G1 X116.808 Y104.367 E10.85968
G1 X116.992 Y104.107 E10.87557
G1 X117.135 Y103.87 E10.88938
G1 X117.404 Y103.354 E10.91842
G1 X117.994 Y102.033 E10.9906
G1 X119.178 Y100.391 E11.09159
G1 X121.039 Y98.864 E11.21169
G1 X123.466 Y97.845 E11.34301
G1 X124.009 Y97.71 E11.37093
G1 X126.536 Y97.653 E11.49703
G1 X129.121 Y98.294 E11.62991
G1 X131.092 Y99.602 E11.74792
G1 X140.29 Y107.309 E12.34661
G1 X141.357 Y109.158 E12.45311
G1 X141.973 Y110.709 E12.53637
G1 X142.139 Y112.762 E12.63913
G1 X141.779 Y114.838 E12.74425
G1 X140.958 Y116.635 E12.84281
G1 X136.47 Y121.985 E13.19121
G1 X136.123 Y122.362 E13.21677
G1 X135.355 Y123.096 E13.26977
G1 X135.083 Y123.324 E13.28748
G1 X134.183 Y123.984 E13.34316
G1 X133.672 Y124.309 E13.37337
G1 X133.185 Y124.58 E13.40118
G1 X132.185 Y125.05 E13.4563
G1 X131.495 Y125.311 E13.49311
G1 X130.527 Y125.603 E13.54355
G1 X130.119 Y125.698 E13.56445
G1 X129.122 Y125.857 E13.61482
G1 X128.29 Y125.929 E13.65648
G1 X112.42 Y125.95 E14.44824
G1 X111.234 Y125.909 E14.50744
G1 X109.592 Y125.751 E14.58974
G1 X107.584 Y125.413 E14.69133
G1 X105.847 Y124.988 E14.78055
G1 X104.72 Y124.633 E14.8395
G1 X102.858 Y123.91 E14.93915
G1 X101.227 Y123.137 E15.0292
G1 X100.149 Y122.537 E15.09075
G1 X98.687 Y121.591 E15.17763
G1 X97.214 Y120.49 E15.26937
G1 X96.013 Y119.458 E15.34837
G1 X94.609 Y118.07 E15.44687
G1 X93.829 Y117.186 E15.50569
G1 X92.513 Y115.477 E15.6133
G1 X91.858 Y114.496 E15.67215
G1 X90.795 Y112.649 E15.77847
G1 X84.49 Y112.648 E16.09302
G1 X82.691 Y112.206 E16.18545
G1 X80.765 Y111.206 E16.29371
G1 X79.377 Y109.721 E16.39513
G1 X78.417 Y108.092 E16.48946
G1 X78.195 Y107.568 E16.51785
G1 X77.943 Y105.894 E16.60231
G1 X77.895 Y100.908 E16.85107
G1 X78.086 Y99.898 E16.90235
G1 X78.793 Y98.146 E16.99661
G1 X80.008 Y96.363 E17.10425
G0 F7500 X80.297 Y96.649
G1 F1500 X81.912 Y95.487 E17.20352
G1 X83.106 Y94.834 E17.27141
G1 X84.886 Y94.451 E17.36225
G1 X100.941 Y94.451 E18.16324
G1 X102.883 Y95.085 E18.26515
G1 X104.466 Y96.027 E18.35706
G1 X105.908 Y97.633 E18.46474
G1 X106.738 Y99.346 E18.5597
G1 X107.041 Y100.236 E18.60661
G1 X107.172 Y102.025 E18.6961
G1 X107.333 Y102.807 E18.73593
G1 X107.544 Y103.4 E18.76734
G1 X107.658 Y103.66 E18.7815
G1 X107.831 Y103.993 E18.80022
G1 X108.07 Y104.385 E18.82313
G1 X108.242 Y104.627 E18.83794
G1 X108.487 Y104.926 E18.85722
G1 X108.907 Y105.375 E18.8879
G1 X109.334 Y105.72 E18.91528
G1 X109.682 Y105.963 E18.93646
G1 X109.975 Y106.14 E18.95354
G1 X110.255 Y106.285 E18.96927
G1 X110.712 Y106.481 E18.99408
G1 X111.024 Y106.593 E19.01062
G1 X111.312 Y106.674 E19.02554
G1 X111.983 Y106.812 E19.05972
G1 X112.456 Y106.842 E19.08336
G1 X112.903 Y106.841 E19.10567
G1 X113.384 Y106.809 E19.12972
G1 X113.979 Y106.685 E19.16004
G1 X114.565 Y106.519 E19.19042
G1 X115.12 Y106.277 E19.22063
G1 X115.355 Y106.156 E19.23382
G1 X115.787 Y105.892 E19.25908
G1 X116.053 Y105.703 E19.27536
G1 X116.276 Y105.52 E19.28975
G1 X116.636 Y105.183 E19.31435
G1 X116.826 Y104.98 E19.32822
G1 X117.128 Y104.608 E19.35213
G1 X117.319 Y104.338 E19.36863
G1 X117.488 Y104.059 E19.3849
G1 X117.759 Y103.539 E19.41416
G1 X118.341 Y102.237 E19.48531
G1 X119.473 Y100.666 E19.58191
G1 X121.247 Y99.211 E19.69638
G1 X123.621 Y98.214 E19.82484
G1 X124.062 Y98.109 E19.84745
G1 X126.493 Y98.054 E19.96877
G1 X128.955 Y98.665 E20.09532
G1 X130.835 Y99.909 E20.20779
G1 X139.979 Y107.571 E20.80297
G1 X140.985 Y109.306 E20.90303
G1 X141.579 Y110.801 E20.98329
G1 X141.736 Y112.745 E21.08059
G1 X141.394 Y114.718 E21.18049
G1 X140.616 Y116.421 E21.2739
G1 X136.176 Y121.714 E21.61857
G1 X135.846 Y122.073 E21.6429
G1 X135.098 Y122.789 E21.69456
G1 X134.826 Y123.017 E21.71227
G1 X133.968 Y123.646 E21.76534
G1 X133.457 Y123.971 E21.79556
G1 X132.991 Y124.23 E21.82215
G1 X132.043 Y124.676 E21.87442
G1 X131.353 Y124.937 E21.91123
G1 X130.436 Y125.213 E21.959
G1 X130.028 Y125.308 E21.9799
G1 X129.088 Y125.458 E22.02739
G1 X128.256 Y125.53 E22.06906
G1 X112.434 Y125.55 E22.85842
G1 X111.248 Y125.509 E22.91763
G1 X109.63 Y125.353 E22.99872
G1 X107.651 Y125.019 E23.09885
G1 X105.967 Y124.606 E23.18536
G1 X104.84 Y124.251 E23.24431
G1 X103.029 Y123.548 E23.34123
G1 X101.422 Y122.787 E23.42994
G1 X100.344 Y122.187 E23.49149
G1 X98.904 Y121.255 E23.57706
G1 X97.475 Y120.187 E23.66607
G1 X96.274 Y119.155 E23.74507
G1 X94.909 Y117.805 E23.84085
G1 X94.129 Y116.921 E23.89966
G1 X92.846 Y115.255 E24.00457
G1 X92.191 Y114.274 E24.06342
G1 X91.156 Y112.475 E24.16697
G1 X91.046 Y112.249 E24.17951
G1 X84.537 Y112.248 E24.50424
G1 X82.833 Y111.829 E24.59179
G1 X81.01 Y110.883 E24.69425
G1 X79.701 Y109.482 E24.78991
G1 X78.762 Y107.889 E24.88217
G1 X78.584 Y107.461 E24.90529
G1 X78.339 Y105.834 E24.98738
G1 X78.295 Y100.943 E25.2314
G1 X78.471 Y100.012 E25.27867
G1 X79.149 Y98.332 E25.36906
G1 X80.297 Y96.649 E25.47069
G0 F7500 X80.586 Y96.935
G1 F1500 X82.146 Y95.812 E25.56659
G1 X83.246 Y95.213 E25.62908
G1 X84.928 Y94.851 E25.71492
G1 X100.878 Y94.851 E26.51067
G1 X102.716 Y95.451 E26.60713
G1 X104.209 Y96.339 E26.69379
G1 X105.572 Y97.858 E26.79561
G1 X106.359 Y99.475 E26.88533
G1 X106.646 Y100.318 E26.92976
G1 X106.775 Y102.082 E27.018
G1 X106.919 Y102.782 E27.05365
G1 X106.994 Y103.048 E27.06744
G1 X107.171 Y103.544 E27.09372
G1 X107.303 Y103.845 E27.11011
G1 X107.482 Y104.189 E27.12946
G1 X107.734 Y104.603 E27.15364
G1 X107.923 Y104.869 E27.16992
G1 X108.184 Y105.187 E27.19044
G1 X108.547 Y105.575 E27.21695
G1 X108.734 Y105.749 E27.2297
G1 X109.098 Y106.043 E27.25304
G1 X109.46 Y106.296 E27.27507
G1 X109.781 Y106.49 E27.29379
G1 X110.092 Y106.651 E27.31126
G1 X110.565 Y106.854 E27.33694
G1 X110.895 Y106.972 E27.35442
G1 X111.223 Y107.064 E27.37142
G1 X111.782 Y107.179 E27.39989
G1 X112.055 Y107.217 E27.41364
G1 X112.446 Y107.242 E27.43319
G1 X112.914 Y107.241 E27.45654
G1 X113.323 Y107.214 E27.47699
G1 X113.572 Y107.179 E27.48953
G1 X114.07 Y107.075 E27.51491
G1 X114.569 Y106.933 E27.5408
G1 X114.825 Y106.842 E27.55435
G1 X115.291 Y106.639 E27.57971
G1 X115.538 Y106.512 E27.59357
G1 X116.015 Y106.221 E27.62144
G1 X116.295 Y106.022 E27.63858
G1 X116.537 Y105.823 E27.65421
G1 X116.919 Y105.466 E27.6803
G1 X117.133 Y105.237 E27.69593
G1 X117.439 Y104.86 E27.72016
G1 X117.655 Y104.555 E27.7388
G1 X117.841 Y104.248 E27.75671
G1 X118.114 Y103.724 E27.78619
G1 X118.689 Y102.437 E27.85652
G1 X119.766 Y100.943 E27.9484
G1 X121.456 Y99.557 E28.05744
G1 X123.714 Y98.603 E28.17974
G1 X124.113 Y98.508 E28.2002
G1 X126.45 Y98.455 E28.31682
G1 X128.791 Y99.036 E28.43716
G1 X130.578 Y100.216 E28.544
G1 X139.667 Y107.832 E29.1356
G1 X140.613 Y109.454 E29.22928
G1 X141.185 Y110.893 E29.30653
G1 X141.333 Y112.728 E29.39838
G1 X141.009 Y114.598 E29.49306
G1 X140.274 Y116.207 E29.58131
G1 X135.882 Y121.443 E29.92227
G1 X135.552 Y121.802 E29.9466
G1 X134.841 Y122.482 E29.99568
G1 X134.569 Y122.71 E30.01339
G1 X133.753 Y123.308 E30.06386
G1 X133.242 Y123.633 E30.09407
G1 X132.797 Y123.88 E30.11947
G1 X131.901 Y124.302 E30.16888
G1 X131.211 Y124.563 E30.20568
G1 X130.345 Y124.823 E30.25079
G1 X129.937 Y124.918 E30.27169
G1 X129.025 Y125.063 E30.31776
G1 X128.255 Y125.13 E30.35632
G1 X112.448 Y125.15 E31.14494
G1 X111.262 Y125.109 E31.20414
G1 X109.668 Y124.955 E31.28404
G1 X107.746 Y124.631 E31.38128
G1 X106.087 Y124.224 E31.4665
G1 X104.96 Y123.869 E31.52545
G1 X103.174 Y123.175 E31.62105
G1 X101.617 Y122.437 E31.70701
G1 X100.539 Y121.837 E31.76856
G1 X99.121 Y120.919 E31.85284
G1 X97.736 Y119.884 E31.9391
G1 X96.555 Y118.87 E32.01676
G1 X95.209 Y117.54 E32.11116
G1 X94.429 Y116.656 E32.16998
G1 X93.179 Y115.033 E32.27218
G1 X92.524 Y114.052 E32.33103
G1 X91.516 Y112.3 E32.43187
G1 X91.296 Y111.849 E32.45691
G1 X84.583 Y111.848 E32.79182
G1 X82.976 Y111.453 E32.87438
G1 X81.255 Y110.56 E32.97111
G1 X80.025 Y109.243 E33.06102
G1 X79.107 Y107.686 E33.15119
G1 X78.973 Y107.354 E33.16905
G1 X78.735 Y105.774 E33.24877
G1 X78.695 Y100.978 E33.48805
G1 X78.856 Y100.126 E33.53131
G1 X79.505 Y98.519 E33.61777
G1 X80.586 Y96.935 E33.71345
G0 F7500 X80.876 Y97.22
G1 F1500 X82.38 Y96.137 E33.80591
G1 X83.387 Y95.592 E33.86304
G1 X84.97 Y95.251 E33.94383
G1 X100.815 Y95.251 E34.73434
G1 X102.549 Y95.817 E34.82534
G1 X103.952 Y96.651 E34.90677
G1 X105.237 Y98.084 E35.00279
G1 X105.98 Y99.604 E35.0872
G1 X106.251 Y100.4 E35.12915
G1 X106.378 Y102.137 E35.21604
G1 X106.53 Y102.878 E35.25378
G1 X106.613 Y103.17 E35.26893
G1 X106.798 Y103.689 E35.29642
G1 X106.948 Y104.03 E35.315
G1 X107.133 Y104.385 E35.33497
G1 X107.398 Y104.821 E35.36043
G1 X107.604 Y105.111 E35.37818
G1 X107.887 Y105.456 E35.40044
G1 X108.265 Y105.859 E35.428
G1 X108.469 Y106.049 E35.44191
G1 X108.862 Y106.366 E35.4671
G1 X109.238 Y106.629 E35.48999
G1 X109.587 Y106.84 E35.51034
G1 X109.929 Y107.017 E35.52955
G1 X110.413 Y107.225 E35.55584
G1 X110.77 Y107.352 E35.57474
G1 X111.134 Y107.454 E35.5936
G1 X111.707 Y107.572 E35.62279
G1 X112.015 Y107.615 E35.6383
G1 X112.436 Y107.642 E35.65935
G1 X112.926 Y107.641 E35.68379
G1 X113.362 Y107.612 E35.70559
G1 X113.648 Y107.572 E35.72
G1 X114.167 Y107.464 E35.74645
G1 X114.686 Y107.316 E35.77337
G1 X114.976 Y107.213 E35.78873
G1 X115.462 Y107.001 E35.81518
G1 X115.734 Y106.861 E35.83044
G1 X116.223 Y106.563 E35.85901
G1 X116.543 Y106.336 E35.87859
G1 X116.798 Y106.127 E35.89504
G1 X117.202 Y105.749 E35.92264
G1 X117.44 Y105.494 E35.94004
G1 X117.759 Y105.101 E35.96529
G1 X117.989 Y104.776 E35.98516
G1 X118.187 Y104.45 E36.00419
G1 X118.473 Y103.899 E36.03516
G1 X119.037 Y102.637 E36.10412
G1 X120.059 Y101.22 E36.19129
G1 X121.666 Y99.902 E36.29497
G1 X123.87 Y98.971 E36.41434
G1 X124.164 Y98.907 E36.42935
G1 X126.407 Y98.856 E36.54128
G1 X128.627 Y99.407 E36.6554
G1 X130.321 Y100.523 E36.75661
G1 X139.356 Y108.094 E37.3447
G1 X140.267 Y109.656 E37.43491
G1 X140.791 Y110.984 E37.50614
G1 X140.93 Y112.711 E37.59258
G1 X140.624 Y114.478 E37.68205
G1 X139.932 Y115.993 E37.76514
G1 X135.588 Y121.172 E38.10238
G1 X135.258 Y121.531 E38.12671
G1 X134.584 Y122.175 E38.17322
G1 X134.312 Y122.403 E38.19092
G1 X133.538 Y122.97 E38.23879
G1 X133.027 Y123.295 E38.269
G1 X132.603 Y123.53 E38.29319
G1 X131.731 Y123.94 E38.34126
G1 X131.096 Y124.18 E38.37513
G1 X130.254 Y124.433 E38.41899
G1 X129.846 Y124.528 E38.43989
G1 X128.962 Y124.668 E38.48455
G1 X128.254 Y124.73 E38.52
G1 X112.462 Y124.75 E39.30787
G1 X111.276 Y124.709 E39.36707
G1 X109.707 Y124.557 E39.44572
G1 X107.841 Y124.243 E39.54012
G1 X106.207 Y123.842 E39.62406
G1 X105.08 Y123.487 E39.68301
G1 X103.345 Y122.813 E39.77587
G1 X101.812 Y122.087 E39.8605
G1 X100.734 Y121.487 E39.92205
G1 X99.339 Y120.583 E40.00498
G1 X97.976 Y119.564 E40.08989
G1 X96.816 Y118.567 E40.1662
G1 X95.509 Y117.275 E40.25788
G1 X94.729 Y116.391 E40.3167
G1 X93.512 Y114.811 E40.4162
G1 X92.857 Y113.83 E40.47505
G1 X91.876 Y112.125 E40.57319
G1 X91.547 Y111.449 E40.61069
G1 X84.629 Y111.448 E40.95584
G1 X83.119 Y111.077 E41.03341
G1 X81.5 Y110.237 E41.12441
G1 X80.348 Y109.003 E41.20863
G1 X79.478 Y107.536 E41.29372
G1 X79.362 Y107.249 E41.30916
G1 X79.131 Y105.714 E41.38661
G1 X79.095 Y101.013 E41.62115
G1 X79.241 Y100.24 E41.6604
G1 X79.86 Y98.708 E41.74283
G1 X80.876 Y97.22 E41.83272
G0 F7500 X81.167 Y97.503
G1 F1500 X82.57 Y96.489 E41.91909
G1 X83.527 Y95.971 E41.97338
G1 X85.012 Y95.651 E42.04916
G1 X100.752 Y95.651 E42.83443
G1 X102.382 Y96.183 E42.91998
G1 X103.695 Y96.963 E42.99617
G1 X104.903 Y98.31 E43.08644
G1 X105.601 Y99.733 E43.16551
G1 X105.856 Y100.482 E43.20499
G1 X105.971 Y102.052 E43.28352
G1 X106.011 Y102.34 E43.29803
G1 X106.141 Y102.971 E43.33017
G1 X106.232 Y103.291 E43.34677
G1 X106.425 Y103.834 E43.37552
G1 X106.593 Y104.215 E43.3963
G1 X106.784 Y104.581 E43.41689
G1 X107.058 Y105.032 E43.44322
G1 X107.29 Y105.359 E43.46322
G1 X107.584 Y105.717 E43.48633
G1 X107.983 Y106.143 E43.51545
G1 X108.206 Y106.35 E43.53063
G1 X108.626 Y106.689 E43.55756
G1 X109.016 Y106.962 E43.58131
