;FLAVOR:Marlin
;TIME:7520
;Filament used: 4.22206m
;Layer height: 0.15
;MINX:70.258
;MINY:78.009
;MINZ:0.3
;MAXX:149.764
;MAXY:144.773
;MAXZ:22.05
;Generated with Cura_SteamEngine 5.4.0
M140 S98
M105
M190 S98
M104 S240
M105
M109 S240
M82 ;absolute extrusion mode
G28 ;Home
G1 Z15.0 F2000 ;Move the platform
G92 E0
G92 E0
G1 F1500 E-6.5
;LAYER_COUNT:146
;LAYER:0
M107
M204 S1000
G0 F7500 X78.372 Y79.81 Z0.3
;TYPE:SKIRT
G1 F1500 E0
G1 X80.359 Y78.541 E0.11762
G1 X82.399 Y78.098 E0.22177
G1 X84.621 Y78.059 E0.33265
G1 X86.681 Y78.763 E0.44125
G1 X99.077 Y85.972 E1.15667
G1 X100.05 Y86.739 E1.21848
G1 X101.227 Y87.966 E1.30331
G1 X102.101 Y89.232 E1.38006
G1 X103.031 Y91.216 E1.48938
G1 X103.247 Y91.945 E1.52731
G1 X103.572 Y94.202 E1.64107
G1 X103.6 Y96.188 E1.74016
G1 X103.732 Y97.044 E1.78338
G1 X104.042 Y98.034 E1.83513
G1 X104.435 Y98.847 E1.88018
G1 X104.936 Y99.587 E1.92477
G1 X105.639 Y100.353 E1.97664
G1 X106.349 Y100.926 E2.02216
G1 X108.74 Y102.355 E2.16112
G1 X110.011 Y103.538 E2.24775
G1 X110.391 Y103.136 E2.27535
G1 X111.805 Y102.021 E2.36519
G1 X113.636 Y100.922 E2.47173
G1 X114.426 Y100.28 E2.52252
G1 X115.047 Y99.609 E2.56813
G1 X115.569 Y98.839 E2.61454
G1 X115.96 Y98.034 E2.65919
G1 X116.268 Y97.049 E2.71068
G1 X116.412 Y96.147 E2.75625
G1 X116.466 Y93.319 E2.89736
G1 X116.965 Y91.248 E3.00364
G1 X117.43 Y90.079 E3.06641
G1 X118.092 Y88.91 E3.13343
G1 X119.223 Y87.456 E3.22533
G1 X120.57 Y86.215 E3.31671
G1 X121.123 Y85.824 E3.3505
G1 X133.378 Y78.729 E4.05698
G1 X135.138 Y78.143 E4.14952
G1 X137.64 Y78.009 E4.27453
G1 X139.673 Y78.643 E4.38077
G1 X141.62 Y79.727 E4.49195
G1 X143.045 Y81.37 E4.60045
G1 X149.063 Y91.785 E5.20056
G1 X149.764 Y93.893 E5.31139
G1 X149.645 Y96.187 E5.426
G1 X149.356 Y97.785 E5.50701
G1 X148.204 Y99.703 E5.61864
G1 X144.854 Y104.04 E5.89204
G1 X141.78 Y108.405 E6.1584
G1 X138.973 Y112.818 E6.41933
G1 X136.14 Y117.764 E6.7037
G1 X133.679 Y122.58 E6.97352
G1 X131.595 Y127.189 E7.22588
G1 X129.455 Y132.553 E7.514
G1 X127.458 Y138.256 E7.81546
G1 X126.855 Y139.497 E7.8843
G1 X125.937 Y140.831 E7.96509
G1 X124.73 Y142.117 E8.05308
G1 X123.596 Y142.998 E8.12472
G1 X122.417 Y143.672 E8.19248
G1 X120.48 Y144.419 E8.29605
G1 X119.83 Y144.57 E8.32934
G1 X117.877 Y144.773 E8.4273
G1 X101.46 Y144.741 E9.24635
G1 X100.432 Y144.602 E9.29811
G1 X98.289 Y144.001 E9.40915
G1 X97.3 Y143.525 E9.4639
G1 X95.431 Y142.262 E9.57644
G1 X94.63 Y141.494 E9.63181
G1 X93.596 Y140.199 E9.71448
G1 X92.614 Y138.465 E9.8139
G1 X92.435 Y138.025 E9.8376
G1 X90.538 Y132.537 E10.12729
G1 X88.402 Y127.182 E10.41492
G1 X86.165 Y122.268 E10.68429
G1 X83.861 Y117.764 E10.93669
G1 X81.031 Y112.826 E11.22064
G1 X78.21 Y108.391 E11.48287
G1 X75.143 Y104.025 E11.74906
G1 X71.456 Y99.271 E12.04921
G1 X70.696 Y97.706 E12.13601
G1 X70.258 Y96.032 E12.22234
G1 X70.319 Y93.58 E12.34471
G1 X70.373 Y93.285 E12.35967
G1 X71.24 Y91.256 E12.46975
G1 X77.027 Y81.217 E13.04786
G1 X78.372 Y79.81 E13.14496
G0 F7500 X78.63 Y80.12
G1 F1500 X80.513 Y78.917 E13.25644
G1 X82.446 Y78.497 E13.35513
G1 X84.56 Y78.46 E13.46061
G1 X86.511 Y79.127 E13.56348
G1 X98.876 Y86.318 E14.27711
G1 X99.761 Y87.016 E14.33334
G1 X100.938 Y88.243 E14.41817
G1 X101.739 Y89.402 E14.48846
G1 X102.647 Y91.33 E14.59478
G1 X102.863 Y92.059 E14.63271
G1 X103.172 Y94.208 E14.74103
G1 X103.2 Y96.219 E14.84137
G1 X103.342 Y97.137 E14.88771
G1 X103.668 Y98.18 E14.94223
G1 X104.087 Y99.046 E14.99023
G1 X104.625 Y99.841 E15.03812
G1 X105.36 Y100.641 E15.09232
G1 X106.119 Y101.254 E15.14099
G1 X108.498 Y102.676 E15.27927
G1 X109.832 Y103.917 E15.37017
G1 X110.008 Y104.124 E15.38372
G1 X110.682 Y103.411 E15.43267
G1 X112.011 Y102.364 E15.51708
G1 X113.867 Y101.25 E15.62507
G1 X114.702 Y100.572 E15.67874
G1 X115.358 Y99.863 E15.72693
G1 X115.918 Y99.036 E15.77675
G1 X116.333 Y98.181 E15.82417
G1 X116.658 Y97.144 E15.87839
G1 X116.811 Y96.182 E15.92698
G1 X116.865 Y93.37 E16.0673
G1 X117.337 Y91.396 E16.16856
G1 X117.802 Y90.227 E16.23133
G1 X118.408 Y89.156 E16.29272
G1 X119.539 Y87.702 E16.38462
G1 X120.801 Y86.542 E16.47014
G1 X121.354 Y86.151 E16.50393
G1 X133.54 Y79.097 E17.2064
G1 X135.216 Y78.539 E17.29453
G1 X137.588 Y78.412 E17.41304
G1 X139.512 Y79.012 E17.51359
G1 X141.366 Y80.044 E17.61945
G1 X142.719 Y81.604 E17.72247
G1 X148.695 Y91.947 E18.31843
G1 X149.361 Y93.95 E18.42374
G1 X149.251 Y96.116 E18.53194
G1 X148.975 Y97.642 E18.6093
G1 X147.887 Y99.458 E18.71492
G1 X144.537 Y103.795 E18.98833
G1 X141.442 Y108.19 E19.25651
G1 X138.635 Y112.603 E19.51744
G1 X135.793 Y117.565 E19.80272
G1 X133.323 Y122.398 E20.07351
G1 X131.223 Y127.041 E20.32774
G1 X129.083 Y132.405 E20.61586
G1 X127.098 Y138.081 E20.91585
G1 X126.495 Y139.322 E20.98469
G1 X125.645 Y140.557 E21.05949
G1 X124.438 Y141.843 E21.14748
G1 X123.396 Y142.651 E21.21326
G1 X122.272 Y143.299 E21.27799
G1 X120.389 Y144.029 E21.37875
G1 X119.739 Y144.18 E21.41204
G1 X117.878 Y144.373 E21.50538
G1 X101.461 Y144.341 E22.32443
G1 X100.539 Y144.217 E22.37084
G1 X98.461 Y143.64 E22.47844
G1 X97.523 Y143.193 E22.53028
G1 X95.707 Y141.972 E22.63945
G1 X94.942 Y141.243 E22.69217
G1 X93.944 Y140.001 E22.77166
G1 X92.985 Y138.314 E22.86848
G1 X92.806 Y137.874 E22.89217
G1 X90.91 Y132.389 E23.18171
G1 X88.774 Y127.034 E23.46934
G1 X86.529 Y122.102 E23.73969
G1 X84.208 Y117.565 E23.99394
G1 X81.369 Y112.611 E24.27881
G1 X78.548 Y108.176 E24.54104
G1 X75.459 Y103.78 E24.80909
G1 X71.799 Y99.06 E25.10707
G1 X71.073 Y97.565 E25.18999
G1 X70.659 Y95.986 E25.27142
G1 X70.713 Y93.652 E25.3879
G1 X70.759 Y93.399 E25.40073
G1 X71.587 Y91.456 E25.5061
G1 X77.35 Y81.458 E26.08183
G1 X78.63 Y80.12 E26.17421
G0 F7500 X78.888 Y80.43
G1 F1500 X80.667 Y79.293 E26.27955
G1 X82.493 Y78.896 E26.37278
G1 X84.496 Y78.861 E26.47272
G1 X86.345 Y79.493 E26.57021
G1 X98.629 Y86.633 E27.27906
G1 X99.472 Y87.293 E27.33248
G1 X100.649 Y88.52 E27.4173
G1 X101.377 Y89.573 E27.48117
G1 X102.263 Y91.444 E27.58445
G1 X102.479 Y92.173 E27.62238
G1 X102.772 Y94.214 E27.72525
G1 X102.8 Y96.25 E27.82684
G1 X102.952 Y97.231 E27.87637
G1 X103.294 Y98.326 E27.9336
G1 X103.739 Y99.245 E27.98454
G1 X104.312 Y100.091 E28.03552
G1 X105.084 Y100.932 E28.09247
G1 X105.889 Y101.582 E28.14409
G1 X108.256 Y102.997 E28.28167
G1 X109.56 Y104.21 E28.37053
G1 X109.989 Y104.727 E28.40404
G1 X110.973 Y103.686 E28.47551
G1 X112.217 Y102.707 E28.55449
G1 X114.098 Y101.578 E28.66394
G1 X114.978 Y100.864 E28.72047
G1 X115.669 Y100.117 E28.77124
G1 X116.266 Y99.235 E28.82438
G1 X116.707 Y98.325 E28.87483
G1 X117.048 Y97.238 E28.93166
G1 X117.21 Y96.217 E28.98324
G1 X117.264 Y93.419 E29.12286
G1 X117.709 Y91.543 E29.21905
G1 X118.151 Y90.423 E29.27912
G1 X118.724 Y89.402 E29.33753
G1 X119.855 Y87.948 E29.42943
G1 X121.032 Y86.869 E29.50909
G1 X121.585 Y86.478 E29.54288
G1 X133.702 Y79.465 E30.24135
G1 X135.294 Y78.935 E30.32506
G1 X137.536 Y78.815 E30.43708
G1 X139.355 Y79.382 E30.53213
G1 X141.11 Y80.359 E30.63234
G1 X142.393 Y81.838 E30.73003
G1 X148.327 Y92.109 E31.32182
G1 X148.957 Y94.004 E31.42145
G1 X148.857 Y96.045 E31.5234
G1 X148.594 Y97.501 E31.59722
G1 X147.57 Y99.213 E31.69674
G1 X144.22 Y103.55 E31.97015
G1 X141.104 Y107.975 E32.24015
G1 X138.297 Y112.388 E32.50108
G1 X135.446 Y117.366 E32.78728
G1 X132.967 Y122.216 E33.05903
G1 X130.851 Y126.893 E33.31513
G1 X128.711 Y132.257 E33.60326
G1 X126.738 Y137.906 E33.90178
G1 X126.135 Y139.147 E33.97062
G1 X125.353 Y140.283 E34.03942
G1 X124.146 Y141.569 E34.12741
G1 X123.196 Y142.304 E34.18734
G1 X122.072 Y142.952 E34.25207
G1 X120.298 Y143.639 E34.34698
G1 X119.648 Y143.79 E34.38027
G1 X117.879 Y143.973 E34.469
G1 X101.513 Y143.944 E35.2855
G1 X100.645 Y143.831 E35.32917
G1 X98.632 Y143.278 E35.43332
G1 X97.745 Y142.86 E35.48224
G1 X95.982 Y141.681 E35.58805
G1 X95.254 Y140.992 E35.63806
G1 X94.256 Y139.75 E35.71755
G1 X93.356 Y138.163 E35.80857
G1 X93.177 Y137.723 E35.83227
G1 X91.282 Y132.241 E36.12165
G1 X89.146 Y126.886 E36.40928
G1 X86.893 Y121.936 E36.68061
G1 X84.555 Y117.366 E36.93671
G1 X81.707 Y112.396 E37.22249
G1 X78.886 Y107.961 E37.48473
G1 X75.775 Y103.535 E37.75463
G1 X72.142 Y98.85 E38.05041
G1 X71.45 Y97.425 E38.12944
G1 X71.06 Y95.939 E38.20609
G1 X71.113 Y93.661 E38.31977
G1 X71.145 Y93.514 E38.32727
G1 X71.934 Y91.656 E38.42798
G1 X77.673 Y81.699 E39.00135
G1 X78.888 Y80.43 E39.089
G0 F7500 X79.143 Y80.741
G1 F1500 X80.821 Y79.669 E39.18834
G1 X82.54 Y79.295 E39.27611
G1 X84.432 Y79.262 E39.37051
G1 X86.179 Y79.859 E39.46262
G1 X98.382 Y86.948 E40.1667
G1 X99.225 Y87.608 E40.22012
G1 X100.321 Y88.749 E40.29905
G1 X101.016 Y89.745 E40.35964
G1 X101.879 Y91.558 E40.45982
G1 X102.095 Y92.287 E40.49775
G1 X102.372 Y94.219 E40.59512
G1 X102.4 Y96.281 E40.69801
G1 X102.562 Y97.327 E40.75081
G1 X102.92 Y98.47 E40.81057
G1 X103.391 Y99.444 E40.86455
G1 X103.999 Y100.341 E40.91861
G1 X104.808 Y101.223 E40.97832
G1 X105.659 Y101.91 E41.03288
G1 X108.014 Y103.318 E41.16977
G1 X109.252 Y104.466 E41.254
G1 X110.029 Y105.401 E41.31466
G1 X110.373 Y104.903 E41.34485
G1 X111.264 Y103.961 E41.40954
G1 X112.423 Y103.05 E41.48309
G1 X114.329 Y101.906 E41.59399
G1 X115.254 Y101.156 E41.65341
G1 X115.98 Y100.371 E41.70675
G1 X116.615 Y99.432 E41.7633
G1 X117.08 Y98.474 E41.81643
G1 X117.438 Y97.33 E41.87624
G1 X117.609 Y96.252 E41.93069
G1 X117.663 Y93.468 E42.06961
G1 X118.082 Y91.689 E42.16079
G1 X118.5 Y90.619 E42.2181
G1 X119.073 Y89.598 E42.27652
G1 X120.126 Y88.242 E42.36217
G1 X121.263 Y87.196 E42.43925
G1 X121.816 Y86.805 E42.47304
G1 X133.868 Y79.831 E43.16772
G1 X135.369 Y79.331 E43.24666
G1 X137.484 Y79.218 E43.35232
G1 X139.198 Y79.752 E43.44189
G1 X140.854 Y80.674 E43.53645
G1 X142.067 Y82.072 E43.62879
G1 X147.959 Y92.271 E44.21643
G1 X148.553 Y94.059 E44.31042
G1 X148.463 Y95.974 E44.40607
G1 X148.213 Y97.36 E44.47633
G1 X147.253 Y98.968 E44.56977
G1 X143.903 Y103.305 E44.84317
G1 X140.766 Y107.76 E45.11501
G1 X137.959 Y112.173 E45.37594
G1 X135.099 Y117.167 E45.66305
G1 X132.611 Y122.034 E45.93576
G1 X130.479 Y126.745 E46.19374
G1 X128.339 Y132.109 E46.48186
G1 X126.36 Y137.774 E46.78124
G1 X125.805 Y138.921 E46.84481
G1 X125.061 Y140.009 E46.91057
G1 X123.854 Y141.295 E46.99856
G1 X122.996 Y141.957 E47.05262
G1 X121.872 Y142.605 E47.11735
G1 X120.207 Y143.249 E47.20642
G1 X119.557 Y143.4 E47.23971
G1 X117.88 Y143.573 E47.32382
G1 X101.563 Y143.547 E48.13788
G1 X100.75 Y143.445 E48.17876
G1 X98.801 Y142.915 E48.27952
G1 X97.967 Y142.527 E48.32541
G1 X96.256 Y141.389 E48.42793
G1 X95.566 Y140.741 E48.47516
G1 X94.568 Y139.499 E48.55465
G1 X93.727 Y138.012 E48.63988
G1 X93.548 Y137.572 E48.66358
G1 X91.654 Y132.093 E48.95279
G1 X89.518 Y126.738 E49.24043
G1 X87.257 Y121.77 E49.51274
G1 X84.902 Y117.167 E49.7707
G1 X82.045 Y112.181 E50.05739
G1 X79.224 Y107.746 E50.31962
G1 X76.091 Y103.29 E50.59138
G1 X72.485 Y98.639 E50.885
G1 X71.827 Y97.285 E50.9601
G1 X71.461 Y95.892 E51.03196
G1 X71.513 Y93.67 E51.14284
G1 X72.281 Y91.856 E51.24112
G1 X77.998 Y81.938 E51.81225
G1 X79.143 Y80.741 E51.89489
G0 F7500 X79.401 Y81.051
G1 F1500 X80.975 Y80.045 E51.98809
G1 X82.587 Y79.694 E52.0704
G1 X84.371 Y79.663 E52.15941
G1 X86.009 Y80.223 E52.24578
G1 X98.135 Y87.263 E52.94531
G1 X98.978 Y87.923 E52.99873
G1 X99.994 Y88.979 E53.07183
G1 X100.655 Y89.918 E53.12912
G1 X101.495 Y91.672 E53.22615
G1 X101.711 Y92.401 E53.26408
G1 X101.972 Y94.224 E53.35596
G1 X102 Y96.313 E53.46019
G1 X102.172 Y97.421 E53.51613
G1 X102.546 Y98.616 E53.5786
G1 X103.043 Y99.643 E53.63552
G1 X103.685 Y100.591 E53.69264
G1 X104.532 Y101.514 E53.75514
G1 X105.429 Y102.238 E53.81265
G1 X107.772 Y103.639 E53.94885
G1 X108.944 Y104.722 E54.02846
G1 X109.615 Y105.53 E54.08086
G1 X109.994 Y106.164 E54.11771
G1 X110.664 Y105.178 E54.17718
G1 X111.555 Y104.236 E54.24187
G1 X112.669 Y103.365 E54.31242
G1 X114.563 Y102.232 E54.42253
G1 X115.53 Y101.448 E54.48464
G1 X116.291 Y100.625 E54.54056
G1 X116.963 Y99.631 E54.60042
G1 X117.454 Y98.618 E54.65658
G1 X117.828 Y97.424 E54.71901
G1 X118.008 Y96.289 E54.77634
G1 X118.062 Y93.516 E54.91471
G1 X118.455 Y91.835 E55.00084
G1 X118.873 Y90.765 E55.05815
G1 X119.39 Y89.842 E55.11093
G1 X120.397 Y88.536 E55.19321
G1 X121.494 Y87.523 E55.2677
G1 X122.047 Y87.132 E55.30149
G1 X134.03 Y80.199 E55.99218
G1 X135.447 Y79.727 E56.06669
G1 X137.432 Y79.621 E56.16586
G1 X139.037 Y80.121 E56.24973
G1 X140.6 Y80.991 E56.33898
G1 X141.741 Y82.306 E56.42583
G1 X147.591 Y92.433 E57.00931
G1 X148.15 Y94.114 E57.09769
G1 X148.069 Y95.903 E57.18704
G1 X147.832 Y97.217 E57.25365
G1 X146.936 Y98.723 E57.34108
G1 X143.586 Y103.06 E57.61448
G1 X140.428 Y107.545 E57.88815
G1 X137.621 Y111.958 E58.14908
G1 X134.752 Y116.968 E58.43711
G1 X132.255 Y121.852 E58.71077
G1 X130.107 Y126.597 E58.97063
G1 X127.967 Y131.961 E59.25875
G1 X125.999 Y137.601 E59.55677
G1 X125.474 Y138.696 E59.61735
G1 X124.769 Y139.735 E59.67999
G1 X123.562 Y141.021 E59.76799
G1 X122.795 Y141.611 E59.81626
G1 X121.727 Y142.232 E59.8779
G1 X120.116 Y142.859 E59.96414
G1 X119.466 Y143.01 E59.99744
G1 X117.881 Y143.173 E60.07693
G1 X101.611 Y143.15 E60.88864
G1 X100.854 Y143.059 E60.92668
G1 X98.97 Y142.552 E61.02402
G1 X98.136 Y142.164 E61.06991
G1 X96.53 Y141.097 E61.16611
G1 X95.84 Y140.449 E61.21333
G1 X94.88 Y139.249 E61.29
G1 X94.098 Y137.861 E61.36948
G1 X93.919 Y137.421 E61.39318
G1 X92.026 Y131.945 E61.68224
G1 X89.89 Y126.59 E61.96987
G1 X87.621 Y121.604 E62.24317
G1 X85.249 Y116.968 E62.50298
G1 X82.383 Y111.966 E62.79059
G1 X79.562 Y107.531 E63.05282
G1 X76.407 Y103.045 E63.32644
G1 X72.828 Y98.428 E63.61788
G1 X72.204 Y97.145 E63.68906
G1 X71.862 Y95.844 E63.75617
G1 X71.911 Y93.756 E63.86037
G1 X72.628 Y92.056 E63.95242
G1 X78.321 Y82.179 E64.52118
G1 X79.401 Y81.051 E64.59909
G0 F7500 X79.656 Y81.362
G1 F1500 X81.129 Y80.421 E64.6863
G1 X82.634 Y80.093 E64.76314
G1 X84.307 Y80.064 E64.84662
G1 X85.843 Y80.589 E64.92761
G1 X97.888 Y87.578 E65.62237
G1 X98.731 Y88.238 E65.67578
G1 X99.668 Y89.211 E65.74317
G1 X100.295 Y90.092 E65.79712
G1 X101.111 Y91.786 E65.89093
G1 X101.327 Y92.515 E65.92886
G1 X101.572 Y94.229 E66.01524
G1 X101.6 Y96.344 E66.12077
G1 X101.782 Y97.515 E66.17989
G1 X102.172 Y98.762 E66.24508
G1 X102.695 Y99.842 E66.30495
G1 X103.374 Y100.845 E66.36537
G1 X104.253 Y101.802 E66.4302
G1 X105.199 Y102.566 E66.49087
G1 X107.53 Y103.96 E66.62637
G1 X108.636 Y104.978 E66.70137
G1 X109.307 Y105.786 E66.75376
G1 X109.99 Y106.945 E66.82088
G1 X110.089 Y106.74 E66.83224
G1 X110.955 Y105.453 E66.90963
G1 X111.846 Y104.511 E66.97432
G1 X112.914 Y103.681 E67.0418
G1 X114.796 Y102.558 E67.15114
G1 X115.806 Y101.74 E67.21598
G1 X116.602 Y100.879 E67.27448
G1 X117.311 Y99.83 E67.33765
G1 X117.828 Y98.762 E67.39685
G1 X118.218 Y97.518 E67.46189
G1 X118.407 Y96.324 E67.5222
G1 X118.461 Y93.567 E67.65977
G1 X118.828 Y91.981 E67.74099
G1 X119.246 Y90.911 E67.7983
G1 X119.708 Y90.085 E67.84552
G1 X120.669 Y88.829 E67.92442
G1 X121.725 Y87.85 E67.99626
G1 X122.278 Y87.459 E68.03005
G1 X134.192 Y80.567 E68.71673
G1 X135.525 Y80.123 E68.78682
G1 X137.38 Y80.024 E68.8795
G1 X138.88 Y80.491 E68.95788
G1 X140.344 Y81.306 E69.04147
G1 X141.415 Y82.54 E69.12299
G1 X147.223 Y92.595 E69.70231
G1 X147.747 Y94.17 E69.78512
G1 X147.675 Y95.832 E69.86812
G1 X147.451 Y97.076 E69.93118
G1 X146.619 Y98.478 E70.01252
G1 X143.269 Y102.815 E70.28592
G1 X140.101 Y107.315 E70.56048
G1 X137.274 Y111.759 E70.82325
G1 X134.405 Y116.769 E71.11129
G1 X131.899 Y121.67 E71.38591
G1 X129.735 Y126.449 E71.64764
G1 X127.595 Y131.813 E71.93576
G1 X125.638 Y137.428 E72.23242
G1 X125.113 Y138.523 E72.293
G1 X124.477 Y139.462 E72.34959
G1 X123.318 Y140.704 E72.43434
G1 X122.551 Y141.294 E72.48261
G1 X121.581 Y141.86 E72.53864
G1 X120.025 Y142.469 E72.62201
G1 X119.375 Y142.62 E72.6553
G1 X117.881 Y142.773 E72.73023
G1 X101.657 Y142.753 E73.53964
G1 X100.957 Y142.672 E73.5748
G1 X99.137 Y142.188 E73.66876
G1 X98.356 Y141.83 E73.71162
G1 X96.804 Y140.805 E73.80441
G1 X96.114 Y140.157 E73.85164
G1 X95.228 Y139.052 E73.9223
G1 X94.469 Y137.71 E73.99922
G1 X94.29 Y137.27 E74.02292
G1 X92.398 Y131.797 E74.31182
G1 X90.262 Y126.442 E74.59945
