;FLAVOR:Marlin
;TIME:10561
;Filament used: 13.3567m
;Layer height: 0.4
;MINX:67.574
;MINY:84.916
;MINZ:0.3
;MAXX:152.364
;MAXY:130.417
;MAXZ:70.3
;Generated with Cura_SteamEngine 5.4.0
M140 S98
M105
M190 S98
M104 S240
M105
M109 S240
M82 ;absolute extrusion mode
G28 ;Home
G1 Z15.0 F2000 ;Move the platform
G92 E0
G92 E0
G1 F1500 E-6.5
;LAYER_COUNT:176
;LAYER:0
M107
M204 S1000
G0 F7500 X82.497 Y92.573 Z0.3
;TYPE:SKIRT
G1 F1500 E0
G1 X83.228 Y91.941 E0.04821
G1 X84.361 Y91.151 E0.11712
G1 X87.124 Y89.559 E0.27621
G1 X88.171 Y89.07 E0.33386
G1 X88.825 Y88.83 E0.36862
G1 X90.247 Y88.464 E0.44187
G1 X113.493 Y85.129 E1.6135
G1 X115.161 Y84.964 E1.69712
G1 X116.545 Y84.916 E1.76621
G1 X118.03 Y84.951 E1.84032
G1 X120.264 Y85.16 E1.95226
G1 X121.444 Y85.354 E2.01192
G1 X123.576 Y85.863 E2.12127
G1 X124.872 Y86.265 E2.18897
G1 X126.677 Y86.962 E2.2855
G1 X128.388 Y87.771 E2.37993
G1 X129.705 Y88.504 E2.45512
G1 X130.906 Y89.273 E2.52627
G1 X132.469 Y90.432 E2.62335
G1 X133.747 Y91.521 E2.70712
G1 X150.655 Y106.997 E3.85067
G1 X152.054 Y109.433 E3.99082
G1 X152.304 Y111.11 E4.07541
G1 X152.364 Y123.402 E4.68866
G1 X151.897 Y125.305 E4.78642
G1 X150.845 Y127.332 E4.90036
G1 X149.284 Y128.791 E5.00696
G1 X147.261 Y129.998 E5.12448
G1 X145.543 Y130.28 E5.21134
G1 X128.228 Y130.355 E6.0752
G1 X126.326 Y129.888 E6.17291
G1 X124.299 Y128.836 E6.28684
G1 X122.84 Y127.275 E6.39344
G1 X121.633 Y125.252 E6.51097
G1 X121.351 Y123.534 E6.59783
G1 X121.273 Y110.367 E7.25475
G1 X121.244 Y109.705 E7.2878
G1 X121.196 Y109.246 E7.31083
G1 X121.076 Y108.755 E7.33605
G1 X120.832 Y108.15 E7.36859
G1 X120.715 Y107.91 E7.38191
G1 X120.264 Y107.242 E7.42212
G1 X120.02 Y106.973 E7.44024
G1 X119.785 Y106.747 E7.45651
G1 X119.512 Y106.518 E7.47429
G1 X119.277 Y106.346 E7.48881
G1 X119.01 Y106.181 E7.50447
G1 X118.662 Y105.994 E7.52418
G1 X118.232 Y105.821 E7.54731
G1 X117.67 Y105.661 E7.57646
G1 X117.222 Y105.598 E7.59903
G1 X116.902 Y105.576 E7.61503
G1 X116.599 Y105.576 E7.63015
G1 X116.283 Y105.598 E7.64595
G1 X115.984 Y105.64 E7.66102
G1 X115.652 Y105.709 E7.67793
G1 X115.333 Y105.801 E7.6945
G1 X115.062 Y105.898 E7.70886
G1 X114.768 Y106.029 E7.72492
G1 X114.489 Y106.177 E7.74067
G1 X114.251 Y106.325 E7.75466
G1 X113.994 Y106.514 E7.77057
G1 X113.707 Y106.754 E7.78924
G1 X113.494 Y106.96 E7.80402
G1 X113.226 Y107.254 E7.82387
G1 X112.797 Y107.89 E7.86214
G1 X112.628 Y108.237 E7.8814
G1 X112.499 Y108.56 E7.89875
G1 X112.357 Y108.985 E7.9211
G1 X112.289 Y109.379 E7.94105
G1 X112.256 Y109.694 E7.95685
G1 X112.227 Y110.391 E7.99166
G1 X112.225 Y123.47 E8.64417
G1 X111.759 Y125.366 E8.74158
G1 X110.706 Y127.394 E8.85558
G1 X109.145 Y128.853 E8.96218
G1 X107.122 Y130.06 E9.07971
G1 X105.404 Y130.342 E9.16657
G1 X74.521 Y130.417 E10.70733
G1 X72.625 Y129.951 E10.80474
G1 X70.597 Y128.898 E10.91874
G1 X69.138 Y127.337 E11.02534
G1 X67.931 Y125.314 E11.14287
G1 X67.649 Y123.596 E11.22972
G1 X67.574 Y110.955 E11.8604
G1 X68.229 Y108.942 E11.96601
G1 X68.845 Y107.616 E12.03895
G1 X82.497 Y92.573 E13.05244
G0 F7500 X82.759 Y92.876
G1 F1500 X83.49 Y92.244 E13.10065
G1 X84.561 Y91.498 E13.16576
G1 X87.324 Y89.906 E13.32485
G1 X88.309 Y89.446 E13.37909
G1 X88.963 Y89.206 E13.41385
G1 X90.346 Y88.852 E13.48507
G1 X113.532 Y85.527 E14.65366
G1 X115.175 Y85.364 E14.73603
G1 X116.536 Y85.316 E14.80397
G1 X118.021 Y85.351 E14.87808
G1 X120.199 Y85.555 E14.98722
G1 X121.379 Y85.749 E15.04688
G1 X123.457 Y86.245 E15.15346
G1 X124.753 Y86.647 E15.22116
G1 X126.506 Y87.324 E15.31491
G1 X128.193 Y88.121 E15.408
G1 X129.51 Y88.854 E15.48319
G1 X130.69 Y89.61 E15.55311
G1 X132.21 Y90.737 E15.64751
G1 X133.477 Y91.816 E15.73054
G1 X150.339 Y107.25 E16.87098
G1 X151.669 Y109.566 E17.00422
G1 X151.908 Y111.169 E17.08508
G1 X151.964 Y123.357 E17.69315
G1 X151.521 Y125.162 E17.78587
G1 X150.522 Y127.087 E17.89407
G1 X149.045 Y128.467 E17.99492
G1 X147.121 Y129.615 E18.1067
G1 X145.478 Y129.885 E18.18977
G1 X128.273 Y129.955 E19.04814
G1 X126.469 Y129.512 E19.14081
G1 X124.544 Y128.513 E19.24901
G1 X123.164 Y127.036 E19.34986
G1 X122.016 Y125.112 E19.46164
G1 X121.746 Y123.469 E19.54471
G1 X121.673 Y110.349 E20.19927
G1 X121.644 Y109.687 E20.23233
G1 X121.606 Y109.316 E20.25094
G1 X121.558 Y109.039 E20.26497
G1 X121.459 Y108.634 E20.28577
G1 X121.203 Y108 E20.31988
G1 X121.058 Y107.703 E20.33637
G1 X120.582 Y106.997 E20.37885
G1 X120.304 Y106.691 E20.39947
G1 X120.052 Y106.448 E20.41694
G1 X119.763 Y106.206 E20.43574
G1 X119.499 Y106.013 E20.45206
G1 X119.207 Y105.832 E20.4692
G1 X118.847 Y105.639 E20.48958
G1 X118.603 Y105.53 E20.50291
G1 X118.356 Y105.44 E20.51603
G1 X117.754 Y105.269 E20.54725
G1 X117.264 Y105.2 E20.57194
G1 X116.914 Y105.176 E20.58944
G1 X116.585 Y105.176 E20.60585
G1 X116.241 Y105.2 E20.62306
G1 X115.91 Y105.247 E20.63973
G1 X115.563 Y105.319 E20.65742
G1 X115.198 Y105.424 E20.67636
G1 X114.916 Y105.525 E20.69131
G1 X114.596 Y105.667 E20.70877
G1 X114.29 Y105.83 E20.72607
G1 X114.027 Y105.994 E20.74153
G1 X113.737 Y106.207 E20.75949
G1 X113.45 Y106.447 E20.77815
G1 X113.203 Y106.686 E20.7953
G1 X112.908 Y107.009 E20.81712
G1 X112.527 Y107.574 E20.85112
G1 X112.4 Y107.791 E20.86366
G1 X112.261 Y108.076 E20.87948
G1 X112.127 Y108.412 E20.89753
G1 X111.968 Y108.888 E20.92257
G1 X111.892 Y109.329 E20.94489
G1 X111.856 Y109.677 E20.96235
G1 X111.827 Y110.374 E20.99715
G1 X111.825 Y123.424 E21.64822
G1 X111.383 Y125.223 E21.74064
G1 X110.383 Y127.149 E21.84891
G1 X108.906 Y128.529 E21.94976
G1 X106.982 Y129.677 E22.06153
G1 X105.339 Y129.947 E22.1446
G1 X74.567 Y130.017 E23.67983
G1 X72.768 Y129.575 E23.77225
G1 X70.842 Y128.575 E23.88052
G1 X69.462 Y127.098 E23.98136
G1 X68.314 Y125.174 E24.09314
G1 X68.044 Y123.531 E24.17621
G1 X67.974 Y111.015 E24.80065
G1 X68.592 Y109.111 E24.90052
G1 X69.183 Y107.839 E24.97049
G1 X82.759 Y92.876 E25.97847
G0 F7500 X83.021 Y93.179
G1 F1500 X83.752 Y92.547 E26.02668
G1 X84.761 Y91.845 E26.088
G1 X87.524 Y90.253 E26.2471
G1 X88.447 Y89.822 E26.29792
G1 X89.101 Y89.582 E26.33267
G1 X90.403 Y89.248 E26.39973
G1 X113.572 Y85.925 E27.56747
G1 X115.189 Y85.764 E27.64854
G1 X116.527 Y85.716 E27.71533
G1 X118.012 Y85.751 E27.78944
G1 X120.134 Y85.95 E27.89577
G1 X121.314 Y86.144 E27.95543
G1 X123.338 Y86.627 E28.05925
G1 X124.634 Y87.029 E28.12694
G1 X126.335 Y87.686 E28.21792
G1 X127.998 Y88.471 E28.30966
G1 X129.315 Y89.204 E28.38486
G1 X130.474 Y89.947 E28.45355
G1 X131.951 Y91.042 E28.54527
G1 X133.207 Y92.111 E28.62756
G1 X150.023 Y107.503 E29.76489
G1 X151.284 Y109.699 E29.89123
G1 X151.512 Y111.228 E29.96836
G1 X151.564 Y123.312 E30.57124
G1 X151.145 Y125.019 E30.65893
G1 X150.199 Y126.842 E30.76139
G1 X148.803 Y128.146 E30.8567
G1 X146.983 Y129.232 E30.96243
G1 X145.413 Y129.49 E31.04181
G1 X128.318 Y129.555 E31.89469
G1 X126.612 Y129.136 E31.98233
G1 X124.789 Y128.19 E32.0848
G1 X123.485 Y126.794 E32.18011
G1 X122.399 Y124.974 E32.28584
G1 X122.141 Y123.404 E32.36522
G1 X122.073 Y110.332 E33.01739
G1 X122.044 Y109.66 E33.05095
G1 X122.003 Y109.267 E33.07066
G1 X121.947 Y108.944 E33.08702
G1 X121.871 Y108.632 E33.10304
G1 X121.781 Y108.362 E33.11724
G1 X121.571 Y107.842 E33.14522
G1 X121.403 Y107.498 E33.16432
G1 X120.9 Y106.752 E33.20921
G1 X120.588 Y106.409 E33.23234
G1 X120.319 Y106.149 E33.251
G1 X120.014 Y105.894 E33.27084
G1 X119.722 Y105.68 E33.2889
G1 X119.404 Y105.483 E33.30756
G1 X119.027 Y105.281 E33.3289
G1 X118.757 Y105.16 E33.34366
G1 X118.475 Y105.058 E33.35862
G1 X117.838 Y104.877 E33.39166
G1 X117.305 Y104.802 E33.41851
G1 X116.928 Y104.776 E33.43737
G1 X116.571 Y104.776 E33.45518
G1 X116.197 Y104.802 E33.47388
G1 X115.841 Y104.853 E33.49182
G1 X115.471 Y104.929 E33.51067
G1 X115.063 Y105.047 E33.53186
G1 X114.773 Y105.151 E33.54723
G1 X114.418 Y105.309 E33.56661
G1 X114.087 Y105.485 E33.58532
G1 X113.806 Y105.66 E33.60183
G1 X113.493 Y105.89 E33.62121
G1 X113.183 Y106.15 E33.6414
G1 X112.912 Y106.411 E33.66017
G1 X112.672 Y106.675 E33.67797
G1 X112.515 Y106.876 E33.69069
G1 X112.195 Y107.35 E33.71922
G1 X112.05 Y107.598 E33.73356
G1 X111.889 Y107.928 E33.75188
G1 X111.755 Y108.264 E33.76992
G1 X111.579 Y108.791 E33.79764
G1 X111.495 Y109.279 E33.82235
G1 X111.456 Y109.66 E33.84145
G1 X111.427 Y110.357 E33.87626
G1 X111.425 Y123.377 E34.52583
G1 X111.006 Y125.081 E34.61337
G1 X110.06 Y126.904 E34.71584
G1 X108.664 Y128.208 E34.81114
G1 X106.844 Y129.294 E34.91688
G1 X105.274 Y129.552 E34.99626
G1 X74.614 Y129.617 E36.5259
G1 X72.91 Y129.198 E36.61344
G1 X71.087 Y128.252 E36.71591
G1 X69.783 Y126.856 E36.81121
G1 X68.697 Y125.036 E36.91695
G1 X68.439 Y123.466 E36.99633
G1 X68.374 Y111.078 E37.61438
G1 X68.955 Y109.28 E37.70865
G1 X69.521 Y108.062 E37.77565
G1 X83.021 Y93.179 E38.77813
G0 F7500 X83.283 Y93.482
G1 F1500 X84.014 Y92.85 E38.82634
G1 X84.961 Y92.192 E38.88387
G1 X87.724 Y90.6 E39.04296
G1 X88.585 Y90.198 E39.09037
G1 X89.239 Y89.958 E39.12512
G1 X90.46 Y89.644 E39.18802
G1 X113.612 Y86.323 E40.3549
G1 X115.204 Y86.164 E40.43472
G1 X116.518 Y86.116 E40.50032
G1 X118.003 Y86.151 E40.57443
G1 X120.069 Y86.345 E40.67796
G1 X121.249 Y86.539 E40.73762
G1 X123.219 Y87.009 E40.83866
G1 X124.515 Y87.411 E40.90636
G1 X126.164 Y88.048 E40.99455
G1 X127.803 Y88.821 E41.08496
G1 X129.12 Y89.554 E41.16015
G1 X130.258 Y90.284 E41.22761
G1 X131.713 Y91.363 E41.31798
G1 X132.937 Y92.406 E41.39821
G1 X149.707 Y107.756 E42.53243
G1 X150.899 Y109.832 E42.65186
G1 X151.116 Y111.287 E42.72526
G1 X151.164 Y123.267 E43.32295
G1 X150.769 Y124.876 E43.4056
G1 X149.876 Y126.597 E43.50234
G1 X148.561 Y127.825 E43.5921
G1 X146.845 Y128.849 E43.6918
G1 X145.348 Y129.095 E43.76748
G1 X128.363 Y129.155 E44.61487
G1 X126.755 Y128.76 E44.69748
G1 X125.034 Y127.867 E44.79421
G1 X123.806 Y126.552 E44.88398
G1 X122.782 Y124.836 E44.98367
G1 X122.536 Y123.339 E45.05936
G1 X122.473 Y110.315 E45.70914
G1 X122.444 Y109.634 E45.74314
G1 X122.4 Y109.218 E45.76401
G1 X122.336 Y108.849 E45.7827
G1 X122.258 Y108.529 E45.79913
G1 X122.152 Y108.212 E45.81581
G1 X121.936 Y107.678 E45.84454
G1 X121.804 Y107.407 E45.85958
G1 X121.667 Y107.173 E45.87311
G1 X121.218 Y106.507 E45.91318
G1 X120.879 Y106.134 E45.93833
G1 X120.586 Y105.852 E45.95862
G1 X120.256 Y105.575 E45.98011
G1 X119.944 Y105.347 E45.99939
G1 X119.6 Y105.134 E46.01958
G1 X119.212 Y104.926 E46.04154
G1 X118.906 Y104.789 E46.05827
G1 X118.594 Y104.676 E46.07482
G1 X118.045 Y104.52 E46.1033
G1 X117.785 Y104.466 E46.11655
G1 X117.346 Y104.404 E46.13867
G1 X116.942 Y104.376 E46.15887
G1 X116.557 Y104.376 E46.17808
G1 X116.153 Y104.404 E46.19828
G1 X115.769 Y104.459 E46.21763
G1 X115.382 Y104.539 E46.23735
G1 X114.938 Y104.667 E46.2604
G1 X114.619 Y104.782 E46.27732
G1 X114.247 Y104.947 E46.29762
G1 X113.888 Y105.138 E46.31791
G1 X113.58 Y105.33 E46.33602
G1 X113.251 Y105.571 E46.35637
G1 X112.916 Y105.852 E46.37818
G1 X112.621 Y106.136 E46.39861
G1 X112.361 Y106.422 E46.41789
G1 X112.199 Y106.63 E46.43105
G1 X111.852 Y107.143 E46.46195
G1 X111.704 Y107.397 E46.47661
G1 X111.517 Y107.78 E46.49788
G1 X111.383 Y108.116 E46.51592
G1 X111.231 Y108.571 E46.53986
G1 X111.168 Y108.823 E46.55281
G1 X111.098 Y109.227 E46.57327
G1 X111.056 Y109.643 E46.59413
G1 X111.027 Y110.34 E46.62893
G1 X111.025 Y123.331 E47.27706
G1 X110.63 Y124.938 E47.35962
G1 X109.737 Y126.659 E47.45635
G1 X108.422 Y127.887 E47.54611
G1 X106.706 Y128.911 E47.64581
G1 X105.209 Y129.157 E47.7215
G1 X74.66 Y129.217 E49.2456
G1 X73.053 Y128.822 E49.32816
G1 X71.332 Y127.929 E49.42489
G1 X70.104 Y126.614 E49.51465
G1 X69.08 Y124.898 E49.61435
G1 X68.834 Y123.401 E49.69003
G1 X68.774 Y111.14 E50.30174
G1 X69.318 Y109.449 E50.39037
G1 X69.859 Y108.285 E50.45441
G1 X83.283 Y93.482 E51.45138
G0 F7500 X83.545 Y93.785
G1 F1500 X84.276 Y93.153 E51.49959
G1 X85.161 Y92.539 E51.55333
G1 X87.924 Y90.947 E51.71242
G1 X88.723 Y90.574 E51.75641
G1 X89.377 Y90.334 E51.79116
G1 X90.559 Y90.032 E51.85203
G1 X113.652 Y86.721 E53.01592
G1 X115.219 Y86.564 E53.09449
G1 X116.509 Y86.516 E53.1589
G1 X117.994 Y86.551 E53.233
G1 X120.004 Y86.74 E53.33373
G1 X121.184 Y86.934 E53.39339
G1 X123.1 Y87.391 E53.49166
G1 X124.396 Y87.793 E53.55936
G1 X125.993 Y88.41 E53.64477
G1 X127.608 Y89.171 E53.73384
G1 X128.925 Y89.904 E53.80904
G1 X130.042 Y90.621 E53.87526
G1 X131.454 Y91.668 E53.96295
G1 X132.667 Y92.701 E54.04244
G1 X149.391 Y108.009 E55.17356
G1 X150.514 Y109.965 E55.28609
G1 X150.72 Y111.346 E55.35575
G1 X150.764 Y123.222 E55.94825
G1 X150.393 Y124.733 E56.02587
G1 X149.553 Y126.352 E56.11687
G1 X148.319 Y127.504 E56.20109
G1 X146.707 Y128.466 E56.29474
G1 X145.283 Y128.7 E56.36674
G1 X128.408 Y128.755 E57.20864
G1 X126.898 Y128.384 E57.28622
G1 X125.279 Y127.544 E57.37721
G1 X124.127 Y126.31 E57.46144
G1 X123.165 Y124.698 E57.55509
G1 X122.931 Y123.274 E57.62709
G1 X122.873 Y110.298 E58.27447
G1 X122.844 Y109.613 E58.30867
G1 X122.797 Y109.168 E58.331
G1 X122.725 Y108.754 E58.35196
G1 X122.643 Y108.419 E58.36917
G1 X122.529 Y108.076 E58.3872
G1 X122.301 Y107.514 E58.41746
G1 X122.16 Y107.224 E58.43355
G1 X122.004 Y106.958 E58.44893
G1 X121.611 Y106.374 E58.48405
G1 X121.457 Y106.176 E58.49657
G1 X121.171 Y105.86 E58.51783
G1 X120.853 Y105.554 E58.53985
G1 X120.499 Y105.257 E58.5629
G1 X120.172 Y105.018 E58.58311
G1 X119.789 Y104.781 E58.60558
G1 X119.397 Y104.571 E58.62777
G1 X119.055 Y104.418 E58.64646
G1 X118.713 Y104.294 E58.66461
G1 X118.138 Y104.131 E58.69442
G1 X117.859 Y104.073 E58.70864
G1 X117.387 Y104.006 E58.73243
G1 X116.956 Y103.976 E58.75398
G1 X116.545 Y103.976 E58.77448
G1 X116.109 Y104.006 E58.79629
G1 X115.697 Y104.065 E58.81705
G1 X115.293 Y104.149 E58.83764
G1 X114.818 Y104.286 E58.8623
G1 X114.467 Y104.412 E58.88091
G1 X114.069 Y104.589 E58.90264
G1 X113.676 Y104.798 E58.92485
G1 X113.363 Y104.993 E58.94325
G1 X113.009 Y105.252 E58.96513
G1 X112.649 Y105.554 E58.98857
G1 X112.33 Y105.861 E59.01066
G1 X112.048 Y106.172 E59.0316
G1 X111.883 Y106.384 E59.04501
G1 X111.509 Y106.936 E59.07827
G1 X111.35 Y107.21 E59.09408
G1 X111.154 Y107.612 E59.11639
G1 X111.008 Y107.977 E59.136
G1 X110.846 Y108.462 E59.16151
G1 X110.776 Y108.742 E59.17591
G1 X110.701 Y109.177 E59.19794
G1 X110.656 Y109.618 E59.22005
G1 X110.627 Y110.324 E59.2553
G1 X110.625 Y123.285 E59.90193
G1 X110.254 Y124.795 E59.9795
G1 X109.414 Y126.414 E60.0705
G1 X108.18 Y127.566 E60.15472
G1 X106.568 Y128.528 E60.24838
G1 X105.144 Y128.762 E60.32038
G1 X74.706 Y128.817 E61.83894
G1 X73.196 Y128.446 E61.91651
G1 X71.577 Y127.606 E62.00751
G1 X70.425 Y126.372 E62.09173
G1 X69.463 Y124.76 E62.18539
G1 X69.229 Y123.336 E62.25738
G1 X69.174 Y111.202 E62.86276
G1 X69.681 Y109.618 E62.94573
G1 X70.197 Y108.508 E63.0068
G1 X83.545 Y93.785 E63.99827
G0 F7500 X83.807 Y94.088
G1 F1500 X84.538 Y93.456 E64.04648
G1 X85.361 Y92.886 E64.09642
G1 X88.124 Y91.294 E64.25552
G1 X88.861 Y90.95 E64.29609
G1 X89.515 Y90.71 E64.33085
G1 X90.616 Y90.428 E64.38755
G1 X113.692 Y87.119 E65.55059
G1 X115.234 Y86.964 E65.62791
G1 X116.5 Y86.916 E65.69112
G1 X117.985 Y86.951 E65.76523
G1 X119.939 Y87.135 E65.86314
G1 X121.119 Y87.329 E65.9228
G1 X122.981 Y87.773 E66.0183
G1 X124.277 Y88.175 E66.086
G1 X125.823 Y88.772 E66.16868
G1 X127.413 Y89.521 E66.25637
G1 X128.73 Y90.254 E66.33156
G1 X129.826 Y90.958 E66.39655
G1 X131.195 Y91.973 E66.48158
G1 X132.397 Y92.996 E66.56032
G1 X149.075 Y108.262 E67.68833
G1 X150.129 Y110.098 E67.79395
G1 X150.324 Y111.405 E67.85988
G1 X150.364 Y123.176 E68.44714
G1 X150.016 Y124.591 E68.51984
G1 X149.23 Y126.107 E68.60503
G1 X148.077 Y127.183 E68.68372
G1 X146.569 Y128.083 E68.77133
G1 X145.218 Y128.305 E68.83964
G1 X128.455 Y128.355 E69.67595
G1 X127.04 Y128.007 E69.74865
G1 X125.524 Y127.221 E69.83384
G1 X124.448 Y126.068 E69.91252
G1 X123.548 Y124.56 E70.00014
G1 X123.326 Y123.209 E70.06844
G1 X123.273 Y110.281 E70.71343
G1 X123.244 Y109.588 E70.74803
G1 X123.195 Y109.123 E70.77136
G1 X123.117 Y108.674 E70.7941
G1 X123.025 Y108.3 E70.81331
G1 X122.906 Y107.94 E70.83223
G1 X122.669 Y107.355 E70.86372
G1 X122.513 Y107.036 E70.88143
G1 X122.342 Y106.743 E70.89836
G1 X121.94 Y106.146 E70.93427
G1 X121.762 Y105.917 E70.94874
