;FLAVOR:Marlin
;TIME:12199
;Filament used: 15.8988m
;Layer height: 0.4
;MINX:67.574
;MINY:88.294
;MINZ:0.3
;MAXX:152.364
;MAXY:134.556
;MAXZ:70.3
;Generated with Cura_SteamEngine 5.4.0
M140 S98
M105
M190 S98
M104 S240
M105
M109 S240
M82 ;absolute extrusion mode
G28 ;Home
G1 Z15.0 F2000 ;Move the platform
G92 E0
G92 E0
G1 F1500 E-6.5
;LAYER_COUNT:176
;LAYER:0
M107
M204 S1000
G0 F7500 X83.153 Y96.143 Z0.3
;TYPE:SKIRT
G1 F1500 E0
G1 X84.132 Y95.428 E0.06048
G1 X87.334 Y93.587 E0.24475
G1 X87.915 Y93.317 E0.27672
G1 X89.534 Y92.754 E0.36223
G1 X89.889 Y92.667 E0.38047
G1 X113.488 Y89.268 E1.56998
G1 X115.161 Y89.102 E1.65385
G1 X116.545 Y89.054 E1.72294
G1 X118.03 Y89.089 E1.79705
G1 X120.264 Y89.298 E1.90899
G1 X121.444 Y89.492 E1.96865
G1 X123.576 Y90.001 E2.07801
G1 X124.872 Y90.403 E2.1457
G1 X126.824 Y91.153 E2.25003
G1 X127.916 Y91.662 E2.31014
G1 X129.81 Y92.707 E2.41806
G1 X130.906 Y93.411 E2.48305
G1 X132.527 Y94.615 E2.58379
G1 X133.747 Y95.66 E2.66393
G1 X150.654 Y111.134 E3.80737
G1 X152.053 Y113.57 E3.94752
G1 X152.303 Y115.247 E4.03211
G1 X152.364 Y127.545 E4.64567
G1 X151.919 Y129.414 E4.74152
G1 X150.849 Y131.476 E4.85742
G1 X149.254 Y132.956 E4.96598
G1 X147.273 Y134.137 E5.08104
G1 X145.479 Y134.424 E5.17168
G1 X128.226 Y134.493 E6.03244
G1 X126.324 Y134.026 E6.13015
G1 X124.297 Y132.974 E6.24409
G1 X122.838 Y131.413 E6.35069
G1 X121.631 Y129.39 E6.46821
G1 X121.349 Y127.672 E6.55507
G1 X121.273 Y114.504 E7.21204
G1 X121.244 Y113.839 E7.24525
G1 X121.209 Y113.503 E7.2621
G1 X121.161 Y113.229 E7.27598
G1 X121.079 Y112.896 E7.29309
G1 X120.84 Y112.308 E7.32475
G1 X120.704 Y112.032 E7.3401
G1 X120.269 Y111.388 E7.37888
G1 X120.003 Y111.094 E7.39866
G1 X119.795 Y110.893 E7.41309
G1 X119.512 Y110.656 E7.4315
G1 X119.277 Y110.484 E7.44603
G1 X119.01 Y110.319 E7.46169
G1 X118.662 Y110.132 E7.4814
G1 X118.232 Y109.959 E7.50452
G1 X117.67 Y109.799 E7.53368
G1 X117.222 Y109.736 E7.55625
G1 X116.902 Y109.714 E7.57225
G1 X116.598 Y109.714 E7.58742
G1 X116.277 Y109.736 E7.60347
G1 X116.005 Y109.775 E7.61718
G1 X115.636 Y109.852 E7.63598
G1 X115.331 Y109.94 E7.65182
G1 X115.066 Y110.034 E7.66585
G1 X114.768 Y110.167 E7.68213
G1 X114.489 Y110.315 E7.69789
G1 X114.251 Y110.463 E7.71187
G1 X113.985 Y110.66 E7.72838
G1 X113.729 Y110.873 E7.745
G1 X113.485 Y111.108 E7.7619
G1 X113.217 Y111.402 E7.78175
G1 X112.868 Y111.92 E7.81291
G1 X112.692 Y112.221 E7.8303
G1 X112.471 Y112.769 E7.85978
G1 X112.365 Y113.089 E7.8766
G1 X112.288 Y113.529 E7.89889
G1 X112.256 Y113.839 E7.91443
G1 X112.227 Y114.53 E7.94894
G1 X112.225 Y127.609 E8.60145
G1 X111.759 Y129.505 E8.69886
G1 X110.706 Y131.533 E8.81286
G1 X109.145 Y132.992 E8.91946
G1 X107.122 Y134.199 E9.03699
G1 X105.404 Y134.481 E9.12385
G1 X74.521 Y134.556 E10.66461
G1 X72.625 Y134.09 E10.76202
G1 X70.597 Y133.037 E10.87602
G1 X69.138 Y131.476 E10.98262
G1 X67.931 Y129.453 E11.10015
G1 X67.649 Y127.735 E11.18701
G1 X67.574 Y115.093 E11.81773
G1 X68.13 Y113.334 E11.90977
G1 X68.841 Y111.758 E11.99602
G1 X82.289 Y96.921 E12.99506
G1 X83.153 Y96.143 E13.05306
G0 F7500 X83.39 Y96.466
G1 F1500 X84.332 Y95.775 E13.11135
G1 X87.503 Y93.95 E13.29388
G1 X88.084 Y93.68 E13.32584
G1 X89.629 Y93.143 E13.40744
G1 X89.984 Y93.056 E13.42568
G1 X113.528 Y89.666 E14.61241
G1 X115.175 Y89.502 E14.69498
G1 X116.536 Y89.454 E14.76293
G1 X118.021 Y89.489 E14.83703
G1 X120.199 Y89.693 E14.94617
G1 X121.379 Y89.887 E15.00583
G1 X123.457 Y90.383 E15.11242
G1 X124.753 Y90.785 E15.18011
G1 X126.655 Y91.516 E15.28177
G1 X127.747 Y92.025 E15.34188
G1 X129.594 Y93.044 E15.44712
G1 X130.69 Y93.748 E15.51211
G1 X132.267 Y94.919 E15.6101
G1 X133.477 Y95.955 E15.68957
G1 X150.338 Y111.387 E16.82991
G1 X151.668 Y113.703 E16.96315
G1 X151.907 Y115.306 E17.04401
G1 X151.964 Y127.499 E17.65233
G1 X151.541 Y129.274 E17.74336
G1 X150.526 Y131.23 E17.85331
G1 X149.015 Y132.632 E17.95614
G1 X147.133 Y133.754 E18.06546
G1 X145.477 Y134.024 E18.14916
G1 X128.271 Y134.093 E19.00758
G1 X126.467 Y133.65 E19.10026
G1 X124.542 Y132.651 E19.20846
G1 X123.162 Y131.174 E19.30931
G1 X122.014 Y129.25 E19.42108
G1 X121.744 Y127.607 E19.50415
G1 X121.673 Y114.487 E20.15872
G1 X121.644 Y113.812 E20.19243
G1 X121.607 Y113.461 E20.21004
G1 X121.553 Y113.148 E20.22588
G1 X121.459 Y112.769 E20.24536
G1 X121.205 Y112.143 E20.27907
G1 X121.05 Y111.829 E20.29654
G1 X120.587 Y111.143 E20.33783
G1 X120.295 Y110.82 E20.35955
G1 X120.052 Y110.586 E20.37638
G1 X119.763 Y110.344 E20.39519
G1 X119.499 Y110.151 E20.4115
G1 X119.207 Y109.97 E20.42864
G1 X118.847 Y109.777 E20.44902
G1 X118.603 Y109.668 E20.46235
G1 X118.356 Y109.578 E20.47547
G1 X117.754 Y109.407 E20.50669
G1 X117.264 Y109.338 E20.53138
G1 X116.914 Y109.314 E20.54888
G1 X116.584 Y109.314 E20.56535
G1 X116.236 Y109.338 E20.58275
G1 X115.927 Y109.382 E20.59832
G1 X115.549 Y109.461 E20.61759
G1 X115.202 Y109.561 E20.6356
G1 X114.916 Y109.663 E20.65075
G1 X114.596 Y109.805 E20.66822
G1 X114.29 Y109.968 E20.68552
G1 X114.027 Y110.132 E20.70098
G1 X113.739 Y110.344 E20.71882
G1 X113.456 Y110.58 E20.7372
G1 X113.194 Y110.833 E20.75537
G1 X112.902 Y111.154 E20.77702
G1 X112.531 Y111.705 E20.81016
G1 X112.331 Y112.047 E20.82993
G1 X112.094 Y112.634 E20.86151
G1 X112.016 Y112.872 E20.87401
G1 X111.95 Y113.139 E20.88773
G1 X111.891 Y113.478 E20.9049
G1 X111.856 Y113.812 E20.92165
G1 X111.827 Y114.513 E20.95665
G1 X111.825 Y127.563 E21.60772
G1 X111.383 Y129.362 E21.70014
G1 X110.383 Y131.288 E21.80841
G1 X108.906 Y132.668 E21.90926
G1 X106.982 Y133.816 E22.02103
G1 X105.339 Y134.086 E22.1041
G1 X74.567 Y134.156 E23.63933
G1 X72.768 Y133.714 E23.73175
G1 X70.842 Y132.714 E23.84002
G1 X69.462 Y131.237 E23.94087
G1 X68.314 Y129.313 E24.05264
G1 X68.044 Y127.67 E24.13571
G1 X67.974 Y115.152 E24.76025
G1 X68.495 Y113.499 E24.84671
G1 X69.181 Y111.979 E24.92991
G1 X82.557 Y97.218 E25.92372
G1 X83.39 Y96.466 E25.97971
G0 F7500 X83.627 Y96.789
G1 F1500 X84.569 Y96.098 E26.038
G1 X87.672 Y94.313 E26.21659
G1 X88.253 Y94.043 E26.24856
G1 X89.724 Y93.532 E26.32625
G1 X90.079 Y93.445 E26.34448
G1 X113.568 Y90.064 E27.52843
G1 X115.189 Y89.902 E27.60971
G1 X116.527 Y89.854 E27.6765
G1 X118.012 Y89.889 E27.75061
G1 X120.134 Y90.088 E27.85694
G1 X121.314 Y90.282 E27.9166
G1 X123.338 Y90.765 E28.02041
G1 X124.634 Y91.167 E28.08811
G1 X126.486 Y91.879 E28.1871
G1 X127.578 Y92.388 E28.24721
G1 X129.378 Y93.381 E28.34977
G1 X130.474 Y94.085 E28.41476
G1 X132.007 Y95.223 E28.51001
G1 X133.207 Y96.25 E28.58881
G1 X150.022 Y111.64 E29.72604
G1 X151.283 Y113.836 E29.85238
G1 X151.511 Y115.365 E29.9295
G1 X151.564 Y127.453 E30.53258
G1 X151.163 Y129.134 E30.6188
G1 X150.203 Y130.984 E30.72278
G1 X148.776 Y132.308 E30.8199
G1 X146.993 Y133.371 E30.92346
G1 X145.413 Y133.629 E31.00333
G1 X128.316 Y133.693 E31.85631
G1 X126.61 Y133.274 E31.94395
G1 X124.787 Y132.328 E32.04642
G1 X123.483 Y130.932 E32.14173
G1 X122.397 Y129.112 E32.24746
G1 X122.139 Y127.542 E32.32684
G1 X122.073 Y114.47 E32.97901
G1 X122.044 Y113.787 E33.01312
G1 X122.004 Y113.409 E33.03208
G1 X121.945 Y113.07 E33.04925
G1 X121.839 Y112.642 E33.07125
G1 X121.57 Y111.978 E33.10699
G1 X121.396 Y111.626 E33.12658
G1 X120.905 Y110.898 E33.17039
G1 X120.586 Y110.545 E33.19413
G1 X120.319 Y110.287 E33.21265
G1 X120.014 Y110.032 E33.23248
G1 X119.722 Y109.818 E33.25055
G1 X119.404 Y109.621 E33.26921
G1 X119.027 Y109.419 E33.29055
G1 X118.757 Y109.298 E33.30531
G1 X118.475 Y109.196 E33.32027
G1 X117.838 Y109.015 E33.35331
G1 X117.305 Y108.94 E33.38016
G1 X116.928 Y108.914 E33.39901
G1 X116.57 Y108.914 E33.41687
G1 X116.195 Y108.94 E33.43563
G1 X115.85 Y108.989 E33.45301
G1 X115.462 Y109.07 E33.47279
G1 X115.067 Y109.184 E33.4933
G1 X114.773 Y109.289 E33.50887
G1 X114.418 Y109.447 E33.52826
G1 X114.087 Y109.623 E33.54696
G1 X113.806 Y109.798 E33.56348
G1 X113.493 Y110.028 E33.58286
G1 X113.183 Y110.287 E33.60301
G1 X112.91 Y110.551 E33.62196
G1 X112.587 Y110.906 E33.6459
G1 X112.194 Y111.49 E33.68102
G1 X111.97 Y111.873 E33.70316
G1 X111.719 Y112.495 E33.73662
G1 X111.632 Y112.76 E33.75053
G1 X111.558 Y113.057 E33.7658
G1 X111.494 Y113.428 E33.78459
G1 X111.456 Y113.795 E33.80299
G1 X111.427 Y114.496 E33.838
G1 X111.425 Y127.516 E34.48757
G1 X111.006 Y129.22 E34.57511
G1 X110.06 Y131.043 E34.67758
G1 X108.664 Y132.347 E34.77289
G1 X106.844 Y133.433 E34.87862
G1 X105.274 Y133.691 E34.958
G1 X74.614 Y133.756 E36.48764
G1 X72.91 Y133.337 E36.57518
G1 X71.087 Y132.391 E36.67765
G1 X69.783 Y130.995 E36.77295
G1 X68.697 Y129.175 E36.87869
G1 X68.439 Y127.605 E36.95807
G1 X68.374 Y115.214 E37.57627
G1 X68.86 Y113.663 E37.65736
G1 X69.52 Y112.2 E37.73743
G1 X82.825 Y97.515 E38.72605
G1 X83.627 Y96.789 E38.78002
G0 F7500 X83.864 Y97.112
G1 F1500 X84.806 Y96.421 E38.83831
G1 X87.841 Y94.676 E39.01297
G1 X88.422 Y94.406 E39.04493
G1 X89.819 Y93.921 E39.11871
G1 X90.174 Y93.834 E39.13694
G1 X113.608 Y90.462 E40.31811
G1 X115.204 Y90.302 E40.39814
G1 X116.518 Y90.254 E40.46373
G1 X118.003 Y90.289 E40.53784
G1 X120.069 Y90.483 E40.64137
G1 X121.249 Y90.677 E40.70103
G1 X123.219 Y91.147 E40.80207
G1 X124.515 Y91.549 E40.86977
G1 X126.317 Y92.242 E40.96609
G1 X127.409 Y92.751 E41.0262
G1 X129.162 Y93.718 E41.12608
G1 X130.258 Y94.422 E41.19107
G1 X131.747 Y95.527 E41.28357
G1 X132.937 Y96.545 E41.3617
G1 X149.706 Y111.893 E42.49583
G1 X150.898 Y113.969 E42.61526
G1 X151.115 Y115.424 E42.68865
G1 X151.164 Y127.407 E43.28649
G1 X150.785 Y128.994 E43.36789
G1 X149.88 Y130.738 E43.46592
G1 X148.537 Y131.984 E43.55732
G1 X146.853 Y132.988 E43.65513
G1 X145.348 Y133.234 E43.73121
G1 X128.361 Y133.293 E44.5787
G1 X126.753 Y132.898 E44.66131
G1 X125.032 Y132.005 E44.75804
G1 X123.804 Y130.69 E44.8478
G1 X122.78 Y128.974 E44.9475
G1 X122.534 Y127.477 E45.02319
G1 X122.473 Y114.453 E45.67296
G1 X122.444 Y113.77 E45.70707
G1 X122.401 Y113.356 E45.72784
G1 X122.337 Y112.988 E45.74647
G1 X122.249 Y112.636 E45.76457
G1 X122.168 Y112.389 E45.77754
G1 X121.935 Y111.813 E45.80854
G1 X121.805 Y111.549 E45.82322
G1 X121.66 Y111.301 E45.83755
G1 X121.3 Y110.767 E45.86968
G1 X121.139 Y110.56 E45.88277
G1 X120.878 Y110.271 E45.9022
G1 X120.586 Y109.99 E45.92241
G1 X120.256 Y109.713 E45.94391
G1 X119.944 Y109.485 E45.96319
G1 X119.6 Y109.272 E45.98337
G1 X119.212 Y109.064 E46.00534
G1 X118.906 Y108.927 E46.02206
G1 X118.594 Y108.814 E46.03862
G1 X118.045 Y108.658 E46.06709
G1 X117.785 Y108.604 E46.08034
G1 X117.346 Y108.542 E46.10246
G1 X116.942 Y108.514 E46.12266
G1 X116.558 Y108.514 E46.14182
G1 X116.151 Y108.542 E46.16217
G1 X115.774 Y108.596 E46.18118
G1 X115.38 Y108.678 E46.20125
G1 X114.938 Y108.805 E46.2242
G1 X114.619 Y108.92 E46.24111
G1 X114.247 Y109.085 E46.26142
G1 X113.888 Y109.276 E46.28171
G1 X113.58 Y109.468 E46.29981
G1 X113.251 Y109.709 E46.32016
G1 X112.916 Y109.99 E46.34197
G1 X112.619 Y110.276 E46.36254
G1 X112.272 Y110.658 E46.38829
G1 X111.853 Y111.28 E46.42571
G1 X111.61 Y111.697 E46.44979
G1 X111.345 Y112.352 E46.48504
G1 X111.247 Y112.652 E46.50078
G1 X111.167 Y112.973 E46.51729
G1 X111.097 Y113.378 E46.53779
G1 X111.056 Y113.778 E46.55785
G1 X111.027 Y114.479 E46.59286
G1 X111.025 Y127.47 E47.24098
G1 X110.63 Y129.077 E47.32354
G1 X109.737 Y130.798 E47.42027
G1 X108.422 Y132.026 E47.51003
G1 X106.706 Y133.05 E47.60973
G1 X105.209 Y133.296 E47.68542
G1 X74.66 Y133.356 E49.20952
G1 X73.053 Y132.961 E49.29208
G1 X71.332 Y132.068 E49.38881
G1 X70.104 Y130.753 E49.47857
G1 X69.08 Y129.037 E49.57827
G1 X68.834 Y127.54 E49.65395
G1 X68.774 Y115.276 E50.26582
G1 X69.242 Y113.783 E50.34388
G1 X69.858 Y112.423 E50.41836
G1 X83.094 Y97.811 E51.40197
G1 X83.864 Y97.112 E51.45386
G0 F7500 X84.101 Y97.435
G1 F1500 X85.043 Y96.744 E51.51214
G1 X88.01 Y95.039 E51.68287
G1 X88.591 Y94.769 E51.71483
G1 X89.914 Y94.31 E51.78469
G1 X90.269 Y94.223 E51.80293
G1 X113.648 Y90.86 E52.98132
G1 X115.219 Y90.702 E53.06009
G1 X116.509 Y90.654 E53.12449
G1 X117.994 Y90.689 E53.1986
G1 X120.004 Y90.878 E53.29932
G1 X121.184 Y91.072 E53.35898
G1 X123.1 Y91.529 E53.45725
G1 X124.396 Y91.931 E53.52495
G1 X126.148 Y92.605 E53.6186
G1 X127.24 Y93.114 E53.67871
G1 X128.946 Y94.055 E53.77591
G1 X130.042 Y94.759 E53.8409
G1 X131.508 Y95.848 E53.93201
G1 X132.667 Y96.84 E54.00812
G1 X149.39 Y112.146 E55.13914
G1 X150.513 Y114.102 E55.25166
G1 X150.719 Y115.483 E55.32132
G1 X150.764 Y127.361 E55.91392
G1 X150.407 Y128.854 E55.99051
G1 X149.557 Y130.492 E56.08258
G1 X148.298 Y131.66 E56.16826
G1 X146.713 Y132.605 E56.26032
G1 X145.283 Y132.839 E56.33261
G1 X128.406 Y132.893 E57.17461
G1 X126.896 Y132.522 E57.25219
G1 X125.277 Y131.682 E57.34318
G1 X124.125 Y130.448 E57.42741
G1 X123.163 Y128.836 E57.52106
G1 X122.929 Y127.412 E57.59306
G1 X122.873 Y114.436 E58.24044
G1 X122.844 Y113.743 E58.27504
G1 X122.799 Y113.314 E58.29656
G1 X122.729 Y112.908 E58.31712
G1 X122.634 Y112.528 E58.33666
G1 X122.542 Y112.246 E58.35146
G1 X122.3 Y111.648 E58.38364
G1 X122.155 Y111.354 E58.4
G1 X122.001 Y111.09 E58.41525
G1 X121.625 Y110.532 E58.44882
G1 X121.45 Y110.307 E58.46304
G1 X121.17 Y109.997 E58.48388
G1 X120.853 Y109.692 E58.50582
G1 X120.499 Y109.395 E58.52888
G1 X120.172 Y109.156 E58.54909
G1 X119.789 Y108.919 E58.57156
G1 X119.397 Y108.709 E58.59374
G1 X119.055 Y108.556 E58.61243
G1 X118.713 Y108.432 E58.63058
G1 X118.138 Y108.269 E58.6604
G1 X117.859 Y108.211 E58.67462
G1 X117.387 Y108.144 E58.6984
G1 X116.956 Y108.114 E58.71996
G1 X116.544 Y108.114 E58.74051
G1 X116.11 Y108.144 E58.76222
G1 X115.696 Y108.203 E58.78308
G1 X115.293 Y108.287 E58.80362
G1 X114.818 Y108.424 E58.82828
G1 X114.467 Y108.55 E58.84689
G1 X114.069 Y108.727 E58.86862
G1 X113.676 Y108.936 E58.89082
G1 X113.363 Y109.131 E58.90922
G1 X113.009 Y109.39 E58.93111
G1 X112.649 Y109.692 E58.95455
G1 X112.328 Y110.001 E58.97678
G1 X112.039 Y110.32 E58.99825
G1 X111.873 Y110.534 E59.01177
G1 X111.521 Y111.056 E59.04318
G1 X111.316 Y111.407 E59.06346
G1 X111.198 Y111.648 E59.07684
G1 X110.97 Y112.213 E59.10724
G1 X110.862 Y112.542 E59.12451
G1 X110.775 Y112.892 E59.14251
G1 X110.7 Y113.326 E59.16448
G1 X110.656 Y113.761 E59.18629
G1 X110.627 Y114.462 E59.2213
G1 X110.625 Y127.424 E59.86797
G1 X110.254 Y128.934 E59.94555
G1 X109.414 Y130.553 E60.03655
G1 X108.18 Y131.705 E60.12077
G1 X106.568 Y132.667 E60.21442
G1 X105.144 Y132.901 E60.28642
G1 X74.706 Y132.956 E61.80498
G1 X73.196 Y132.585 E61.88255
G1 X71.577 Y131.745 E61.97355
G1 X70.425 Y130.511 E62.05777
G1 X69.463 Y128.899 E62.15143
G1 X69.229 Y127.475 E62.22343
G1 X69.174 Y115.338 E62.82895
G1 X69.624 Y113.903 E62.90398
G1 X70.197 Y112.645 E62.97294
G1 X83.363 Y98.107 E63.95148
G1 X84.101 Y97.435 E64.00127
G0 F7500 X84.338 Y97.758
G1 F1500 X85.28 Y97.067 E64.05956
G1 X88.179 Y95.402 E64.22635
G1 X88.76 Y95.132 E64.25831
G1 X90.009 Y94.699 E64.32426
G1 X90.364 Y94.612 E64.3425
G1 X113.688 Y91.258 E65.5181
G1 X115.234 Y91.102 E65.59563
G1 X116.5 Y91.054 E65.65883
G1 X117.985 Y91.089 E65.73294
G1 X119.939 Y91.273 E65.83086
G1 X121.119 Y91.467 E65.89052
G1 X122.981 Y91.911 E65.98602
G1 X124.277 Y92.313 E66.05371
G1 X125.979 Y92.968 E66.1447
G1 X127.071 Y93.477 E66.20481
G1 X128.73 Y94.392 E66.29933
G1 X129.826 Y95.096 E66.36432
G1 X131.248 Y96.152 E66.45268
G1 X132.397 Y97.135 E66.52812
G1 X149.074 Y112.399 E67.65603
G1 X150.128 Y114.235 E67.76165
G1 X150.323 Y115.542 E67.82758
G1 X150.364 Y127.315 E68.41494
G1 X150.029 Y128.714 E68.48671
G1 X149.234 Y130.246 E68.57282
G1 X148.059 Y131.336 E68.65278
G1 X146.573 Y132.222 E68.73909
G1 X145.218 Y132.444 E68.80759
G1 X128.453 Y132.493 E69.64401
G1 X127.038 Y132.145 E69.71671
G1 X125.522 Y131.359 E69.8019
G1 X124.446 Y130.206 E69.88058
G1 X123.546 Y128.698 E69.9682
G1 X123.324 Y127.347 E70.0365
G1 X123.273 Y114.419 E70.68149
G1 X123.244 Y113.726 E70.71609
G1 X123.196 Y113.263 E70.73931
G1 X123.12 Y112.824 E70.76154
G1 X123.019 Y112.42 E70.78232
G1 X122.913 Y112.096 E70.79932
G1 X122.668 Y111.49 E70.83194
G1 X122.511 Y111.171 E70.84967
G1 X122.333 Y110.866 E70.86729
G1 X121.957 Y110.308 E70.90086
G1 X121.755 Y110.048 E70.91729
G1 X121.455 Y109.716 E70.93961
G1 X121.12 Y109.393 E70.96283
G1 X120.75 Y109.083 E70.98691
