;FLAVOR:Marlin
;TIME:2139
;Filament used: 2.33027m
;Layer height: 0.4
;MINX:75.351
;MINY:97.849
;MINZ:0.3
;MAXX:145.3
;MAXY:124.001
;MAXZ:13.9
;Generated with Cura_SteamEngine 5.4.0
M140 S98
M105
M190 S98
M104 S240
M105
M109 S240
M82 ;absolute extrusion mode
G28 ;Home
G1 Z15.0 F2000 ;Move the platform
G92 E0
G92 E0
G1 F1500 E-6.5
;LAYER_COUNT:35
;LAYER:0
M107
M204 S1000
G0 F7500 X77.934 Y99.89 Z0.3
;TYPE:SKIRT
G1 F1500 E0
G1 X79.491 Y98.769 E0.09572
G1 X80.224 Y98.368 E0.1374
G1 X82.341 Y97.849 E0.24615
G1 X138.353 Y97.849 E3.0406
G1 X140.249 Y98.315 E3.138
G1 X142.277 Y99.368 E3.25201
G1 X143.736 Y100.929 E3.35861
G1 X144.943 Y102.952 E3.47613
G1 X145.225 Y104.67 E3.56299
G1 X145.3 Y117.043 E4.18029
G1 X144.832 Y118.951 E4.27831
G1 X143.781 Y120.977 E4.39218
G1 X142.22 Y122.436 E4.49877
G1 X140.197 Y123.643 E4.6163
G1 X138.479 Y123.925 E4.70316
G1 X82.632 Y124.001 E7.48938
G1 X80.177 Y123.424 E7.6152
G1 X77.94 Y121.878 E7.75086
G1 X76.785 Y120.529 E7.83946
G1 X76.145 Y119.581 E7.89653
G1 X75.351 Y117.2 E8.02175
G1 X75.419 Y104.853 E8.63775
G1 X75.634 Y103.516 E8.70531
G1 X76.626 Y101.456 E8.81938
G1 X77.934 Y99.89 E8.92118
G0 F7500 X78.207 Y100.187
G1 F1500 X79.725 Y99.094 E9.0145
G1 X80.367 Y98.745 E9.05095
G1 X82.391 Y98.249 E9.15492
G1 X138.307 Y98.249 E11.94458
G1 X140.106 Y98.691 E12.037
G1 X142.032 Y99.691 E12.14527
G1 X143.412 Y101.168 E12.24612
G1 X144.56 Y103.092 E12.35789
G1 X144.83 Y104.735 E12.44096
G1 X144.9 Y116.998 E13.05278
G1 X144.456 Y118.808 E13.14576
G1 X143.458 Y120.732 E13.25389
G1 X141.981 Y122.112 E13.35474
G1 X140.057 Y123.26 E13.46651
G1 X138.414 Y123.53 E13.54958
G1 X82.677 Y123.601 E16.33031
G1 X80.342 Y123.052 E16.44998
G1 X78.211 Y121.579 E16.57923
G1 X77.117 Y120.305 E16.66301
G1 X76.506 Y119.4 E16.71748
G1 X75.751 Y117.137 E16.8365
G1 X75.814 Y104.917 E17.44617
G1 X76.02 Y103.636 E17.5109
G1 X76.965 Y101.674 E17.61955
G1 X78.207 Y100.187 E17.71621
G0 F7500 X78.48 Y100.484
G1 F1500 X79.959 Y99.419 E17.80713
G1 X80.511 Y99.122 E17.83841
G1 X82.441 Y98.649 E17.93754
G1 X138.26 Y98.649 E20.72236
G1 X139.964 Y99.068 E20.80991
G1 X141.787 Y100.014 E20.91238
G1 X143.091 Y101.41 E21.00768
G1 X144.177 Y103.23 E21.11342
G1 X144.435 Y104.8 E21.1928
G1 X144.5 Y116.953 E21.79912
G1 X144.08 Y118.665 E21.88706
G1 X143.135 Y120.487 E21.98946
G1 X141.739 Y121.791 E22.08477
G1 X139.919 Y122.877 E22.19051
G1 X138.349 Y123.135 E22.26988
G1 X82.721 Y123.201 E25.04518
G1 X80.508 Y122.681 E25.15859
G1 X78.481 Y121.28 E25.28152
G1 X77.449 Y120.081 E25.36045
G1 X76.867 Y119.219 E25.41234
G1 X76.151 Y117.074 E25.52516
G1 X76.209 Y104.981 E26.12849
G1 X76.406 Y103.756 E26.19039
G1 X77.304 Y101.892 E26.29361
G1 X78.48 Y100.484 E26.38514
G0 F7500 X78.755 Y100.779
G1 F1500 X80.148 Y99.771 E26.47092
G1 X80.656 Y99.498 E26.49969
G1 X82.487 Y99.049 E26.59375
G1 X138.214 Y99.049 E29.37398
G1 X139.821 Y99.444 E29.45654
G1 X141.542 Y100.337 E29.55327
G1 X142.77 Y101.652 E29.64303
G1 X143.794 Y103.368 E29.74273
G1 X144.04 Y104.865 E29.81842
G1 X144.1 Y116.908 E30.41925
G1 X143.704 Y118.522 E30.50216
G1 X142.812 Y120.242 E30.59883
G1 X141.497 Y121.47 E30.68859
G1 X139.781 Y122.494 E30.78829
G1 X138.284 Y122.74 E30.86397
G1 X82.766 Y122.801 E33.63378
G1 X80.673 Y122.309 E33.74105
G1 X78.753 Y120.982 E33.85749
G1 X77.781 Y119.857 E33.93166
G1 X77.228 Y119.038 E33.98096
G1 X76.551 Y117.011 E34.08758
G1 X76.604 Y105.045 E34.68458
G1 X76.792 Y103.876 E34.74365
G1 X77.643 Y102.11 E34.84145
G1 X78.755 Y100.779 E34.92798
G0 F7500 X79.031 Y101.074
G1 F1500 X80.383 Y100.095 E35.01126
G1 X80.8 Y99.874 E35.0348
G1 X82.533 Y99.449 E35.12382
G1 X138.168 Y99.449 E37.89946
G1 X139.678 Y99.82 E37.97704
G1 X141.297 Y100.66 E38.06804
G1 X142.449 Y101.894 E38.15226
G1 X143.411 Y103.506 E38.24591
G1 X143.645 Y104.93 E38.31791
G1 X143.7 Y116.863 E38.91326
G1 X143.328 Y118.379 E38.99113
G1 X142.489 Y119.997 E39.08206
G1 X141.255 Y121.149 E39.16629
G1 X139.643 Y122.111 E39.25994
G1 X138.219 Y122.345 E39.33194
G1 X82.811 Y122.401 E42.09625
G1 X80.838 Y121.937 E42.19737
G1 X79.025 Y120.684 E42.30732
G1 X78.084 Y119.595 E42.37913
G1 X77.59 Y118.859 E42.42335
G1 X76.951 Y116.948 E42.52388
G1 X76.999 Y105.109 E43.11454
G1 X77.178 Y103.996 E43.17078
G1 X77.981 Y102.33 E43.26304
G1 X79.031 Y101.074 E43.34472
G0 F7500 X79.304 Y101.37
G1 F1500 X80.618 Y100.419 E43.42564
G1 X80.945 Y100.25 E43.44401
G1 X82.579 Y99.849 E43.52795
G1 X138.121 Y99.849 E46.29895
G1 X139.536 Y100.197 E46.37165
G1 X141.052 Y100.983 E46.45684
G1 X142.128 Y102.136 E46.53552
G1 X143.028 Y103.644 E46.62314
G1 X143.25 Y104.995 E46.69144
G1 X143.3 Y116.818 E47.2813
G1 X142.952 Y118.236 E47.35414
G1 X142.166 Y119.752 E47.43934
G1 X141.013 Y120.828 E47.51802
G1 X139.505 Y121.728 E47.60563
G1 X138.154 Y121.95 E47.67394
G1 X82.856 Y122.001 E50.43277
G1 X81.003 Y121.565 E50.52774
G1 X79.297 Y120.386 E50.6312
G1 X78.387 Y119.333 E50.70063
G1 X77.951 Y118.679 E50.73985
G1 X77.351 Y116.885 E50.83422
G1 X77.394 Y105.173 E51.41854
G1 X77.564 Y104.116 E51.47195
G1 X78.32 Y102.548 E51.5588
G1 X79.304 Y101.37 E51.63538
G0 F7500 X79.58 Y101.665
G1 F1500 X80.853 Y100.743 E51.71379
G1 X81.088 Y100.626 E51.72689
G1 X82.625 Y100.249 E51.80585
G1 X138.075 Y100.249 E54.57226
G1 X139.393 Y100.573 E54.63997
G1 X140.807 Y101.306 E54.71943
G1 X141.807 Y102.378 E54.79257
G1 X142.645 Y103.782 E54.87414
G1 X142.855 Y105.06 E54.93876
G1 X142.9 Y116.773 E55.52313
G1 X142.576 Y118.093 E55.59094
G1 X141.843 Y119.507 E55.6704
G1 X140.771 Y120.507 E55.74354
G1 X139.367 Y121.345 E55.82511
G1 X138.089 Y121.555 E55.88972
G1 X82.901 Y121.601 E58.64307
G1 X81.168 Y121.193 E58.73189
G1 X79.569 Y120.088 E58.82886
G1 X78.69 Y119.071 E58.89592
G1 X78.313 Y118.502 E58.92998
G1 X77.751 Y116.821 E59.0184
G1 X77.789 Y105.237 E59.59634
G1 X77.95 Y104.236 E59.64692
G1 X78.658 Y102.768 E59.72823
G1 X79.58 Y101.665 E59.79995
G0 F7500 X79.853 Y101.961
G1 F1500 X81.088 Y101.067 E59.87601
G1 X81.228 Y101.003 E59.88369
G1 X82.671 Y100.649 E59.95782
G1 X138.029 Y100.649 E62.71964
G1 X139.25 Y100.949 E62.78237
G1 X140.56 Y101.628 E62.85598
G1 X141.488 Y102.623 E62.92386
G1 X142.262 Y103.92 E62.99922
G1 X142.46 Y105.125 E63.06014
G1 X142.5 Y116.728 E63.63902
G1 X142.2 Y117.95 E63.7018
G1 X141.521 Y119.26 E63.77541
G1 X140.526 Y120.188 E63.84329
G1 X139.229 Y120.962 E63.91865
G1 X138.024 Y121.16 E63.97957
G1 X82.946 Y121.201 E66.72742
G1 X81.333 Y120.821 E66.8101
G1 X79.841 Y119.79 E66.90058
G1 X78.993 Y118.809 E66.96527
G1 X78.675 Y118.323 E66.99425
G1 X78.151 Y116.757 E67.07663
G1 X78.184 Y105.301 E67.64818
G1 X78.336 Y104.356 E67.69593
G1 X78.997 Y102.986 E67.77182
G1 X79.853 Y101.961 E67.83844
G0 F7500 X80.129 Y102.256
G1 F1500 X81.323 Y101.391 E67.912
G1 X82.717 Y101.049 E67.98361
G1 X137.983 Y101.049 E70.74084
G1 X139.107 Y101.325 E70.79859
G1 X140.313 Y101.95 E70.86635
G1 X141.166 Y102.865 E70.92876
G1 X141.879 Y104.06 E70.99819
G1 X142.065 Y105.19 E71.05532
G1 X142.1 Y116.683 E71.62871
G1 X141.824 Y117.807 E71.68645
G1 X141.199 Y119.013 E71.75422
G1 X140.284 Y119.866 E71.81663
G1 X139.089 Y120.579 E71.88606
G1 X137.959 Y120.765 E71.94319
G1 X82.991 Y120.801 E74.68555
G1 X81.498 Y120.449 E74.76208
G1 X80.113 Y119.492 E74.84607
G1 X79.328 Y118.59 E74.90573
G1 X79.037 Y118.145 E74.93225
G1 X78.551 Y116.693 E75.00865
G1 X78.579 Y105.365 E75.5738
G1 X78.722 Y104.476 E75.61873
G1 X79.335 Y103.206 E75.68908
G1 X80.129 Y102.256 E75.75085
G0 F7500 X80.402 Y102.552
G1 F1500 X81.496 Y101.76 E75.81823
G1 X82.763 Y101.449 E75.88332
G1 X137.936 Y101.449 E78.63591
G1 X138.965 Y101.702 E78.68878
G1 X140.066 Y102.272 E78.75063
G1 X140.844 Y103.107 E78.80757
G1 X141.496 Y104.2 E78.87107
G1 X141.67 Y105.255 E78.92441
G1 X141.7 Y116.636 E79.49221
G1 X141.447 Y117.665 E79.54508
G1 X140.877 Y118.766 E79.60693
G1 X140.042 Y119.544 E79.66387
G1 X138.949 Y120.196 E79.72737
G1 X137.894 Y120.37 E79.78071
G1 X83.036 Y120.401 E82.51759
G1 X81.663 Y120.077 E82.58797
G1 X80.384 Y119.193 E82.66554
G1 X79.663 Y118.371 E82.72009
G1 X79.399 Y117.967 E82.74416
G1 X78.951 Y116.629 E82.81456
G1 X78.974 Y105.429 E83.37333
G1 X79.108 Y104.596 E83.41542
G1 X79.674 Y103.424 E83.48036
G1 X80.402 Y102.552 E83.53703
G0 F7500 X80.677 Y102.846
G1 F1500 X81.668 Y102.129 E83.59805
G1 X82.809 Y101.849 E83.65667
G1 X137.89 Y101.849 E86.40467
G1 X138.822 Y102.078 E86.45255
G1 X139.819 Y102.594 E86.50856
G1 X140.522 Y103.349 E86.56003
G1 X141.113 Y104.34 E86.61759
G1 X141.275 Y105.32 E86.66715
G1 X141.3 Y116.59 E87.22941
G1 X141.071 Y117.522 E87.27729
G1 X140.555 Y118.519 E87.3333
G1 X139.8 Y119.222 E87.38477
G1 X138.809 Y119.813 E87.44233
G1 X137.829 Y119.975 E87.49189
G1 X83.081 Y120.001 E90.22328
G1 X81.83 Y119.706 E90.2874
G1 X80.653 Y118.892 E90.3588
G1 X79.964 Y118.107 E90.41091
G1 X79.762 Y117.791 E90.42962
G1 X79.351 Y116.565 E90.49413
G1 X79.369 Y105.493 E91.04651
G1 X79.494 Y104.716 E91.08578
G1 X80.013 Y103.642 E91.14529
G1 X80.677 Y102.846 E91.197
G0 F7500 X80.951 Y103.142
G1 F1500 X81.839 Y102.499 E91.2517
G1 X82.859 Y102.249 E91.3041
G1 X137.844 Y102.249 E94.04731
G1 X138.679 Y102.454 E94.0902
G1 X139.574 Y102.917 E94.14048
G1 X140.198 Y103.588 E94.18619
G1 X140.73 Y104.48 E94.23801
G1 X140.88 Y105.385 E94.28377
G1 X140.9 Y116.544 E94.8405
G1 X140.695 Y117.379 E94.88339
G1 X140.232 Y118.274 E94.93367
G1 X139.561 Y118.898 E94.97938
G1 X138.669 Y119.43 E95.0312
G1 X137.764 Y119.58 E95.07696
G1 X83.126 Y119.601 E97.80287
G1 X81.995 Y119.334 E97.86084
G1 X80.923 Y118.593 E97.92586
G1 X80.265 Y117.843 E97.97563
G1 X80.124 Y117.614 E97.98905
G1 X79.751 Y116.501 E98.04761
G1 X79.764 Y105.557 E98.59361
G1 X79.88 Y104.836 E98.63005
G1 X80.352 Y103.86 E98.68413
G1 X80.951 Y103.142 E98.73078
G0 F7500 X81.225 Y103.438
G1 F1500 X82.012 Y102.868 E98.77926
G1 X82.905 Y102.649 E98.82514
G1 X137.798 Y102.649 E101.56376
G1 X138.536 Y102.83 E101.60167
G1 X139.329 Y103.24 E101.64621
G1 X139.874 Y103.827 E101.68617
G1 X140.347 Y104.62 E101.73224
G1 X140.485 Y105.451 E101.77426
G1 X140.5 Y116.498 E102.3254
G1 X140.319 Y117.236 E102.36331
G1 X139.909 Y118.029 E102.40785
G1 X139.322 Y118.574 E102.44781
G1 X138.529 Y119.047 E102.49388
G1 X137.698 Y119.185 E102.5359
G1 X83.171 Y119.201 E105.25627
G1 X82.162 Y118.963 E105.30799
G1 X81.192 Y118.292 E105.36683
G1 X80.566 Y117.579 E105.41417
G1 X80.488 Y117.442 E105.42203
G1 X80.151 Y116.437 E105.47492
G1 X80.159 Y105.621 E106.01453
G1 X80.266 Y104.956 E106.04813
G1 X80.691 Y104.078 E106.0968
G1 X81.225 Y103.438 E106.13838
G0 F7500 X81.499 Y103.734
G1 F1500 X82.185 Y103.237 E106.18064
G1 X82.951 Y103.049 E106.21999
G1 X137.748 Y103.049 E108.95383
G1 X138.397 Y103.208 E108.98716
G1 X139.084 Y103.563 E109.02574
G1 X139.55 Y104.066 E109.05995
G1 X139.964 Y104.76 E109.10027
G1 X140.09 Y105.517 E109.13856
G1 X140.1 Y116.448 E109.68391
G1 X139.941 Y117.097 E109.71724
G1 X139.586 Y117.784 E109.75582
G1 X139.083 Y118.25 E109.79003
G1 X138.389 Y118.664 E109.83035
G1 X137.632 Y118.79 E109.86864
G1 X83.216 Y118.801 E112.58346
G1 X82.327 Y118.591 E112.62903
G1 X81.462 Y117.993 E112.6815
G1 X80.867 Y117.315 E112.7265
G1 X80.551 Y116.373 E112.77607
G1 X80.554 Y105.685 E113.3093
G1 X80.652 Y105.076 E113.34007
G1 X81.03 Y104.296 E113.38332
G1 X81.499 Y103.734 E113.41983
G0 F7500 X81.773 Y104.03
G1 F1500 X82.356 Y103.607 E113.45577
G1 X83.001 Y103.449 E113.4889
G1 X137.698 Y103.449 E116.21774
G1 X138.258 Y103.586 E116.24651
G1 X138.838 Y103.886 E116.27908
G1 X139.226 Y104.305 E116.30757
G1 X139.581 Y104.9 E116.34214
G1 X139.695 Y105.583 E116.37669
G1 X139.7 Y116.398 E116.91625
G1 X139.563 Y116.958 E116.94501
G1 X139.263 Y117.538 E116.97759
G1 X138.844 Y117.926 E117.00608
G1 X138.249 Y118.281 E117.04065
G1 X137.566 Y118.395 E117.07519
G1 X83.261 Y118.401 E119.78448
G1 X82.492 Y118.219 E119.82391
G1 X81.732 Y117.694 E119.86999
G1 X81.22 Y117.11 E119.90874
G1 X80.951 Y116.309 E119.95089
G1 X80.949 Y105.749 E120.47773
G1 X81.038 Y105.197 E120.50563
G1 X81.369 Y104.514 E120.5435
G1 X81.773 Y104.03 E120.57495
G0 F7500 X82.047 Y104.326
G1 F1500 X82.529 Y103.976 E120.60467
G1 X83.047 Y103.849 E120.63128
G1 X137.648 Y103.849 E123.35533
G1 X138.119 Y103.964 E123.37952
G1 X138.592 Y104.209 E123.40609
G1 X138.905 Y104.547 E123.42908
G1 X139.198 Y105.038 E123.4576
G1 X139.3 Y105.649 E123.48851
G1 X139.3 Y116.348 E124.02228
G1 X139.185 Y116.819 E124.04647
G1 X138.94 Y117.292 E124.07305
G1 X138.602 Y117.605 E124.09603
G1 X138.111 Y117.898 E124.12456
G1 X137.5 Y118 E124.15546
G1 X83.306 Y118.001 E126.85921
G1 X82.659 Y117.848 E126.89238
G1 X82.001 Y117.393 E126.93229
G1 X81.573 Y116.905 E126.96468
G1 X81.351 Y116.244 E126.99946
G1 X81.349 Y105.749 E127.52306
G1 X81.423 Y105.32 E127.54478
G1 X81.709 Y104.731 E127.57745
G1 X82.047 Y104.326 E127.60376
G0 F7500 X82.321 Y104.622
G1 F1500 X82.702 Y104.345 E127.62726
G1 X83.093 Y104.249 E127.64735
G1 X137.598 Y104.249 E130.36662
G1 X137.98 Y104.342 E130.38623
G1 X138.346 Y104.532 E130.40681
G1 X138.584 Y104.789 E130.42428
G1 X138.815 Y105.176 E130.44677
G1 X138.9 Y105.649 E130.47074
G1 X138.9 Y116.298 E131.00202
G1 X138.807 Y116.68 E131.02164
G1 X138.617 Y117.046 E131.04221
G1 X138.36 Y117.284 E131.05969
G1 X137.973 Y117.515 E131.08217
G1 X137.5 Y117.6 E131.10615
G1 X83.352 Y117.601 E133.8076
G1 X82.824 Y117.476 E133.83467
G1 X82.271 Y117.094 E133.8682
G1 X81.926 Y116.7 E133.89433
G1 X81.751 Y116.179 E133.92175
G1 X81.749 Y105.749 E134.44211
G1 X81.807 Y105.445 E134.45755
G1 X82.049 Y104.948 E134.48513
G1 X82.321 Y104.622 E134.50631
G0 F7500 X82.599 Y104.914
G1 F1500 X82.874 Y104.714 E134.52327
G1 X83.093 Y104.649 E134.53467
G1 X137.549 Y104.649 E137.25149
G1 X137.838 Y104.719 E137.26633
G1 X138.101 Y104.856 E137.28112
G1 X138.24 Y104.994 E137.29089
G1 X138.435 Y105.321 E137.30989
G1 X138.5 Y105.649 E137.32657
G1 X138.5 Y116.249 E137.8554
G1 X138.43 Y116.538 E137.87024
G1 X138.293 Y116.801 E137.88503
G1 X138.155 Y116.94 E137.89481
G1 X137.828 Y117.135 E137.9138
G1 X137.5 Y117.2 E137.93048
G1 X83.397 Y117.201 E140.62969
G1 X82.991 Y117.105 E140.65051
G1 X82.54 Y116.793 E140.67787
G1 X82.279 Y116.495 E140.69763
G1 X82.151 Y116.114 E140.71768
G1 X82.149 Y105.749 E141.23479
G1 X82.189 Y105.574 E141.24375
G1 X82.387 Y105.167 E141.26633
G1 X82.599 Y104.914 E141.2828
G0 F7500 X83.194 Y105.449
G1 F1500 X137.5 Y105.449 E143.99214
G1 X137.619 Y105.488 E143.99838
G1 X137.7 Y105.649 E144.00738
G1 X137.7 Y116.2 E144.53377
G1 X137.661 Y116.319 E144.54001
G1 X137.5 Y116.4 E144.54901
G1 X83.442 Y116.401 E147.24597
G1 X83.328 Y116.365 E147.25194
G1 X83.037 Y116.163 E147.26961
G1 X82.951 Y116.049 E147.27673
G1 X82.949 Y105.842 E147.78596
G1 X83.085 Y105.562 E147.80149
G1 X83.194 Y105.449 E147.80932
G0 F7500 X82.906 Y105.171
G1 F1500 X83.093 Y105.049 E147.82046
G1 X137.5 Y105.049 E150.53484
G1 X137.744 Y105.108 E150.54736
G1 X137.896 Y105.199 E150.5562
G1 X138.057 Y105.469 E150.57189
G1 X138.1 Y105.649 E150.58112
G1 X138.1 Y116.2 E151.10751
G1 X138.041 Y116.444 E151.12003
G1 X137.95 Y116.596 E151.12887
G1 X137.68 Y116.757 E151.14456
G1 X137.5 Y116.8 E151.15379
G1 X83.442 Y116.801 E153.85075
G1 X83.158 Y116.734 E153.86531
G1 X82.809 Y116.492 E153.8865
G1 X82.632 Y116.29 E153.8999
G1 X82.551 Y116.049 E153.91258
G1 X82.549 Y105.749 E154.42645
G1 X82.725 Y105.387 E154.44653
G1 X82.906 Y105.171 E154.46059
G1 F1500 E147.96059
;MESH:Upper Belt C Primo.STL
G0 F7500 X83.563 Y106.063
G0 X83.751 Y115.601
;TYPE:WALL-INNER
G1 F1500 E154.46059
G1 X136.9 Y115.6 E157.11221
G1 X136.9 Y106.249 E157.57873
G1 X83.75 Y106.249 E160.2304
G1 X83.751 Y115.601 E160.69697
G1 F1500 E154.19697
G0 F7500 X83.85 Y115.302
G0 X137.03 Y115.73
G0 X137.3 Y116
;TYPE:WALL-OUTER
G1 F1500 E160.69697
G1 X137.3 Y105.849 E161.2034
G1 X83.39 Y105.849 E163.89299
G1 X83.349 Y105.933 E163.89765
G1 X83.351 Y115.904 E164.3951
G1 X83.479 Y116.001 E164.40312
G1 X137.3 Y116 E167.08826
G0 F7500 X137.3 Y115.8
G1 F1500 E160.58826
G0 F7500 X137.03 Y115.73
G0 X84.111 Y115.501
G0 X84.111 Y115.241
;TYPE:SKIN
G1 F1500 E167.08826
G1 X84.11 Y106.609 E167.51891
G1 X136.54 Y106.609 E170.13465
G1 X136.54 Y115.24 E170.56525
G1 X84.111 Y115.241 E173.18095
G0 F7500 X84.492 Y115.039
