;FLAVOR:Marlin
;TIME:3351
;Filament used: 2.08708m
;Layer height: 0.15
;MINX:71.794
;MINY:96.159
;MINZ:0.3
;MAXX:148.246
;MAXY:123.733
;MAXZ:32.55
;Generated with Cura_SteamEngine 5.4.0
M140 S98
M105
M190 S98
M104 S240
M105
M109 S240
M82 ;absolute extrusion mode
G28 ;Home
G1 Z15.0 F2000 ;Move the platform
G92 E0
G92 E0
G1 F1500 E-6.5
;LAYER_COUNT:216
;LAYER:0
M107
M204 S1000
G0 F7500 X78.102 Y97.278 Z0.3
;TYPE:SKIRT
G1 F1500 E0
G1 X80.434 Y96.442 E0.12359
G1 X81.42 Y96.238 E0.17383
G1 X83.273 Y96.285 E0.2663
G1 X85.089 Y96.715 E0.35941
G1 X86.097 Y97.084 E0.41296
G1 X89.468 Y99.426 E0.61775
G1 X92.022 Y100.945 E0.766
G1 X94.217 Y102.051 E0.88862
G1 X96.843 Y103.134 E1.03034
G1 X99.324 Y103.962 E1.16083
G1 X101.823 Y104.604 E1.28955
G1 X104.643 Y105.119 E1.43257
G1 X107.327 Y105.412 E1.56727
G1 X110 Y105.507 E1.70071
G1 X112.673 Y105.412 E1.83415
G1 X115.414 Y105.112 E1.97172
G1 X118.192 Y104.605 E2.1126
G1 X120.615 Y103.983 E2.23741
G1 X123.285 Y103.092 E2.37783
G1 X125.686 Y102.096 E2.50752
G1 X127.965 Y100.952 E2.63474
G1 X130.544 Y99.418 E2.78445
G1 X133.88 Y97.104 E2.987
G1 X134.37 Y96.85 E3.01454
G1 X137.249 Y96.159 E3.16225
G1 X139.928 Y96.53 E3.29718
G1 X140.757 Y96.773 E3.34028
G1 X142.354 Y97.656 E3.43132
G1 X144.237 Y99.259 E3.5547
G1 X147.574 Y105.042 E3.8878
G1 X148.246 Y107.364 E4.0084
G1 X148.075 Y109.874 E4.13391
G1 X147.549 Y111.594 E4.22365
G1 X147.094 Y112.546 E4.27629
G1 X145.774 Y114.137 E4.37943
G1 X144.582 Y115.272 E4.46154
G1 X142.547 Y116.289 E4.57504
G1 X142.05 Y116.626 E4.605
G1 X141.664 Y116.966 E4.63066
G1 X141.25 Y117.437 E4.66195
G1 X140.928 Y117.908 E4.69041
G1 X140.026 Y119.727 E4.79171
G1 X138.669 Y121.394 E4.89895
G1 X136.738 Y122.66 E5.01414
G1 X134.832 Y123.403 E5.1162
G1 X132.235 Y123.573 E5.24605
G1 X129.862 Y123.022 E5.36758
G1 X126.736 Y121.219 E5.54762
G1 X124.23 Y121.897 E5.67714
G1 X120.786 Y122.689 E5.85345
G1 X117.558 Y123.225 E6.0167
G1 X113.389 Y123.63 E6.22567
G1 X109.746 Y123.733 E6.40749
G1 X106.583 Y123.629 E6.56538
G1 X102.43 Y123.223 E6.77356
G1 X99.177 Y122.683 E6.93808
G1 X95.55 Y121.831 E7.12395
G1 X93.266 Y121.22 E7.24191
G1 X90.32 Y122.919 E7.41158
G1 X87.969 Y123.595 E7.53362
G1 X85.477 Y123.424 E7.65824
G1 X83.637 Y122.85 E7.7544
G1 X82.801 Y122.441 E7.80083
G1 X81.212 Y121.123 E7.90383
G1 X80.077 Y119.932 E7.98591
G1 X79.057 Y117.893 E8.09965
G1 X78.735 Y117.418 E8.12828
G1 X78.362 Y116.994 E8.15646
G1 X77.916 Y116.602 E8.18608
G1 X77.442 Y116.278 E8.21473
G1 X75.622 Y115.375 E8.31609
G1 X73.955 Y114.018 E8.42333
G1 X72.689 Y112.087 E8.53852
G1 X71.946 Y110.181 E8.64059
G1 X71.794 Y107.893 E8.75499
G1 X72.168 Y105.489 E8.87636
G1 X75.773 Y99.246 E9.23603
G1 X78.102 Y97.278 E9.38815
G0 F7500 X78.305 Y97.631
G1 F1500 X80.569 Y96.819 E9.50815
G1 X81.456 Y96.639 E9.5533
G1 X83.223 Y96.684 E9.64149
G1 X84.951 Y97.091 E9.73005
G1 X85.912 Y97.443 E9.78111
G1 X89.253 Y99.764 E9.98407
G1 X91.821 Y101.292 E10.13315
G1 X94.053 Y102.416 E10.25783
G1 X96.699 Y103.507 E10.40062
G1 X99.211 Y104.346 E10.53275
G1 X101.748 Y104.998 E10.66344
G1 X104.582 Y105.515 E10.80716
G1 X107.297 Y105.811 E10.94341
G1 X110 Y105.907 E11.07835
G1 X112.703 Y105.811 E11.21329
G1 X115.461 Y105.51 E11.3517
G1 X118.277 Y104.996 E11.49452
G1 X120.731 Y104.366 E11.62092
G1 X123.422 Y103.468 E11.76245
G1 X125.857 Y102.458 E11.89397
G1 X128.159 Y101.302 E12.02248
G1 X130.765 Y99.752 E12.17376
G1 X134.108 Y97.433 E12.37674
G1 X134.51 Y97.228 E12.39925
G1 X137.27 Y96.565 E12.54087
G1 X139.816 Y96.914 E12.66907
G1 X140.601 Y97.144 E12.70988
G1 X142.125 Y97.987 E12.79677
G1 X143.926 Y99.52 E12.91477
G1 X147.203 Y105.199 E13.24188
G1 X147.842 Y107.407 E13.35656
G1 X147.679 Y109.799 E13.47617
G1 X147.166 Y111.477 E13.56371
G1 X146.755 Y112.329 E13.61091
G1 X145.498 Y113.847 E13.70924
G1 X144.349 Y114.941 E13.78839
G1 X142.348 Y115.941 E13.89999
G1 X141.805 Y116.309 E13.93272
G1 X141.376 Y116.687 E13.96124
G1 X140.935 Y117.189 E13.99458
G1 X140.583 Y117.704 E14.0257
G1 X139.688 Y119.508 E14.12617
G1 X138.396 Y121.095 E14.22827
G1 X136.557 Y122.301 E14.33798
G1 X134.743 Y123.008 E14.43511
G1 X132.269 Y123.17 E14.55881
G1 X130.008 Y122.645 E14.67461
G1 X126.792 Y120.79 E14.85983
G1 X124.14 Y121.507 E14.99689
G1 X120.72 Y122.294 E15.17198
G1 X117.492 Y122.83 E15.33523
G1 X113.378 Y123.23 E15.54144
G1 X109.759 Y123.333 E15.72207
G1 X106.596 Y123.229 E15.87996
G1 X102.496 Y122.828 E16.08548
G1 X99.243 Y122.288 E16.25
G1 X95.653 Y121.445 E16.43397
G1 X93.209 Y120.791 E16.5602
G1 X90.163 Y122.548 E16.73563
G1 X87.927 Y123.191 E16.85171
G1 X85.551 Y123.028 E16.97052
G1 X83.813 Y122.491 E17.06128
G1 X83.02 Y122.103 E17.10532
G1 X81.502 Y120.847 E17.20362
G1 X80.408 Y119.699 E17.28273
G1 X79.403 Y117.69 E17.3948
G1 X79.055 Y117.177 E17.42573
G1 X78.641 Y116.706 E17.45702
G1 X78.164 Y116.287 E17.48869
G1 X77.646 Y115.933 E17.51999
G1 X75.841 Y115.037 E17.62053
G1 X74.254 Y113.745 E17.72263
G1 X73.048 Y111.906 E17.83234
G1 X72.341 Y110.092 E17.92947
G1 X72.196 Y107.91 E18.03858
G1 X72.552 Y105.624 E18.154
G1 X76.083 Y99.508 E18.50633
G1 X78.305 Y97.631 E18.65144
G0 F7500 X78.509 Y97.983
G1 F1500 X80.649 Y97.211 E18.76494
G1 X81.491 Y97.04 E18.80781
G1 X83.17 Y97.083 E18.8916
G1 X84.813 Y97.467 E18.97578
G1 X85.727 Y97.802 E19.02435
G1 X89.041 Y100.104 E19.22566
G1 X91.621 Y101.639 E19.37543
G1 X93.893 Y102.783 E19.50234
G1 X96.55 Y103.879 E19.64573
G1 X99.098 Y104.73 E19.77976
G1 X101.66 Y105.388 E19.91172
G1 X104.535 Y105.913 E20.05753
G1 X107.267 Y106.21 E20.19463
G1 X110 Y106.307 E20.33107
G1 X112.733 Y106.21 E20.4675
G1 X115.508 Y105.908 E20.60677
G1 X118.362 Y105.387 E20.75151
G1 X120.847 Y104.749 E20.87951
G1 X123.559 Y103.844 E21.02214
G1 X126.028 Y102.82 E21.15549
G1 X128.353 Y101.652 E21.2853
G1 X130.976 Y100.092 E21.43756
G1 X134.29 Y97.789 E21.6389
G1 X134.649 Y97.606 E21.659
G1 X137.291 Y96.971 E21.79457
G1 X139.704 Y97.298 E21.91605
G1 X140.445 Y97.515 E21.95457
G1 X141.896 Y98.318 E22.03731
G1 X143.615 Y99.781 E22.14993
G1 X146.832 Y105.356 E22.47105
G1 X147.438 Y107.45 E22.57981
G1 X147.283 Y109.724 E22.69352
G1 X146.783 Y111.36 E22.77887
G1 X146.416 Y112.111 E22.82057
G1 X145.222 Y113.557 E22.91413
G1 X144.116 Y114.61 E22.99031
G1 X142.145 Y115.595 E23.10024
G1 X141.564 Y115.989 E23.13526
G1 X141.088 Y116.408 E23.1669
G1 X140.62 Y116.941 E23.20229
G1 X140.238 Y117.5 E23.23607
G1 X139.35 Y119.289 E23.33571
G1 X138.123 Y120.796 E23.43267
G1 X136.376 Y121.942 E23.5369
G1 X134.654 Y122.613 E23.62911
G1 X132.303 Y122.767 E23.74665
G1 X130.154 Y122.268 E23.85672
G1 X126.848 Y120.361 E24.04713
G1 X124.05 Y121.117 E24.19172
G1 X120.654 Y121.899 E24.36558
G1 X117.426 Y122.435 E24.52884
G1 X113.367 Y122.83 E24.7323
G1 X109.772 Y122.933 E24.91173
G1 X106.609 Y122.829 E25.06961
G1 X102.562 Y122.433 E25.27248
G1 X99.309 Y121.893 E25.437
G1 X95.756 Y121.059 E25.61907
G1 X93.151 Y120.362 E25.75361
G1 X90.002 Y122.178 E25.93497
G1 X87.885 Y122.787 E26.04487
G1 X85.623 Y122.632 E26.15798
G1 X83.989 Y122.132 E26.24324
G1 X83.238 Y121.765 E26.28494
G1 X81.792 Y120.571 E26.37849
G1 X80.739 Y119.466 E26.45465
G1 X79.751 Y117.491 E26.56482
G1 X79.372 Y116.932 E26.59851
G1 X78.92 Y116.418 E26.63266
G1 X78.412 Y115.972 E26.66639
G1 X77.85 Y115.588 E26.70035
G1 X76.06 Y114.699 E26.80006
G1 X74.553 Y113.472 E26.89701
G1 X73.407 Y111.725 E27.00125
G1 X72.736 Y110.003 E27.09345
G1 X72.598 Y107.927 E27.19725
G1 X72.935 Y105.759 E27.30671
G1 X76.393 Y99.77 E27.65174
G1 X78.509 Y97.983 E27.78991
G0 F7500 X78.713 Y98.335
G1 F1500 X80.729 Y97.603 E27.89692
G1 X81.526 Y97.441 E27.93749
G1 X83.117 Y97.482 E28.01689
G1 X84.722 Y97.857 E28.09912
G1 X85.54 Y98.159 E28.14263
G1 X88.829 Y100.444 E28.34243
G1 X91.421 Y101.986 E28.4929
G1 X93.733 Y103.15 E28.62204
G1 X96.401 Y104.251 E28.76603
G1 X98.985 Y105.114 E28.90195
G1 X101.585 Y105.782 E29.03588
G1 X104.475 Y106.309 E29.18244
G1 X107.237 Y106.609 E29.32104
G1 X110 Y106.707 E29.45898
G1 X112.763 Y106.609 E29.59691
G1 X115.555 Y106.306 E29.73702
G1 X118.447 Y105.778 E29.88369
G1 X120.963 Y105.132 E30.01328
G1 X123.696 Y104.22 E30.15703
G1 X126.193 Y103.184 E30.2919
G1 X128.559 Y101.996 E30.42398
G1 X131.188 Y100.432 E30.5766
G1 X134.472 Y98.145 E30.77625
G1 X134.788 Y97.984 E30.79395
G1 X137.313 Y97.377 E30.92351
G1 X139.592 Y97.682 E31.03822
G1 X140.289 Y97.886 E31.07445
G1 X141.667 Y98.649 E31.15304
G1 X143.304 Y100.042 E31.26028
G1 X146.461 Y105.513 E31.57541
G1 X147.034 Y107.493 E31.67824
G1 X146.887 Y109.649 E31.78606
G1 X146.4 Y111.243 E31.86921
G1 X146.078 Y111.892 E31.90536
G1 X144.946 Y113.267 E31.99421
G1 X143.883 Y114.279 E32.06743
G1 X141.946 Y115.247 E32.17547
G1 X141.319 Y115.672 E32.21326
G1 X140.8 Y116.129 E32.24776
G1 X140.305 Y116.693 E32.2852
G1 X139.893 Y117.296 E32.32163
G1 X139.012 Y119.07 E32.42045
G1 X137.852 Y120.495 E32.51212
G1 X136.191 Y121.584 E32.61121
G1 X134.565 Y122.218 E32.69828
G1 X132.337 Y122.364 E32.80967
G1 X130.3 Y121.891 E32.914
G1 X126.904 Y119.932 E33.1096
G1 X123.96 Y120.727 E33.26174
G1 X120.588 Y121.504 E33.43438
G1 X117.36 Y122.04 E33.59763
G1 X113.355 Y122.43 E33.79838
G1 X109.785 Y122.533 E33.97656
G1 X106.622 Y122.429 E34.13445
G1 X102.628 Y122.038 E34.33467
G1 X99.375 Y121.498 E34.49918
G1 X95.859 Y120.673 E34.67936
G1 X93.094 Y119.933 E34.82216
G1 X89.845 Y121.807 E35.00928
G1 X87.843 Y122.383 E35.11322
G1 X85.699 Y122.236 E35.22043
G1 X84.106 Y121.749 E35.30354
G1 X83.457 Y121.427 E35.33968
G1 X82.082 Y120.295 E35.42854
G1 X81.07 Y119.233 E35.50173
G1 X80.097 Y117.288 E35.61023
G1 X79.692 Y116.691 E35.64622
G1 X79.199 Y116.13 E35.68348
G1 X78.66 Y115.657 E35.71925
G1 X78.054 Y115.243 E35.75587
G1 X76.279 Y114.361 E35.85476
G1 X74.854 Y113.201 E35.94643
G1 X73.765 Y111.54 E36.04552
G1 X73.131 Y109.914 E36.13259
G1 X73 Y107.944 E36.23109
G1 X73.319 Y105.894 E36.33459
G1 X76.703 Y100.032 E36.67228
G1 X78.713 Y98.335 E36.80352
G0 F7500 X78.917 Y98.687
G1 F1500 X80.809 Y97.995 E36.90403
G1 X81.561 Y97.842 E36.94231
G1 X83.064 Y97.881 E37.01733
G1 X84.631 Y98.247 E37.09761
G1 X85.357 Y98.518 E37.13627
G1 X88.624 Y100.788 E37.33474
G1 X91.221 Y102.333 E37.4855
G1 X93.573 Y103.517 E37.61687
G1 X96.252 Y104.623 E37.76147
G1 X98.868 Y105.497 E37.89908
G1 X101.513 Y106.176 E38.03531
G1 X104.415 Y106.705 E38.18248
G1 X107.207 Y107.008 E38.32259
G1 X110 Y107.107 E38.46202
G1 X112.793 Y107.008 E38.60145
G1 X115.602 Y106.704 E38.74241
G1 X118.532 Y106.169 E38.89101
G1 X121.079 Y105.515 E39.0222
G1 X123.833 Y104.596 E39.16705
G1 X126.364 Y103.546 E39.30375
G1 X128.753 Y102.346 E39.43713
G1 X131.406 Y100.768 E39.59114
G1 X134.701 Y98.473 E39.79147
G1 X134.927 Y98.362 E39.80403
G1 X137.333 Y97.784 E39.92748
G1 X139.479 Y98.066 E40.03547
G1 X140.134 Y98.258 E40.06952
G1 X141.438 Y98.98 E40.14388
G1 X142.993 Y100.303 E40.24574
G1 X146.09 Y105.67 E40.55488
G1 X146.63 Y107.536 E40.6518
G1 X146.491 Y109.574 E40.75371
G1 X146.017 Y111.126 E40.83467
G1 X145.741 Y111.673 E40.86524
G1 X144.67 Y112.977 E40.94942
G1 X143.65 Y113.948 E41.01968
G1 X141.743 Y114.901 E41.12604
G1 X141.078 Y115.352 E41.16613
G1 X140.512 Y115.85 E41.20374
G1 X139.993 Y116.441 E41.24298
G1 X139.546 Y117.096 E41.28255
G1 X138.674 Y118.851 E41.38031
G1 X137.579 Y120.196 E41.46684
G1 X136.01 Y121.225 E41.56045
G1 X134.476 Y121.823 E41.64259
G1 X132.371 Y121.961 E41.74784
G1 X130.446 Y121.514 E41.84643
G1 X126.96 Y119.503 E42.04721
G1 X123.87 Y120.337 E42.20689
G1 X120.522 Y121.109 E42.37831
G1 X117.294 Y121.645 E42.54156
G1 X113.343 Y122.03 E42.73961
G1 X109.798 Y122.133 E42.91654
G1 X106.635 Y122.029 E43.07443
G1 X102.694 Y121.643 E43.27199
G1 X99.441 Y121.103 E43.4365
G1 X95.962 Y120.287 E43.61478
G1 X93.037 Y119.504 E43.76585
G1 X89.688 Y121.436 E43.95874
G1 X87.801 Y121.979 E44.0567
G1 X85.775 Y121.84 E44.15802
G1 X84.223 Y121.366 E44.23898
G1 X83.676 Y121.09 E44.26954
G1 X82.372 Y120.019 E44.35373
G1 X81.401 Y119 E44.42395
G1 X80.445 Y117.089 E44.53056
G1 X80.009 Y116.446 E44.56932
G1 X79.478 Y115.842 E44.60944
G1 X78.908 Y115.342 E44.64727
G1 X78.258 Y114.898 E44.68654
G1 X76.498 Y114.023 E44.7846
G1 X75.153 Y112.928 E44.87113
G1 X74.124 Y111.359 E44.96474
G1 X73.526 Y109.825 E45.04688
G1 X73.402 Y107.961 E45.14008
G1 X73.703 Y106.029 E45.23763
G1 X77.013 Y100.294 E45.56799
G1 X78.917 Y98.687 E45.69229
G0 F7500 X79.121 Y99.038
G1 F1500 X80.946 Y98.371 E45.78923
G1 X81.594 Y98.243 E45.82218
G1 X83.011 Y98.28 E45.8929
G1 X84.54 Y98.637 E45.97124
G1 X85.169 Y98.875 E46.00479
G1 X88.409 Y101.126 E46.20161
G1 X91.021 Y102.68 E46.35325
G1 X93.414 Y103.884 E46.48689
G1 X96.103 Y104.995 E46.63205
G1 X98.752 Y105.88 E46.77139
G1 X101.441 Y106.57 E46.90989
G1 X104.355 Y107.101 E47.05766
G1 X107.177 Y107.407 E47.19928
G1 X110 Y107.507 E47.34021
G1 X112.823 Y107.407 E47.48113
G1 X115.649 Y107.102 E47.62294
G1 X118.617 Y106.56 E47.77347
G1 X121.195 Y105.898 E47.90626
G1 X123.97 Y104.972 E48.05221
G1 X126.529 Y103.91 E48.19043
G1 X128.959 Y102.69 E48.32609
G1 X131.618 Y101.108 E48.48045
G1 X134.93 Y98.801 E48.68182
G1 X135.065 Y98.74 E48.68921
G1 X137.354 Y98.19 E48.80666
G1 X139.366 Y98.45 E48.90787
G1 X139.979 Y98.63 E48.93975
G1 X141.209 Y99.311 E49.00989
G1 X142.682 Y100.564 E49.10637
G1 X145.719 Y105.827 E49.40952
G1 X146.226 Y107.579 E49.50052
G1 X146.095 Y109.499 E49.59653
G1 X145.634 Y111.009 E49.67529
G1 X145.403 Y111.455 E49.70035
G1 X144.394 Y112.687 E49.7798
G1 X143.417 Y113.617 E49.8471
G1 X141.544 Y114.553 E49.95156
G1 X140.833 Y115.035 E49.99441
G1 X140.224 Y115.571 E50.03489
G1 X139.677 Y116.194 E50.07625
G1 X139.202 Y116.891 E50.11833
G1 X138.335 Y118.634 E50.21545
G1 X137.308 Y119.896 E50.29663
G1 X135.829 Y120.866 E50.38487
G1 X134.387 Y121.428 E50.46208
G1 X132.405 Y121.558 E50.56118
G1 X130.592 Y121.137 E50.65403
G1 X127.016 Y119.074 E50.86
G1 X123.78 Y119.947 E51.02722
G1 X120.456 Y120.714 E51.19741
G1 X117.228 Y121.25 E51.36066
G1 X113.331 Y121.63 E51.55601
G1 X109.811 Y121.733 E51.73169
G1 X106.648 Y121.629 E51.88958
G1 X102.76 Y121.248 E52.08448
G1 X99.507 Y120.708 E52.249
G1 X96.065 Y119.901 E52.42538
G1 X92.98 Y119.075 E52.58471
G1 X89.53 Y121.066 E52.78344
G1 X87.759 Y121.575 E52.87537
G1 X85.85 Y121.444 E52.97083
G1 X84.34 Y120.983 E53.0496
G1 X83.894 Y120.752 E53.07466
G1 X82.662 Y119.743 E53.15411
G1 X81.732 Y118.767 E53.22137
G1 X80.793 Y116.89 E53.32607
G1 X80.326 Y116.201 E53.3676
G1 X79.757 Y115.554 E53.41059
G1 X79.16 Y115.03 E53.45022
G1 X78.458 Y114.551 E53.49261
G1 X76.715 Y113.684 E53.58974
G1 X75.453 Y112.657 E53.67091
G1 X74.483 Y111.178 E53.75915
G1 X73.921 Y109.736 E53.83637
G1 X73.804 Y107.978 E53.92427
G1 X74.086 Y106.164 E54.01586
G1 X77.323 Y100.556 E54.3389
G1 X79.121 Y99.038 E54.4563
G0 F7500 X79.325 Y99.389
G1 F1500 X81.083 Y98.747 E54.54967
G1 X81.627 Y98.644 E54.57729
G1 X82.958 Y98.679 E54.64372
G1 X84.449 Y99.027 E54.72011
G1 X84.978 Y99.23 E54.74838
G1 X88.188 Y101.46 E54.94338
G1 X90.829 Y103.031 E55.09668
G1 X93.254 Y104.251 E55.23212
G1 X95.954 Y105.367 E55.37787
G1 X98.636 Y106.263 E55.51895
G1 X101.369 Y106.964 E55.65971
G1 X104.295 Y107.497 E55.80809
G1 X107.147 Y107.806 E55.95121
G1 X110 Y107.907 E56.09364
G1 X112.853 Y107.806 E56.23606
G1 X115.709 Y107.498 E56.37938
G1 X118.692 Y106.954 E56.53065
G1 X121.308 Y106.282 E56.6654
G1 X124.107 Y105.348 E56.81262
G1 X126.7 Y104.272 E56.95268
G1 X129.159 Y103.037 E57.08996
G1 X131.83 Y101.448 E57.24501
G1 X135.159 Y99.129 E57.44742
G1 X137.376 Y98.596 E57.56118
G1 X139.253 Y98.834 E57.65558
G1 X139.824 Y99.002 E57.68527
G1 X140.98 Y99.642 E57.75119
G1 X142.371 Y100.825 E57.84229
G1 X145.348 Y105.984 E58.13946
G1 X145.822 Y107.622 E58.22453
G1 X145.699 Y109.424 E58.31464
G1 X145.251 Y110.892 E58.39121
G1 X145.069 Y111.231 E58.41041
G1 X144.118 Y112.397 E58.48548
G1 X143.184 Y113.286 E58.54981
G1 X141.341 Y114.207 E58.6526
G1 X140.592 Y114.715 E58.69775
G1 X139.941 Y115.288 E58.74102
G1 X139.357 Y115.952 E58.78513
G1 X138.858 Y116.686 E58.82941
G1 X137.996 Y118.417 E58.92589
G1 X137.037 Y119.596 E59.00171
G1 X135.648 Y120.507 E59.08458
G1 X134.298 Y121.033 E59.15687
G1 X132.439 Y121.155 E59.24981
G1 X130.738 Y120.76 E59.33693
G1 X127.072 Y118.645 E59.54809
