;FLAVOR:Marlin
;TIME:1186
;Filament used: 1.38952m
;Layer height: 0.4
;MINX:95.746
;MINY:88.848
;MINZ:0.3
;MAXX:124.293
;MAXY:131.162
;MAXZ:27.9
;Generated with Cura_SteamEngine 5.4.0
M140 S98
M105
M190 S98
M104 S240
M105
M109 S240
M82 ;absolute extrusion mode
G28 ;Home
G1 Z15.0 F2000 ;Move the platform
G92 E0
G92 E0
G1 F1500 E-6.5
;LAYER_COUNT:70
;LAYER:0
M107
M204 S1000
G0 F7500 X97.998 Y94.92 Z0.3
;TYPE:SKIRT
G1 F1500 E0
G1 X99.343 Y93.635 E0.0928
G1 X100.28 Y92.991 E0.14953
G1 X101.896 Y92.192 E0.23947
G1 X110.246 Y89.157 E0.68271
G1 X112.388 Y88.848 E0.79069
G1 X114.471 Y89.271 E0.89673
G1 X115.915 Y89.763 E0.97284
G1 X116.657 Y90.262 E1.01745
G1 X117.733 Y91.192 E1.0884
G1 X119.052 Y92.65 E1.18649
G1 X120.439 Y94.506 E1.30209
G1 X121.336 Y95.955 E1.38711
G1 X122.479 Y98.223 E1.51382
G1 X123.073 Y99.712 E1.5938
G1 X123.802 Y102.168 E1.72161
G1 X124.293 Y104.447 E1.83792
G1 X124.057 Y106.554 E1.94369
G1 X123.74 Y107.925 E2.0139
G1 X112.159 Y127.981 E3.16933
G1 X110.718 Y129.46 E3.27235
G1 X109.366 Y130.275 E3.35111
G1 X108.156 Y130.826 E3.41744
G1 X105.936 Y131.162 E3.52946
G1 X104.414 Y130.983 E3.60591
G1 X104.12 Y130.968 E3.6206
G1 X102.816 Y130.993 E3.68567
G1 X100.857 Y130.535 E3.78604
G1 X98.801 Y129.497 E3.90095
G1 X97.323 Y127.906 E4.00929
G1 X96.186 Y126.039 E4.11835
G1 X95.746 Y123.809 E4.23175
G1 X95.814 Y99.999 E5.41964
G1 X96.112 Y98.44 E5.49882
G1 X96.475 Y97.397 E5.55392
G1 X97.052 Y96.177 E5.62125
G1 X97.998 Y94.92 E5.69974
G0 F7500 X98.318 Y95.161
G1 F1500 X99.57 Y93.965 E5.78612
G1 X100.507 Y93.321 E5.84284
G1 X102.033 Y92.568 E5.92774
G1 X110.344 Y89.547 E6.36892
G1 X112.377 Y89.254 E6.4714
G1 X114.342 Y89.65 E6.5714
G1 X115.739 Y90.126 E6.64503
G1 X116.395 Y90.565 E6.68441
G1 X117.471 Y91.495 E6.75537
G1 X118.755 Y92.918 E6.85099
G1 X120.099 Y94.717 E6.96302
G1 X120.979 Y96.135 E7.04628
G1 X122.107 Y98.371 E7.17123
G1 X122.701 Y99.86 E7.25121
G1 X123.411 Y102.252 E7.37569
G1 X123.888 Y104.466 E7.48868
G1 X123.667 Y106.464 E7.58897
G1 X123.363 Y107.779 E7.65631
G1 X111.838 Y127.738 E8.80615
G1 X110.469 Y129.143 E8.90402
G1 X109.16 Y129.932 E8.98027
G1 X108.041 Y130.439 E9.04156
G1 X105.93 Y130.759 E9.14808
G1 X104.452 Y130.585 E9.22233
G1 X104.118 Y130.568 E9.23902
G1 X102.856 Y130.592 E9.30199
G1 X100.996 Y130.157 E9.39729
G1 X99.045 Y129.172 E9.50633
G1 X97.645 Y127.665 E9.60895
G1 X96.564 Y125.89 E9.71263
G1 X96.146 Y123.773 E9.82029
G1 X96.214 Y100.037 E11.00449
G1 X96.49 Y98.571 E11.07891
G1 X96.837 Y97.568 E11.13186
G1 X97.396 Y96.386 E11.19709
G1 X98.318 Y95.161 E11.27359
G0 F7500 X98.638 Y95.402
G1 F1500 X99.797 Y94.295 E11.35355
G1 X100.734 Y93.651 E11.41027
G1 X102.17 Y92.944 E11.49012
G1 X110.442 Y89.937 E11.92924
G1 X112.367 Y89.66 E12.02627
G1 X114.213 Y90.029 E12.12019
G1 X115.563 Y90.489 E12.19134
G1 X116.133 Y90.868 E12.22549
G1 X117.209 Y91.798 E12.29644
G1 X118.458 Y93.186 E12.3896
G1 X119.759 Y94.928 E12.49807
G1 X120.622 Y96.315 E12.57957
G1 X121.735 Y98.519 E12.70275
G1 X122.329 Y100.008 E12.78273
G1 X123.02 Y102.336 E12.90389
G1 X123.483 Y104.485 E13.01356
G1 X123.277 Y106.374 E13.10836
G1 X122.986 Y107.633 E13.17283
G1 X111.517 Y127.495 E14.31709
G1 X110.222 Y128.824 E14.40966
G1 X108.953 Y129.589 E14.48359
G1 X107.924 Y130.053 E14.5399
G1 X105.924 Y130.356 E14.64082
G1 X104.49 Y130.187 E14.71286
G1 X104.116 Y130.168 E14.73154
G1 X102.896 Y130.191 E14.79242
G1 X101.135 Y129.779 E14.88265
G1 X99.289 Y128.847 E14.98582
G1 X97.967 Y127.424 E15.08272
G1 X96.942 Y125.741 E15.18103
G1 X96.546 Y123.736 E15.28299
G1 X96.614 Y100.073 E16.46355
G1 X96.868 Y98.701 E16.53316
G1 X97.199 Y97.739 E16.58392
G1 X97.74 Y96.595 E16.64705
G1 X98.638 Y95.402 E16.72155
G0 F7500 X98.958 Y95.643
G1 F1500 X100.024 Y94.625 E16.79509
G1 X100.961 Y93.981 E16.85181
G1 X102.307 Y93.32 E16.92662
G1 X110.54 Y90.327 E17.36367
G1 X112.357 Y90.066 E17.45525
G1 X114.084 Y90.408 E17.54308
G1 X115.386 Y90.852 E17.61171
G1 X115.871 Y91.171 E17.64068
G1 X116.947 Y92.101 E17.71163
G1 X118.16 Y93.453 E17.80225
G1 X119.42 Y95.14 E17.9073
G1 X120.265 Y96.495 E17.98697
G1 X121.363 Y98.667 E18.10839
G1 X121.957 Y100.156 E18.18837
G1 X122.629 Y102.42 E18.30619
G1 X123.078 Y104.505 E18.4126
G1 X122.887 Y106.284 E18.50186
G1 X122.609 Y107.487 E18.56346
G1 X111.196 Y127.252 E19.70213
G1 X109.975 Y128.505 E19.78941
G1 X108.746 Y129.246 E19.86101
G1 X107.808 Y129.667 E19.91231
G1 X105.918 Y129.953 E20.00767
G1 X104.528 Y129.789 E20.0775
G1 X104.114 Y129.768 E20.09818
G1 X102.936 Y129.79 E20.15696
G1 X101.274 Y129.401 E20.24212
G1 X99.533 Y128.522 E20.33942
G1 X98.289 Y127.183 E20.43061
G1 X97.32 Y125.592 E20.52354
G1 X96.946 Y123.699 E20.61981
G1 X97.008 Y100.145 E21.79493
G1 X97.247 Y98.83 E21.86161
G1 X97.561 Y97.91 E21.91011
G1 X98.084 Y96.804 E21.97115
G1 X98.958 Y95.643 E22.04365
G0 F7500 X99.278 Y95.884
G1 F1500 X100.252 Y94.954 E22.11083
G1 X101.138 Y94.34 E22.16461
G1 X102.444 Y93.696 E22.23726
G1 X110.638 Y90.717 E22.67224
G1 X112.348 Y90.471 E22.75843
G1 X113.955 Y90.787 E22.84014
G1 X115.211 Y91.215 E22.90634
G1 X115.609 Y91.474 E22.93003
G1 X116.685 Y92.404 E23.00098
G1 X117.862 Y93.72 E23.08907
G1 X119.081 Y95.352 E23.19069
G1 X119.908 Y96.676 E23.26858
G1 X120.991 Y98.815 E23.38819
G1 X121.585 Y100.304 E23.46817
G1 X122.238 Y102.504 E23.58266
G1 X122.673 Y104.525 E23.6858
G1 X122.497 Y106.194 E23.76953
G1 X122.232 Y107.341 E23.82826
G1 X110.875 Y127.009 E24.96134
G1 X109.728 Y128.186 E25.04333
G1 X108.539 Y128.903 E25.1126
G1 X107.697 Y129.279 E25.15861
G1 X105.909 Y129.549 E25.24882
G1 X104.566 Y129.391 E25.31629
G1 X104.112 Y129.368 E25.33897
G1 X102.976 Y129.389 E25.39565
G1 X101.413 Y129.023 E25.47574
G1 X99.777 Y128.197 E25.56717
G1 X98.611 Y126.942 E25.65264
G1 X97.698 Y125.443 E25.7402
G1 X97.346 Y123.662 E25.83077
G1 X97.402 Y100.215 E27.00055
G1 X97.626 Y98.958 E27.06425
G1 X97.923 Y98.081 E27.11045
G1 X98.428 Y97.013 E27.16939
G1 X99.278 Y95.884 E27.23989
G0 F7500 X99.598 Y96.125
G1 F1500 X100.48 Y95.283 E27.30073
G1 X101.366 Y94.669 E27.35451
G1 X102.581 Y94.072 E27.42205
G1 X110.736 Y91.107 E27.85496
G1 X112.337 Y90.877 E27.93565
G1 X113.826 Y91.166 E28.01132
G1 X115.034 Y91.578 E28.075
G1 X115.347 Y91.777 E28.0935
G1 X116.423 Y92.707 E28.16446
G1 X117.542 Y93.96 E28.24827
G1 X118.742 Y95.564 E28.34821
G1 X119.551 Y96.857 E28.42431
G1 X120.619 Y98.963 E28.54211
G1 X121.213 Y100.452 E28.62209
G1 X121.847 Y102.588 E28.73325
G1 X122.268 Y104.546 E28.83317
G1 X122.107 Y106.104 E28.91131
G1 X121.855 Y107.195 E28.96718
G1 X110.554 Y126.766 E30.09467
G1 X109.481 Y127.867 E30.17137
G1 X108.332 Y128.56 E30.23831
G1 X107.581 Y128.892 E30.27928
G1 X105.903 Y129.146 E30.36395
G1 X104.604 Y128.993 E30.4292
G1 X104.11 Y128.968 E30.45388
G1 X103.016 Y128.988 E30.50847
G1 X101.552 Y128.645 E30.58349
G1 X100.021 Y127.872 E30.66905
G1 X98.933 Y126.701 E30.7488
G1 X98.076 Y125.294 E30.83099
G1 X97.746 Y123.625 E30.91587
G1 X97.796 Y100.284 E32.08036
G1 X98.005 Y99.085 E32.14108
G1 X98.285 Y98.252 E32.18492
G1 X98.772 Y97.222 E32.24176
G1 X99.598 Y96.125 E32.31027
G0 F7500 X99.918 Y96.366
G1 F1500 X100.708 Y95.612 E32.36476
G1 X101.594 Y94.998 E32.41854
G1 X102.718 Y94.448 E32.48097
G1 X110.834 Y91.497 E32.91181
G1 X112.327 Y91.283 E32.98706
G1 X113.697 Y91.545 E33.05665
G1 X114.863 Y91.943 E33.11811
G1 X115.085 Y92.08 E33.13113
G1 X116.161 Y93.01 E33.20208
G1 X117.222 Y94.2 E33.28162
G1 X118.403 Y95.777 E33.37992
G1 X119.194 Y97.038 E33.45418
G1 X120.247 Y99.111 E33.57018
G1 X120.841 Y100.6 E33.65016
G1 X121.456 Y102.672 E33.75799
G1 X121.864 Y104.568 E33.85475
G1 X121.717 Y106.014 E33.92726
G1 X121.478 Y107.049 E33.98026
G1 X110.233 Y126.523 E35.10216
G1 X109.231 Y127.551 E35.17378
G1 X108.17 Y128.194 E35.23568
G1 X107.469 Y128.504 E35.27392
G1 X105.894 Y128.742 E35.35338
G1 X104.642 Y128.595 E35.41628
G1 X104.108 Y128.568 E35.44295
G1 X103.056 Y128.587 E35.49544
G1 X101.691 Y128.267 E35.56539
G1 X100.265 Y127.547 E35.64509
G1 X99.255 Y126.46 E35.71912
G1 X98.454 Y125.145 E35.79593
G1 X98.146 Y123.588 E35.87512
G1 X98.19 Y100.351 E37.03442
G1 X98.385 Y99.211 E37.09212
G1 X98.647 Y98.423 E37.13355
G1 X99.116 Y97.431 E37.18829
G1 X99.918 Y96.366 E37.25481
G0 F7500 X100.238 Y96.607
G1 F1500 X100.937 Y95.94 E37.30301
G1 X101.77 Y95.357 E37.35374
G1 X102.855 Y94.824 E37.41405
G1 X110.932 Y91.887 E37.84282
G1 X112.318 Y91.688 E37.91268
G1 X113.568 Y91.924 E37.97614
G1 X114.691 Y92.307 E38.03534
G1 X114.823 Y92.383 E38.04294
G1 X115.899 Y93.313 E38.11389
G1 X116.902 Y94.44 E38.18916
G1 X118.064 Y95.99 E38.28581
G1 X118.837 Y97.219 E38.35824
G1 X119.875 Y99.259 E38.47244
G1 X120.469 Y100.748 E38.55242
G1 X121.065 Y102.756 E38.65692
G1 X121.46 Y104.59 E38.75051
G1 X121.327 Y105.924 E38.8174
G1 X121.101 Y106.903 E38.86752
G1 X109.912 Y126.28 E39.98384
G1 X108.982 Y127.234 E40.05031
G1 X108.008 Y127.828 E40.10722
G1 X107.354 Y128.117 E40.1429
G1 X105.888 Y128.339 E40.21687
G1 X104.68 Y128.197 E40.27755
G1 X104.106 Y128.168 E40.30623
G1 X103.096 Y128.186 E40.35662
G1 X101.83 Y127.889 E40.4215
G1 X100.509 Y127.222 E40.49533
G1 X99.577 Y126.219 E40.56364
G1 X98.832 Y124.996 E40.63508
G1 X98.546 Y123.551 E40.70857
G1 X98.585 Y100.417 E41.86273
G1 X98.765 Y99.336 E41.91741
G1 X99.009 Y98.594 E41.95637
G1 X99.46 Y97.64 E42.00902
G1 X100.238 Y96.607 E42.07354
G0 F7500 X100.515 Y96.895
G1 F1500 X101.168 Y96.267 E42.11874
G1 X101.947 Y95.716 E42.16634
G1 X102.992 Y95.2 E42.22449
G1 X111.03 Y92.277 E42.6512
G1 X112.31 Y92.093 E42.71571
G1 X113.439 Y92.303 E42.773
G1 X114.562 Y92.686 E42.8322
G1 X115.6 Y93.579 E42.90051
G1 X116.582 Y94.68 E42.97412
G1 X117.725 Y96.203 E43.06912
G1 X118.498 Y97.432 E43.14155
G1 X119.503 Y99.407 E43.25211
G1 X120.097 Y100.896 E43.33209
G1 X120.674 Y102.84 E43.43326
G1 X121.056 Y104.613 E43.52374
G1 X120.937 Y105.834 E43.58495
G1 X120.724 Y106.757 E43.6322
G1 X109.591 Y126.037 E44.74293
G1 X108.734 Y126.916 E44.80418
G1 X107.846 Y127.462 E44.85619
G1 X107.242 Y127.729 E44.88913
G1 X105.878 Y127.935 E44.95796
G1 X104.716 Y127.799 E45.01632
G1 X104.104 Y127.768 E45.0469
G1 X103.137 Y127.785 E45.09515
G1 X101.969 Y127.511 E45.155
G1 X100.753 Y126.897 E45.22296
G1 X99.899 Y125.978 E45.28555
G1 X99.21 Y124.847 E45.35162
G1 X98.946 Y123.514 E45.41942
G1 X98.985 Y100.418 E46.57169
G1 X99.146 Y99.459 E46.6202
G1 X99.371 Y98.765 E46.6566
G1 X99.806 Y97.844 E46.70741
G1 X100.515 Y96.895 E46.76651
G0 F7500 X100.794 Y97.182
G1 F1500 X101.399 Y96.594 E46.8086
G1 X102.178 Y96.043 E46.85621
G1 X103.129 Y95.576 E46.90907
G1 X111.128 Y92.667 E47.33371
G1 X112.303 Y92.498 E47.39293
G1 X113.31 Y92.682 E47.444
G1 X114.36 Y93.04 E47.49935
G1 X115.302 Y93.846 E47.5612
G1 X116.262 Y94.92 E47.63307
G1 X117.386 Y96.416 E47.72642
G1 X118.159 Y97.645 E47.79886
G1 X119.131 Y99.555 E47.90578
G1 X119.725 Y101.044 E47.98576
G1 X120.283 Y102.924 E48.08359
G1 X120.652 Y104.636 E48.17097
G1 X120.539 Y105.795 E48.22907
G1 X120.348 Y106.608 E48.27073
G1 X109.27 Y125.794 E49.37603
G1 X108.484 Y126.6 E49.43219
G1 X107.684 Y127.096 E49.47915
G1 X107.127 Y127.342 E49.50953
G1 X105.872 Y127.532 E49.57286
G1 X104.752 Y127.401 E49.62912
G1 X104.102 Y127.368 E49.66159
G1 X103.178 Y127.384 E49.70769
G1 X102.108 Y127.133 E49.76252
G1 X100.997 Y126.572 E49.82462
G1 X100.221 Y125.737 E49.88149
G1 X99.588 Y124.698 E49.94219
G1 X99.346 Y123.477 E50.00429
G1 X99.38 Y100.482 E51.15151
G1 X99.527 Y99.581 E51.19706
G1 X99.733 Y98.936 E51.23084
G1 X100.152 Y98.048 E51.27983
G1 X100.794 Y97.182 E51.33361
G0 F7500 X101.075 Y97.467
G1 F1500 X101.63 Y96.921 E51.37245
G1 X102.409 Y96.37 E51.42005
G1 X103.266 Y95.952 E51.46762
G1 X111.226 Y93.057 E51.8902
G1 X112.295 Y92.903 E51.94408
G1 X113.181 Y93.061 E51.98898
G1 X114.159 Y93.394 E52.04053
G1 X115.004 Y94.113 E52.09588
G1 X115.942 Y95.161 E52.16605
G1 X117.047 Y96.629 E52.25772
G1 X117.82 Y97.858 E52.33015
G1 X118.759 Y99.703 E52.43343
G1 X119.353 Y101.192 E52.51341
G1 X119.892 Y103.008 E52.60792
G1 X120.248 Y104.66 E52.69223
G1 X120.15 Y105.704 E52.74455
G1 X119.973 Y106.459 E52.78323
G1 X108.949 Y125.551 E53.88312
G1 X108.233 Y126.285 E53.93428
G1 X107.523 Y126.73 E53.97608
G1 X107.013 Y126.955 E54.00389
G1 X105.866 Y127.129 E54.06177
G1 X104.79 Y127.003 E54.11582
G1 X104.1 Y126.968 E54.15029
G1 X103.219 Y126.983 E54.19425
G1 X102.247 Y126.755 E54.24406
G1 X101.241 Y126.247 E54.30028
G1 X100.543 Y125.496 E54.35143
G1 X99.966 Y124.549 E54.40676
G1 X99.746 Y123.44 E54.46317
G1 X99.775 Y100.545 E55.6054
G1 X99.909 Y99.701 E55.64804
G1 X100.095 Y99.107 E55.67909
G1 X100.498 Y98.252 E55.72625
G1 X101.075 Y97.467 E55.77485
G0 F7500 X101.397 Y97.704
G1 F1500 X101.863 Y97.246 E55.80745
G1 X102.585 Y96.729 E55.85175
G1 X103.403 Y96.328 E55.89721
G1 X111.324 Y93.447 E56.31771
G1 X112.289 Y93.308 E56.36635
G1 X113.052 Y93.44 E56.40499
G1 X113.96 Y93.749 E56.45284
G1 X114.706 Y94.38 E56.50158
G1 X115.623 Y95.402 E56.57009
G1 X116.708 Y96.842 E56.66004
G1 X117.481 Y98.071 E56.73247
G1 X118.387 Y99.851 E56.83212
G1 X118.981 Y101.34 E56.9121
G1 X119.501 Y103.092 E57.00328
G1 X119.844 Y104.685 E57.08457
G1 X119.761 Y105.613 E57.13106
G1 X119.598 Y106.31 E57.16677
G1 X108.628 Y125.308 E58.26125
G1 X107.981 Y125.971 E58.30746
G1 X107.311 Y126.391 E58.34691
G1 X106.9 Y126.568 E58.36924
G1 X105.86 Y126.726 E58.42172
G1 X104.826 Y126.605 E58.47366
G1 X104.099 Y126.568 E58.50998
G1 X103.26 Y126.582 E58.55184
G1 X102.386 Y126.377 E58.59663
G1 X101.485 Y125.922 E58.64699
G1 X100.865 Y125.255 E58.69242
G1 X100.344 Y124.4 E58.74237
G1 X100.146 Y123.403 E58.79308
G1 X100.17 Y100.606 E59.93043
G1 X100.292 Y99.818 E59.97021
G1 X100.457 Y99.278 E59.99838
G1 X100.845 Y98.455 E60.04378
G1 X101.397 Y97.704 E60.09028
G0 F7500 X101.68 Y97.987
G1 F1500 X102.098 Y97.57 E60.11973
G1 X102.762 Y97.088 E60.16067
G1 X103.54 Y96.704 E60.20395
G1 X111.422 Y93.837 E60.62239
G1 X112.283 Y93.713 E60.66579
G1 X112.923 Y93.819 E60.69816
G1 X113.759 Y94.104 E60.74222
G1 X114.409 Y94.648 E60.78451
G1 X115.304 Y95.643 E60.85128
G1 X116.369 Y97.055 E60.93951
G1 X117.142 Y98.284 E61.01195
G1 X118.015 Y99.999 E61.10796
G1 X118.609 Y101.488 E61.18794
G1 X119.11 Y103.176 E61.27578
G1 X119.44 Y104.708 E61.35397
G1 X119.371 Y105.522 E61.39472
G1 X119.221 Y106.164 E61.42762
G1 X108.307 Y125.065 E62.51651
G1 X107.729 Y125.657 E62.55778
G1 X107.153 Y126.024 E62.59186
G1 X106.789 Y126.181 E62.61164
G1 X105.854 Y126.323 E62.65882
G1 X104.864 Y126.207 E62.70855
G1 X104.098 Y126.168 E62.74681
G1 X103.301 Y126.181 E62.78658
G1 X102.525 Y125.999 E62.82635
G1 X101.729 Y125.597 E62.87083
G1 X101.187 Y125.014 E62.91055
G1 X100.722 Y124.251 E62.95513
G1 X100.546 Y123.365 E63.00019
G1 X100.566 Y100.665 E64.1327
G1 X100.676 Y99.932 E64.16968
G1 X100.819 Y99.449 E64.19481
G1 X101.191 Y98.66 E64.23833
G1 X101.68 Y97.987 E64.27983
G0 F7500 X102.004 Y98.222
G1 F1500 X102.333 Y97.894 E64.30301
G1 X102.997 Y97.412 E64.34395
G1 X103.677 Y97.08 E64.3817
G1 X111.52 Y94.227 E64.79807
G1 X112.28 Y94.118 E64.83638
G1 X112.794 Y94.198 E64.86233
G1 X113.559 Y94.459 E64.90266
G1 X114.152 Y94.955 E64.94122
G1 X114.985 Y95.884 E65.00348
G1 X116.03 Y97.268 E65.09
G1 X116.803 Y98.497 E65.16243
G1 X117.643 Y100.147 E65.2548
G1 X118.237 Y101.636 E65.33478
G1 X118.719 Y103.26 E65.4193
G1 X119.036 Y104.732 E65.49442
G1 X118.972 Y105.488 E65.53227
G1 X118.844 Y106.017 E65.55943
G1 X107.986 Y124.822 E66.64277
G1 X107.479 Y125.342 E66.679
G1 X106.938 Y125.686 E66.71099
G1 X106.678 Y125.794 E66.72504
G1 X105.848 Y125.92 E66.76692
G1 X104.902 Y125.809 E66.81444
G1 X104.097 Y125.768 E66.85465
G1 X103.342 Y125.78 E66.89232
G1 X102.664 Y125.621 E66.92707
G1 X101.973 Y125.272 E66.96569
G1 X101.509 Y124.773 E66.99968
G1 X101.1 Y124.102 E67.03889
G1 X100.946 Y123.327 E67.07831
G1 X100.966 Y100.665 E68.20892
G1 X101.06 Y100.046 E68.24016
G1 X101.203 Y99.563 E68.26529
G1 X101.536 Y98.866 E68.30383
G1 X102.004 Y98.222 E68.34354
G0 F7500 X102.29 Y98.502
G1 F1500 X102.568 Y98.218 E68.36337
G1 X103.232 Y97.736 E68.40431
G1 X103.814 Y97.456 E68.43653
G1 X111.618 Y94.617 E68.85083
G1 X112.278 Y94.522 E68.8841
G1 X112.732 Y94.593 E68.90703
G1 X113.357 Y94.812 E68.94007
G1 X113.895 Y95.262 E68.97506
