;FLAVOR:Marlin
;TIME:8953
;Filament used: 10.8484m
;Layer height: 0.4
;MINX:40.626
;MINY:68.559
;MINZ:0.3
;MAXX:179.339
;MAXY:151.452
;MAXZ:15.9
;Generated with Cura_SteamEngine 5.4.0
M140 S98
M105
M190 S98
M104 S240
M105
M109 S240
M82 ;absolute extrusion mode
G28 ;Home
G1 Z15.0 F2000 ;Move the platform
G92 E0
G92 E0
G1 F1500 E-6.5
;LAYER_COUNT:40
;LAYER:0
M107
M204 S1000
G0 F7500 X59.987 Y99.502 Z0.3
;TYPE:SKIRT
G1 F1500 E0
G1 X93.125 Y74.079 E2.08375
G1 X96.664 Y71.838 E2.29273
G1 X99.459 Y70.541 E2.44646
G1 X104.357 Y69.089 E2.70133
G1 X108.144 Y68.581 E2.89196
G1 X111.447 Y68.559 E3.05675
G1 X116.183 Y69.207 E3.29523
G1 X120.417 Y70.502 E3.51612
G1 X124.124 Y72.281 E3.72126
G1 X127.052 Y74.2 E3.89592
G1 X160.271 Y99.716 E5.9857
G1 X162.646 Y101.882 E6.14606
G1 X176.95 Y117.044 E7.186
G1 X177.702 Y118.062 E7.24914
G1 X178.549 Y119.612 E7.33726
G1 X179.109 Y121.358 E7.42874
G1 X179.339 Y122.919 E7.50746
G1 X179.298 Y124.939 E7.60826
G1 X179.088 Y126.105 E7.66737
G1 X178.636 Y127.496 E7.74034
G1 X177.927 Y128.926 E7.81997
G1 X177.099 Y130.139 E7.89324
G1 X170.128 Y138.521 E8.43714
G1 X169.19 Y139.033 E8.49045
G1 X168.614 Y140.336 E8.56153
G1 X162.081 Y148.147 E9.06956
G1 X161.058 Y149.101 E9.13934
G1 X159.35 Y150.248 E9.24199
G1 X158.482 Y150.659 E9.2899
G1 X156.773 Y151.189 E9.37917
G1 X155.188 Y151.452 E9.45933
G1 X153.633 Y151.387 E9.53697
G1 X151.83 Y151.055 E9.62844
G1 X150.474 Y150.586 E9.70002
G1 X149.863 Y150.297 E9.73374
G1 X132.191 Y139.948 E10.75546
G1 X131.498 Y139.521 E10.79607
G1 X127.881 Y137.363 E11.0062
G1 X124.621 Y135.831 E11.1859
G1 X121.051 Y134.564 E11.3749
G1 X117.479 Y133.664 E11.55867
G1 X113.787 Y133.123 E11.74484
G1 X109.998 Y132.942 E11.93408
G1 X106.214 Y133.122 E12.12308
G1 X102.517 Y133.664 E12.3095
G1 X98.951 Y134.562 E12.49296
G1 X95.379 Y135.831 E12.68208
G1 X91.964 Y137.439 E12.8704
G1 X88.524 Y139.494 E13.07031
G1 X87.632 Y140.046 E13.12265
G1 X70.256 Y150.223 E14.12728
G1 X68.556 Y150.949 E14.21951
G1 X67.826 Y151.15 E14.25728
G1 X65.243 Y151.441 E14.38696
G1 X64.657 Y151.412 E14.41623
G1 X62.32 Y150.948 E14.5351
G1 X60.904 Y150.378 E14.61126
G1 X59.975 Y149.856 E14.66442
G1 X58.549 Y148.773 E14.75376
G1 X57.873 Y148.105 E14.80117
G1 X51.232 Y140.144 E15.3184
G1 X50.919 Y139.246 E15.36584
G1 X50.661 Y139.096 E15.38073
G1 X49.044 Y137.537 E15.49279
G1 X42.917 Y130.167 E15.97095
G1 X41.732 Y128.297 E16.0814
G1 X41.135 Y126.872 E16.15848
G1 X40.837 Y125.751 E16.21635
G1 X40.626 Y123.446 E16.33182
G1 X40.748 Y122.058 E16.40134
G1 X41.046 Y120.626 E16.47431
G1 X41.893 Y118.741 E16.57741
G1 X42.608 Y117.608 E16.64425
G1 X43.391 Y116.642 E16.70629
G1 X57.322 Y101.911 E17.71781
G1 X59.987 Y99.502 E17.89704
G0 F7500 X60.255 Y99.799
G1 F1500 X93.339 Y74.417 E19.97741
G1 X96.833 Y72.201 E20.18383
G1 X99.573 Y70.925 E20.33462
G1 X104.471 Y69.473 E20.58949
G1 X108.147 Y68.981 E20.77453
G1 X111.45 Y68.959 E20.93932
G1 X116.128 Y69.603 E21.17491
G1 X120.244 Y70.863 E21.38966
G1 X123.905 Y72.616 E21.59217
G1 X126.833 Y74.535 E21.76682
G1 X160.001 Y100.012 E23.8534
G1 X162.376 Y102.178 E24.01376
G1 X176.628 Y117.282 E25.04981
G1 X177.38 Y118.3 E25.11296
G1 X178.178 Y119.767 E25.19627
G1 X178.713 Y121.418 E25.28286
G1 X178.939 Y122.912 E25.35824
G1 X178.904 Y124.868 E25.45584
G1 X178.694 Y126.034 E25.51495
G1 X178.256 Y127.371 E25.58514
G1 X177.596 Y128.701 E25.65922
G1 X176.791 Y129.883 E25.73056
G1 X169.868 Y138.207 E26.27071
G1 X168.838 Y138.769 E26.32925
G1 X168.753 Y139.032 E26.34304
G1 X168.271 Y140.122 E26.4025
G1 X161.808 Y147.854 E26.90526
G1 X160.785 Y148.808 E26.97505
G1 X159.179 Y149.886 E27.07155
G1 X158.311 Y150.297 E27.11946
G1 X156.708 Y150.794 E27.20319
G1 X155.164 Y151.05 E27.28127
G1 X153.65 Y150.987 E27.35687
G1 X151.96 Y150.677 E27.44259
G1 X150.645 Y150.224 E27.51198
G1 X150.034 Y149.935 E27.5457
G1 X132.401 Y139.607 E28.56521
G1 X131.708 Y139.18 E28.60582
G1 X128.074 Y137.012 E28.81693
G1 X124.772 Y135.46 E28.99896
G1 X121.166 Y134.18 E29.18986
G1 X117.557 Y133.271 E29.37554
G1 X113.823 Y132.724 E29.56382
G1 X109.998 Y132.541 E29.75487
G1 X106.178 Y132.723 E29.94566
G1 X102.439 Y133.271 E30.1342
G1 X98.836 Y134.178 E30.31956
G1 X95.228 Y135.46 E30.51059
G1 X91.779 Y137.084 E30.70078
G1 X88.319 Y139.151 E30.90186
G1 X87.43 Y139.701 E30.95401
G1 X70.098 Y149.855 E31.95617
G1 X68.45 Y150.563 E32.04566
G1 X67.72 Y150.764 E32.08343
G1 X65.263 Y151.041 E32.20679
G1 X64.677 Y151.012 E32.23606
G1 X62.434 Y150.563 E32.35019
G1 X61.1 Y150.029 E32.42187
G1 X60.171 Y149.507 E32.47504
G1 X58.83 Y148.488 E32.55906
G1 X58.154 Y147.82 E32.60648
G1 X51.586 Y139.945 E33.11808
G1 X51.244 Y138.962 E33.17
G1 X50.938 Y138.808 E33.18709
G1 X49.352 Y137.281 E33.29693
G1 X43.225 Y129.911 E33.77509
G1 X42.101 Y128.141 E33.8797
G1 X41.522 Y126.769 E33.95399
G1 X41.224 Y125.648 E34.01186
G1 X41.025 Y123.48 E34.12048
G1 X41.14 Y122.139 E34.18763
G1 X41.429 Y120.75 E34.25841
G1 X42.258 Y118.905 E34.35932
G1 X42.946 Y117.822 E34.42333
G1 X43.682 Y116.917 E34.48153
G1 X57.613 Y102.186 E35.49305
G1 X60.255 Y99.799 E35.67069
G0 F7500 X60.523 Y100.096
G1 F1500 X93.554 Y74.755 E37.74771
G1 X97.002 Y72.564 E37.95153
G1 X99.742 Y71.288 E38.10232
G1 X104.524 Y69.869 E38.35118
G1 X108.15 Y69.381 E38.53371
G1 X111.453 Y69.359 E38.6985
G1 X116.073 Y69.999 E38.9312
G1 X120.072 Y71.224 E39.13986
G1 X123.686 Y72.951 E39.33969
G1 X126.614 Y74.87 E39.51435
G1 X159.731 Y100.308 E41.59772
G1 X162.106 Y102.474 E41.75809
G1 X176.306 Y117.52 E42.79025
G1 X177.058 Y118.538 E42.85339
G1 X177.808 Y119.924 E42.93201
G1 X178.332 Y121.541 E43.01682
G1 X178.539 Y122.906 E43.0857
G1 X178.51 Y124.797 E43.18005
G1 X178.3 Y125.963 E43.23916
G1 X177.897 Y127.194 E43.30378
G1 X177.265 Y128.476 E43.37509
G1 X176.483 Y129.627 E43.44451
G1 X169.608 Y137.893 E43.9809
G1 X168.506 Y138.495 E44.04355
G1 X168.387 Y138.87 E44.06318
G1 X167.927 Y139.91 E44.11991
G1 X161.535 Y147.561 E44.6173
G1 X160.512 Y148.515 E44.68709
G1 X159.008 Y149.524 E44.77745
G1 X158.14 Y149.935 E44.82536
G1 X156.643 Y150.399 E44.90355
G1 X155.14 Y150.648 E44.97956
G1 X153.667 Y150.587 E45.05311
G1 X152.09 Y150.299 E45.13309
G1 X150.816 Y149.862 E45.20028
G1 X150.205 Y149.573 E45.234
G1 X132.611 Y139.266 E46.2513
G1 X131.918 Y138.839 E46.29191
G1 X128.267 Y136.661 E46.50401
G1 X124.923 Y135.089 E46.68836
G1 X121.281 Y133.796 E46.88117
G1 X117.635 Y132.878 E47.06875
G1 X113.859 Y132.325 E47.25914
G1 X109.998 Y132.14 E47.45199
G1 X106.142 Y132.324 E47.64458
G1 X102.361 Y132.878 E47.83523
G1 X98.721 Y133.794 E48.02249
G1 X95.077 Y135.089 E48.21543
G1 X91.594 Y136.729 E48.4075
G1 X88.114 Y138.808 E48.60974
G1 X87.228 Y139.356 E48.66172
G1 X69.896 Y149.51 E49.66388
G1 X68.344 Y150.177 E49.74816
G1 X67.614 Y150.378 E49.78593
G1 X65.283 Y150.641 E49.90296
G1 X64.697 Y150.612 E49.93223
G1 X62.582 Y150.191 E50.03982
G1 X61.296 Y149.68 E50.10886
G1 X60.367 Y149.158 E50.16202
G1 X59.111 Y148.203 E50.24074
G1 X58.435 Y147.535 E50.28816
G1 X51.94 Y139.746 E50.79413
G1 X51.562 Y138.659 E50.85154
G1 X51.215 Y138.52 E50.87019
G1 X49.66 Y137.025 E50.97781
G1 X43.533 Y129.655 E51.45597
G1 X42.47 Y127.985 E51.55473
G1 X41.891 Y126.613 E51.62903
G1 X41.611 Y125.546 E51.68406
G1 X41.424 Y123.513 E51.78592
G1 X41.532 Y122.221 E51.8506
G1 X41.813 Y120.871 E51.91939
G1 X42.596 Y119.119 E52.01513
G1 X43.257 Y118.074 E52.07682
G1 X43.973 Y117.192 E52.1335
G1 X57.904 Y102.461 E53.14502
G1 X60.523 Y100.096 E53.32108
G0 F7500 X60.791 Y100.393
G1 F1500 X93.769 Y75.092 E55.39479
G1 X97.171 Y72.927 E55.59597
G1 X99.911 Y71.651 E55.74676
G1 X104.578 Y70.265 E55.98965
G1 X108.153 Y69.781 E56.16964
G1 X111.456 Y69.759 E56.33443
G1 X116.018 Y70.395 E56.56423
G1 X119.9 Y71.585 E56.7668
G1 X123.467 Y73.286 E56.96395
G1 X126.395 Y75.205 E57.13861
G1 X159.462 Y100.604 E59.21882
G1 X161.815 Y102.749 E59.37767
G1 X175.984 Y117.758 E60.40743
G1 X176.736 Y118.776 E60.47057
G1 X177.427 Y120.047 E60.54275
G1 X177.951 Y121.664 E60.62755
G1 X178.139 Y122.901 E60.68997
G1 X178.116 Y124.726 E60.78103
G1 X177.906 Y125.892 E60.84014
G1 X177.538 Y127.017 E60.89919
G1 X176.906 Y128.299 E60.9705
G1 X176.175 Y129.371 E61.03523
G1 X169.348 Y137.579 E61.56786
G1 X168.172 Y138.221 E61.63471
G1 X168.021 Y138.708 E61.66015
G1 X167.583 Y139.698 E61.71416
G1 X161.262 Y147.268 E62.20617
G1 X160.239 Y148.222 E62.27596
G1 X158.837 Y149.162 E62.36017
G1 X157.969 Y149.573 E62.40809
G1 X156.578 Y150.004 E62.48074
G1 X155.115 Y150.246 E62.55472
G1 X153.738 Y150.193 E62.62347
G1 X152.219 Y149.92 E62.70047
G1 X150.987 Y149.5 E62.76541
G1 X150.376 Y149.211 E62.79913
G1 X132.821 Y138.925 E63.81422
G1 X132.128 Y138.498 E63.85483
G1 X128.46 Y136.31 E64.06791
G1 X125.074 Y134.718 E64.25458
G1 X121.396 Y133.412 E64.4493
G1 X117.713 Y132.485 E64.63878
G1 X113.895 Y131.926 E64.83129
G1 X109.998 Y131.739 E65.02593
G1 X106.106 Y131.925 E65.22033
G1 X102.283 Y132.485 E65.41309
G1 X98.606 Y133.41 E65.60225
G1 X94.926 Y134.718 E65.7971
G1 X91.409 Y136.374 E65.99104
G1 X87.909 Y138.465 E66.19445
G1 X87.026 Y139.011 E66.24624
G1 X69.694 Y149.165 E67.24841
G1 X68.238 Y149.791 E67.32748
G1 X67.508 Y149.992 E67.36525
G1 X65.303 Y150.241 E67.47596
G1 X64.717 Y150.212 E67.50523
G1 X62.696 Y149.806 E67.60807
G1 X61.492 Y149.331 E67.67265
G1 X60.563 Y148.809 E67.72581
G1 X59.392 Y147.918 E67.79922
G1 X58.716 Y147.25 E67.84663
G1 X52.294 Y139.547 E68.34698
G1 X51.88 Y138.356 E68.40988
G1 X51.437 Y138.178 E68.4337
G1 X49.968 Y136.769 E68.53525
G1 X43.841 Y129.399 E69.01341
G1 X42.838 Y127.829 E69.10636
G1 X42.278 Y126.511 E69.1778
G1 X41.998 Y125.444 E69.23284
G1 X41.823 Y123.545 E69.32798
G1 X41.924 Y122.302 E69.3902
G1 X42.196 Y120.995 E69.4568
G1 X42.935 Y119.332 E69.54759
G1 X43.568 Y118.326 E69.60689
G1 X44.264 Y117.467 E69.66205
G1 X58.195 Y102.736 E70.67357
G1 X60.791 Y100.393 E70.84804
G0 F7500 X61.059 Y100.69
G1 F1500 X93.984 Y75.429 E72.91843
G1 X97.34 Y73.29 E73.11698
G1 X100.08 Y72.014 E73.26778
G1 X104.632 Y70.661 E73.5047
G1 X108.156 Y70.181 E73.68213
G1 X111.459 Y70.159 E73.84692
G1 X115.962 Y70.791 E74.07378
G1 X119.728 Y71.946 E74.27031
G1 X123.248 Y73.621 E74.46479
G1 X126.176 Y75.54 E74.63945
G1 X159.193 Y100.9 E76.71649
G1 X161.524 Y103.024 E76.87382
G1 X175.662 Y117.996 E77.90118
G1 X176.414 Y119.014 E77.96432
G1 X177.057 Y120.204 E78.0318
G1 X177.57 Y121.787 E78.11482
G1 X177.739 Y122.897 E78.17084
G1 X177.722 Y124.655 E78.25855
G1 X177.512 Y125.821 E78.31766
G1 X177.179 Y126.84 E78.37114
G1 X176.547 Y128.122 E78.44245
G1 X175.867 Y129.115 E78.50249
G1 X169.088 Y137.265 E79.03137
G1 X167.838 Y137.948 E79.10244
G1 X167.655 Y138.546 E79.13364
G1 X167.239 Y139.486 E79.18492
G1 X160.989 Y146.975 E79.67157
G1 X159.966 Y147.929 E79.74135
G1 X158.666 Y148.8 E79.81942
G1 X157.798 Y149.211 E79.86734
G1 X156.513 Y149.609 E79.93445
G1 X155.089 Y149.844 E80.00646
G1 X153.809 Y149.799 E80.07035
G1 X152.29 Y149.526 E80.14735
G1 X151.158 Y149.138 E80.20705
G1 X150.547 Y148.849 E80.24077
G1 X133.031 Y138.585 E81.25363
G1 X132.333 Y138.154 E81.29456
G1 X128.653 Y135.959 E81.50833
G1 X125.225 Y134.347 E81.69732
G1 X121.511 Y133.028 E81.89395
G1 X117.791 Y132.092 E82.08533
G1 X113.931 Y131.527 E82.27996
G1 X109.998 Y131.338 E82.4764
G1 X106.07 Y131.526 E82.67259
G1 X102.205 Y132.092 E82.86748
G1 X98.491 Y133.026 E83.05854
G1 X94.775 Y134.347 E83.2553
G1 X91.224 Y136.019 E83.45111
G1 X87.698 Y138.125 E83.65601
G1 X86.824 Y138.666 E83.7073
G1 X69.492 Y148.82 E84.70946
G1 X68.132 Y149.405 E84.78332
G1 X67.402 Y149.606 E84.82109
G1 X65.323 Y149.841 E84.92548
G1 X64.737 Y149.812 E84.95475
G1 X62.842 Y149.433 E85.05116
G1 X61.688 Y148.982 E85.11298
G1 X60.759 Y148.46 E85.16614
G1 X59.673 Y147.633 E85.23424
G1 X58.997 Y146.965 E85.28166
G1 X52.648 Y139.348 E85.77637
G1 X52.198 Y138.053 E85.84477
G1 X51.659 Y137.836 E85.87376
G1 X50.276 Y136.513 E85.96924
G1 X44.149 Y129.143 E86.4474
G1 X43.206 Y127.672 E86.53457
G1 X42.665 Y126.409 E86.60312
G1 X42.385 Y125.342 E86.65816
G1 X42.222 Y123.576 E86.74664
G1 X42.316 Y122.383 E86.80634
G1 X42.579 Y121.118 E86.8708
G1 X43.274 Y119.545 E86.9566
G1 X43.907 Y118.539 E87.0159
G1 X44.555 Y117.742 E87.06714
G1 X58.486 Y103.011 E88.07867
G1 X61.059 Y100.69 E88.25154
G0 F7500 X61.327 Y100.987
G1 F1500 X94.199 Y75.766 E90.31863
G1 X97.509 Y73.653 E90.51454
G1 X100.249 Y72.377 E90.66534
G1 X104.686 Y71.057 E90.89629
G1 X108.159 Y70.581 E91.07118
G1 X111.462 Y70.559 E91.23597
G1 X115.906 Y71.187 E91.45989
G1 X119.556 Y72.307 E91.65036
G1 X123.029 Y73.956 E91.84217
G1 X125.957 Y75.875 E92.01683
G1 X158.924 Y101.196 E94.09071
G1 X161.233 Y103.299 E94.24653
G1 X175.34 Y118.234 E95.27148
G1 X176.092 Y119.252 E95.33462
G1 X176.676 Y120.327 E95.39566
G1 X177.189 Y121.91 E95.47868
G1 X177.339 Y122.894 E95.52833
G1 X177.328 Y124.584 E95.61265
G1 X177.118 Y125.75 E95.67176
G1 X176.82 Y126.664 E95.71972
G1 X176.217 Y127.896 E95.78815
G1 X175.559 Y128.859 E95.84634
G1 X168.828 Y136.951 E96.37146
G1 X167.502 Y137.676 E96.44686
G1 X167.289 Y138.384 E96.48375
G1 X166.895 Y139.274 E96.5323
G1 X160.682 Y146.719 E97.01608
G1 X159.742 Y147.597 E97.08026
G1 X158.495 Y148.438 E97.15529
G1 X157.627 Y148.849 E97.20321
G1 X156.448 Y149.214 E97.26478
G1 X155.063 Y149.443 E97.33482
G1 X153.88 Y149.405 E97.39387
G1 X152.361 Y149.132 E97.47087
G1 X151.329 Y148.776 E97.52533
G1 X150.718 Y148.487 E97.55905
G1 X133.241 Y138.245 E98.56968
G1 X132.538 Y137.81 E98.61092
G1 X128.846 Y135.608 E98.82539
G1 X125.376 Y133.976 E99.0167
G1 X121.626 Y132.644 E99.21524
G1 X117.869 Y131.699 E99.40851
G1 X113.967 Y131.128 E99.60526
G1 X109.998 Y130.937 E99.8035
G1 X106.034 Y131.127 E100.00149
G1 X102.13 Y131.699 E100.19834
G1 X98.373 Y132.643 E100.39161
G1 X94.624 Y133.976 E100.59012
G1 X91.039 Y135.664 E100.78781
G1 X87.493 Y137.782 E100.99387
G1 X86.622 Y138.321 E101.04498
G1 X69.29 Y148.475 E102.04714
G1 X68.026 Y149.019 E102.11579
G1 X67.296 Y149.22 E102.15357
G1 X65.343 Y149.441 E102.25162
G1 X64.757 Y149.412 E102.2809
G1 X62.921 Y149.041 E102.37435
G1 X61.883 Y148.633 E102.42999
G1 X61.001 Y148.141 E102.48038
G1 X59.954 Y147.348 E102.5459
G1 X59.278 Y146.68 E102.59332
G1 X53.002 Y139.149 E103.0824
G1 X52.516 Y137.75 E103.15629
G1 X51.879 Y137.493 E103.19056
G1 X50.584 Y136.257 E103.27987
G1 X44.457 Y128.887 E103.75803
G1 X43.573 Y127.513 E103.83954
G1 X43.052 Y126.307 E103.90508
G1 X42.772 Y125.24 E103.96012
G1 X42.621 Y123.606 E104.04199
G1 X42.708 Y122.464 E104.09913
G1 X42.962 Y121.241 E104.16144
G1 X43.64 Y119.707 E104.24512
G1 X44.218 Y118.791 E104.29915
G1 X44.846 Y118.017 E104.34888
G1 X58.777 Y103.286 E105.3604
G1 X61.327 Y100.987 E105.5317
G0 F7500 X61.595 Y101.284
G1 F1500 X94.415 Y76.103 E107.59551
G1 X97.678 Y74.016 E107.78875
G1 X100.418 Y72.74 E107.93954
G1 X104.741 Y71.453 E108.16457
G1 X108.162 Y70.981 E108.33687
G1 X111.465 Y70.959 E108.50166
G1 X115.789 Y71.57 E108.71952
G1 X119.385 Y72.669 E108.90712
G1 X122.81 Y74.291 E109.09619
G1 X125.738 Y76.21 E109.27084
G1 X158.655 Y101.492 E111.34156
G1 X160.942 Y103.574 E111.49586
G1 X175.049 Y118.509 E112.52081
G1 X175.741 Y119.443 E112.57881
G1 X176.307 Y120.485 E112.63797
G1 X176.794 Y121.972 E112.71603
G1 X176.939 Y122.893 E112.76254
G1 X176.934 Y124.513 E112.84337
G1 X176.724 Y125.679 E112.90248
G1 X176.46 Y126.489 E112.94498
G1 X175.886 Y127.671 E113.01053
G1 X175.251 Y128.603 E113.0668
G1 X168.568 Y136.637 E113.58816
G1 X167.165 Y137.404 E113.66794
G1 X166.923 Y138.222 E113.71049
G1 X166.551 Y139.062 E113.75633
G1 X160.408 Y146.428 E114.23484
G1 X159.517 Y147.266 E114.29587
G1 X158.324 Y148.076 E114.36781
G1 X157.456 Y148.487 E114.41572
G1 X156.383 Y148.819 E114.47176
G1 X155.036 Y149.042 E114.53988
G1 X153.949 Y149.011 E114.59413
G1 X152.491 Y148.754 E114.66799
G1 X151.5 Y148.414 E114.72026
G1 X150.889 Y148.125 E114.75398
G1 X133.452 Y137.905 E115.76233
G1 X132.743 Y137.466 E115.80393
G1 X129.039 Y135.257 E116.01909
G1 X125.527 Y133.605 E116.21272
G1 X121.744 Y132.261 E116.41302
G1 X117.944 Y131.306 E116.60849
G1 X114.003 Y130.729 E116.80721
G1 X109.998 Y130.536 E117.00725
G1 X105.998 Y130.728 E117.20704
G1 X102.055 Y131.306 E117.40586
G1 X98.255 Y132.26 E117.60132
