;FLAVOR:Marlin
;TIME:10480
;Filament used: 13.3483m
;Layer height: 0.4
;MINX:67.636
;MINY:84.915
;MINZ:0.3
;MAXX:152.426
;MAXY:130.417
;MAXZ:70.3
;Generated with Cura_SteamEngine 5.4.0
M140 S98
M105
M190 S98
M104 S240
M105
M109 S240
M82 ;absolute extrusion mode
G28 ;Home
G1 Z15.0 F2000 ;Move the platform
G92 E0
G92 E0
G1 F1500 E-6.5
;LAYER_COUNT:176
;LAYER:0
M107
M204 S1000
G0 F7500 X86.463 Y91.331 Z0.3
;TYPE:SKIRT
G1 F1500 E0
G1 X87.477 Y90.47 E0.06637
G1 X89.023 Y89.326 E0.16232
G1 X90.546 Y88.352 E0.25251
G1 X91.759 Y87.685 E0.32157
G1 X93.607 Y86.836 E0.42303
G1 X95.226 Y86.225 E0.50937
G1 X96.624 Y85.801 E0.58225
G1 X98.501 Y85.364 E0.6784
G1 X99.746 Y85.157 E0.74136
G1 X101.991 Y84.949 E0.85385
G1 X103.714 Y84.915 E0.93982
G1 X105.218 Y84.988 E1.01495
G1 X106.822 Y85.168 E1.09547
G1 X129.753 Y88.472 E2.25132
G1 X131.799 Y89.061 E2.35754
G1 X132.514 Y89.373 E2.39646
G1 X136.319 Y91.598 E2.61637
G1 X137.37 Y92.381 E2.68175
G1 X151.076 Y107.529 E3.70093
G1 X152.179 Y109.743 E3.82433
G1 X152.384 Y111.292 E3.90229
G1 X152.426 Y123.47 E4.50985
G1 X151.96 Y125.366 E4.60726
G1 X150.907 Y127.394 E4.72126
G1 X149.346 Y128.853 E4.82786
G1 X147.323 Y130.06 E4.94539
G1 X145.605 Y130.342 E5.03225
G1 X114.721 Y130.417 E6.57306
G1 X112.825 Y129.951 E6.67047
G1 X110.797 Y128.898 E6.78447
G1 X109.338 Y127.337 E6.89107
G1 X108.131 Y125.314 E7.0086
G1 X107.849 Y123.596 E7.09546
G1 X107.774 Y110.365 E7.75556
G1 X107.745 Y109.699 E7.78882
G1 X107.711 Y109.376 E7.80502
G1 X107.641 Y108.972 E7.82548
G1 X107.524 Y108.623 E7.84384
G1 X107.336 Y108.156 E7.86896
G1 X107.216 Y107.909 E7.88266
G1 X106.765 Y107.241 E7.92287
G1 X106.521 Y106.972 E7.94099
G1 X106.286 Y106.746 E7.95726
G1 X106.013 Y106.517 E7.97503
G1 X105.778 Y106.345 E7.98956
G1 X105.511 Y106.18 E8.00522
G1 X105.163 Y105.993 E8.02493
G1 X104.733 Y105.82 E8.04806
G1 X104.171 Y105.66 E8.07721
G1 X103.723 Y105.597 E8.09978
G1 X103.404 Y105.575 E8.11573
G1 X103.097 Y105.575 E8.13105
G1 X102.776 Y105.597 E8.1471
G1 X102.504 Y105.636 E8.16081
G1 X102.135 Y105.713 E8.17962
G1 X101.83 Y105.801 E8.19545
G1 X101.565 Y105.895 E8.20948
G1 X101.267 Y106.028 E8.22576
G1 X100.988 Y106.176 E8.24152
G1 X100.75 Y106.324 E8.2555
G1 X100.493 Y106.513 E8.27142
G1 X100.206 Y106.753 E8.29008
G1 X99.998 Y106.955 E8.30455
G1 X99.715 Y107.265 E8.32549
G1 X99.312 Y107.863 E8.36146
G1 X99.062 Y108.371 E8.38971
G1 X98.857 Y108.992 E8.42234
G1 X98.788 Y109.385 E8.44224
G1 X98.755 Y109.699 E8.458
G1 X98.726 Y110.39 E8.4925
G1 X98.723 Y123.408 E9.14197
G1 X98.257 Y125.304 E9.23938
G1 X97.204 Y127.332 E9.35338
G1 X95.643 Y128.791 E9.45998
G1 X93.62 Y129.998 E9.57751
G1 X91.902 Y130.28 E9.66437
G1 X74.588 Y130.355 E10.52817
G1 X72.686 Y129.888 E10.62588
G1 X70.659 Y128.836 E10.73982
G1 X69.2 Y127.275 E10.84642
G1 X67.993 Y125.252 E10.96395
G1 X67.711 Y123.534 E11.0508
G1 X67.636 Y110.859 E11.68317
G1 X68.393 Y108.61 E11.80156
G1 X68.805 Y107.798 E11.84699
G1 X69.775 Y106.65 E11.92197
G1 X86.463 Y91.331 E13.05214
G0 F7500 X86.722 Y91.636
G1 F1500 X87.715 Y90.792 E13.11715
G1 X89.261 Y89.648 E13.21311
G1 X90.739 Y88.703 E13.30063
G1 X91.952 Y88.036 E13.36969
G1 X93.774 Y87.2 E13.4697
G1 X95.342 Y86.608 E13.55332
G1 X96.715 Y86.191 E13.62491
G1 X98.567 Y85.759 E13.71978
G1 X99.812 Y85.552 E13.78275
G1 X101.999 Y85.349 E13.89233
G1 X103.695 Y85.315 E13.97696
G1 X105.199 Y85.388 E14.05208
G1 X106.765 Y85.564 E14.1307
G1 X129.696 Y88.868 E15.28655
G1 X131.639 Y89.428 E15.38743
G1 X132.354 Y89.74 E15.42635
G1 X136.08 Y91.919 E15.6417
G1 X137.1 Y92.679 E15.70516
G1 X150.743 Y107.757 E16.71963
G1 X151.79 Y109.86 E16.83684
G1 X151.987 Y111.345 E16.91157
G1 X152.026 Y123.424 E17.5142
G1 X151.584 Y125.223 E17.60662
G1 X150.584 Y127.149 E17.71489
G1 X149.107 Y128.529 E17.81573
G1 X147.183 Y129.677 E17.92751
G1 X145.54 Y129.947 E18.01058
G1 X114.767 Y130.017 E19.54586
G1 X112.968 Y129.575 E19.63828
G1 X111.042 Y128.575 E19.74655
G1 X109.662 Y127.098 E19.84739
G1 X108.514 Y125.174 E19.95917
G1 X108.244 Y123.531 E20.04224
G1 X108.174 Y110.348 E20.69995
G1 X108.145 Y109.672 E20.73371
G1 X108.109 Y109.334 E20.75067
G1 X108.03 Y108.875 E20.7739
G1 X107.899 Y108.483 E20.79452
G1 X107.704 Y107.999 E20.82056
G1 X107.559 Y107.702 E20.83704
G1 X107.083 Y106.996 E20.87952
G1 X106.805 Y106.69 E20.90015
G1 X106.553 Y106.447 E20.91762
G1 X106.264 Y106.205 E20.93642
G1 X106 Y106.012 E20.95274
G1 X105.708 Y105.831 E20.96988
G1 X105.348 Y105.638 E20.99026
G1 X105.104 Y105.529 E21.00359
G1 X104.857 Y105.439 E21.0167
G1 X104.255 Y105.268 E21.04793
G1 X103.765 Y105.199 E21.07261
G1 X103.416 Y105.175 E21.09007
G1 X103.083 Y105.175 E21.10668
G1 X102.735 Y105.199 E21.12408
G1 X102.426 Y105.243 E21.13965
G1 X102.048 Y105.322 E21.15892
G1 X101.701 Y105.422 E21.17694
G1 X101.415 Y105.524 E21.19208
G1 X101.095 Y105.666 E21.20955
G1 X100.789 Y105.829 E21.22685
G1 X100.526 Y105.993 E21.24231
G1 X100.236 Y106.206 E21.26026
G1 X99.949 Y106.446 E21.27893
G1 X99.702 Y106.685 E21.29608
G1 X99.401 Y107.015 E21.31836
G1 X98.964 Y107.664 E21.35739
G1 X98.747 Y108.105 E21.38191
G1 X98.644 Y108.361 E21.39568
G1 X98.468 Y108.892 E21.42359
G1 X98.391 Y109.333 E21.44592
G1 X98.355 Y109.672 E21.46293
G1 X98.326 Y110.373 E21.49794
G1 X98.323 Y123.362 E22.14596
G1 X97.881 Y125.161 E22.23838
G1 X96.881 Y127.087 E22.34665
G1 X95.404 Y128.467 E22.4475
G1 X93.48 Y129.615 E22.55927
G1 X91.837 Y129.885 E22.64234
G1 X74.633 Y129.955 E23.50066
G1 X72.829 Y129.512 E23.59334
G1 X70.904 Y128.513 E23.70154
G1 X69.524 Y127.036 E23.80238
G1 X68.376 Y125.112 E23.91416
G1 X68.106 Y123.469 E23.99723
G1 X68.036 Y110.922 E24.62321
G1 X68.75 Y108.791 E24.73534
G1 X69.141 Y108.021 E24.77842
G1 X70.081 Y106.908 E24.8511
G1 X86.722 Y91.636 E25.97796
G0 F7500 X86.981 Y91.941
G1 F1500 X87.953 Y91.114 E26.04163
G1 X89.499 Y89.97 E26.13758
G1 X90.932 Y89.054 E26.22243
G1 X92.145 Y88.387 E26.29149
G1 X93.915 Y87.574 E26.38867
G1 X95.458 Y86.991 E26.47096
G1 X96.806 Y86.581 E26.54125
G1 X98.633 Y86.154 E26.63486
G1 X99.878 Y85.947 E26.69782
G1 X102.007 Y85.749 E26.8045
G1 X103.676 Y85.715 E26.88778
G1 X105.18 Y85.788 E26.96291
G1 X106.708 Y85.96 E27.03962
G1 X129.639 Y89.264 E28.19547
G1 X131.479 Y89.795 E28.29101
G1 X132.194 Y90.107 E28.32993
G1 X135.841 Y92.24 E28.54071
G1 X136.83 Y92.977 E28.60225
G1 X150.41 Y107.985 E29.61203
G1 X151.402 Y109.977 E29.72305
G1 X151.59 Y111.397 E29.79451
G1 X151.626 Y123.377 E30.3922
G1 X151.207 Y125.081 E30.47974
G1 X150.261 Y126.904 E30.58221
G1 X148.865 Y128.208 E30.67751
G1 X147.045 Y129.294 E30.78325
G1 X145.475 Y129.552 E30.86263
G1 X114.814 Y129.617 E32.39232
G1 X113.11 Y129.198 E32.47986
G1 X111.287 Y128.252 E32.58233
G1 X109.983 Y126.856 E32.67763
G1 X108.897 Y125.036 E32.78337
G1 X108.639 Y123.466 E32.86275
G1 X108.574 Y110.331 E33.51806
G1 X108.545 Y109.655 E33.55182
G1 X108.506 Y109.28 E33.57063
G1 X108.442 Y108.913 E33.58922
G1 X108.381 Y108.663 E33.60205
G1 X108.276 Y108.347 E33.61867
G1 X108.072 Y107.841 E33.64589
G1 X107.904 Y107.497 E33.66499
G1 X107.401 Y106.751 E33.70987
G1 X107.089 Y106.408 E33.73301
G1 X106.82 Y106.148 E33.75167
G1 X106.515 Y105.893 E33.7715
G1 X106.223 Y105.679 E33.78957
G1 X105.905 Y105.482 E33.80823
G1 X105.528 Y105.28 E33.82957
G1 X105.258 Y105.159 E33.84433
G1 X104.976 Y105.057 E33.85929
G1 X104.339 Y104.876 E33.89233
G1 X103.807 Y104.801 E33.91913
G1 X103.428 Y104.775 E33.93808
G1 X103.069 Y104.775 E33.95599
G1 X102.694 Y104.801 E33.97475
G1 X102.349 Y104.85 E33.99213
G1 X101.961 Y104.931 E34.01191
G1 X101.566 Y105.045 E34.03242
G1 X101.272 Y105.15 E34.04799
G1 X100.917 Y105.308 E34.06738
G1 X100.586 Y105.484 E34.08608
G1 X100.305 Y105.659 E34.1026
G1 X99.992 Y105.889 E34.12198
G1 X99.682 Y106.149 E34.14216
G1 X99.411 Y106.41 E34.16093
G1 X99.171 Y106.674 E34.17873
G1 X99.014 Y106.875 E34.19146
G1 X98.69 Y107.354 E34.22031
G1 X98.561 Y107.576 E34.23312
G1 X98.382 Y107.942 E34.25345
G1 X98.264 Y108.235 E34.2692
G1 X98.079 Y108.792 E34.29849
G1 X97.994 Y109.28 E34.3232
G1 X97.955 Y109.655 E34.34201
G1 X97.926 Y110.356 E34.37701
G1 X97.923 Y123.315 E35.02354
G1 X97.504 Y125.019 E35.11108
G1 X96.558 Y126.842 E35.21355
G1 X95.162 Y128.146 E35.30886
G1 X93.342 Y129.232 E35.41459
G1 X91.772 Y129.49 E35.49397
G1 X74.678 Y129.555 E36.3468
G1 X72.972 Y129.136 E36.43444
G1 X71.149 Y128.19 E36.53691
G1 X69.845 Y126.794 E36.63221
G1 X68.759 Y124.974 E36.73795
G1 X68.501 Y123.404 E36.81733
G1 X68.436 Y110.987 E37.43682
G1 X69.107 Y108.972 E37.54278
G1 X69.477 Y108.244 E37.58352
G1 X70.387 Y107.166 E37.6539
G1 X86.981 Y91.941 E38.77744
G0 F7500 X87.24 Y92.246
G1 F1500 X88.191 Y91.436 E38.83977
G1 X89.737 Y90.292 E38.93572
G1 X91.125 Y89.405 E39.0179
G1 X92.338 Y88.738 E39.08696
G1 X94.056 Y87.948 E39.1813
G1 X95.575 Y87.374 E39.26231
G1 X96.897 Y86.971 E39.33126
G1 X98.724 Y86.544 E39.42487
G1 X99.943 Y86.342 E39.48651
G1 X102.015 Y86.149 E39.59033
G1 X103.657 Y86.115 E39.67227
G1 X105.161 Y86.188 E39.74739
G1 X106.651 Y86.356 E39.8222
G1 X129.529 Y89.649 E40.97535
G1 X131.319 Y90.162 E41.06825
G1 X132.034 Y90.474 E41.10717
G1 X135.602 Y92.561 E41.31339
G1 X136.56 Y93.275 E41.373
G1 X150.077 Y108.213 E42.37808
G1 X151.014 Y110.094 E42.48292
G1 X151.193 Y111.449 E42.55111
G1 X151.226 Y123.331 E43.14391
G1 X150.831 Y124.938 E43.22647
G1 X149.938 Y126.659 E43.3232
G1 X148.623 Y127.887 E43.41296
G1 X146.907 Y128.911 E43.51266
G1 X145.41 Y129.157 E43.58835
G1 X114.86 Y129.217 E45.1125
G1 X113.253 Y128.822 E45.19506
G1 X111.532 Y127.929 E45.29179
G1 X110.304 Y126.614 E45.38155
G1 X109.28 Y124.898 E45.48125
G1 X109.034 Y123.401 E45.55693
G1 X108.974 Y110.314 E46.20985
G1 X108.945 Y109.629 E46.24406
G1 X108.903 Y109.228 E46.26418
G1 X108.833 Y108.828 E46.28443
G1 X108.766 Y108.551 E46.29865
G1 X108.653 Y108.211 E46.31653
G1 X108.437 Y107.677 E46.34527
G1 X108.305 Y107.406 E46.36031
G1 X108.168 Y107.172 E46.37383
G1 X107.719 Y106.506 E46.41391
G1 X107.38 Y106.133 E46.43905
G1 X107.087 Y105.851 E46.45934
G1 X106.757 Y105.574 E46.48084
G1 X106.445 Y105.346 E46.50011
G1 X106.101 Y105.133 E46.5203
G1 X105.713 Y104.925 E46.54226
G1 X105.407 Y104.788 E46.55899
G1 X105.095 Y104.675 E46.57555
G1 X104.546 Y104.519 E46.60402
G1 X104.286 Y104.465 E46.61727
G1 X103.848 Y104.403 E46.63934
G1 X103.442 Y104.375 E46.65964
G1 X103.057 Y104.375 E46.67885
G1 X102.65 Y104.403 E46.6992
G1 X102.273 Y104.457 E46.7182
G1 X101.879 Y104.539 E46.73828
G1 X101.437 Y104.666 E46.76122
G1 X101.118 Y104.781 E46.77814
G1 X100.746 Y104.946 E46.79844
G1 X100.387 Y105.137 E46.81873
G1 X100.079 Y105.329 E46.83684
G1 X99.75 Y105.57 E46.85719
G1 X99.415 Y105.851 E46.879
G1 X99.12 Y106.135 E46.89943
G1 X98.86 Y106.421 E46.91871
G1 X98.698 Y106.629 E46.93187
G1 X98.351 Y107.142 E46.96277
G1 X98.208 Y107.387 E46.97692
G1 X98.016 Y107.779 E46.9987
G1 X97.884 Y108.109 E47.01643
G1 X97.69 Y108.692 E47.04708
G1 X97.597 Y109.227 E47.07417
G1 X97.555 Y109.638 E47.09478
G1 X97.526 Y110.339 E47.12979
G1 X97.523 Y123.269 E47.77487
G1 X97.128 Y124.876 E47.85743
G1 X96.235 Y126.597 E47.95416
G1 X94.92 Y127.825 E48.04392
G1 X93.204 Y128.849 E48.14362
G1 X91.707 Y129.095 E48.21931
G1 X74.723 Y129.155 E49.06665
G1 X73.115 Y128.76 E49.14926
G1 X71.394 Y127.867 E49.24599
G1 X70.166 Y126.552 E49.33575
G1 X69.142 Y124.836 E49.43545
G1 X68.896 Y123.339 E49.51113
G1 X68.836 Y111.052 E50.12414
G1 X69.464 Y109.153 E50.22393
G1 X69.813 Y108.467 E50.26233
G1 X70.693 Y107.424 E50.33041
G1 X87.24 Y92.246 E51.45064
G0 F7500 X87.499 Y92.551
G1 F1500 X88.45 Y91.741 E51.51296
G1 X89.952 Y90.629 E51.6062
G1 X91.318 Y89.756 E51.68708
G1 X92.531 Y89.089 E51.75614
G1 X94.197 Y88.322 E51.84764
G1 X95.692 Y87.757 E51.92738
G1 X96.988 Y87.361 E51.99498
G1 X98.815 Y86.934 E52.08859
G1 X100.008 Y86.737 E52.14892
G1 X102.023 Y86.549 E52.24988
G1 X103.638 Y86.515 E52.33047
G1 X105.116 Y86.586 E52.40429
G1 X106.594 Y86.752 E52.4785
G1 X129.472 Y90.045 E53.63165
G1 X131.159 Y90.529 E53.71921
G1 X131.874 Y90.841 E53.75813
G1 X135.363 Y92.882 E53.95979
G1 X136.29 Y93.573 E54.01747
G1 X149.744 Y108.441 E55.01785
G1 X150.626 Y110.211 E55.11651
G1 X150.796 Y111.501 E55.18143
G1 X150.826 Y123.285 E55.76934
G1 X150.455 Y124.795 E55.84691
G1 X149.615 Y126.414 E55.93791
G1 X148.381 Y127.566 E56.02213
G1 X146.769 Y128.528 E56.11579
G1 X145.345 Y128.762 E56.18778
G1 X114.906 Y128.817 E57.70639
G1 X113.396 Y128.446 E57.78397
G1 X111.777 Y127.606 E57.87496
G1 X110.625 Y126.372 E57.95919
G1 X109.663 Y124.76 E58.05284
G1 X109.429 Y123.336 E58.12484
G1 X109.374 Y110.297 E58.77536
G1 X109.345 Y109.605 E58.80992
G1 X109.301 Y109.186 E58.83094
G1 X109.226 Y108.751 E58.85296
G1 X109.146 Y108.425 E58.8697
G1 X109.03 Y108.075 E58.8881
G1 X108.802 Y107.513 E58.91836
G1 X108.661 Y107.223 E58.93445
G1 X108.505 Y106.957 E58.94983
G1 X108.112 Y106.373 E58.98495
G1 X107.958 Y106.175 E58.99746
G1 X107.672 Y105.859 E59.01873
G1 X107.354 Y105.553 E59.04074
G1 X107 Y105.256 E59.0638
G1 X106.673 Y105.017 E59.08401
G1 X106.29 Y104.78 E59.10648
G1 X105.898 Y104.57 E59.12866
G1 X105.556 Y104.417 E59.14735
G1 X105.214 Y104.293 E59.1655
G1 X104.639 Y104.13 E59.19532
G1 X104.36 Y104.072 E59.20954
G1 X103.889 Y104.005 E59.23327
G1 X103.456 Y103.975 E59.25493
G1 X103.043 Y103.975 E59.27553
G1 X102.609 Y104.005 E59.29724
G1 X102.195 Y104.064 E59.3181
G1 X101.792 Y104.148 E59.33864
G1 X101.317 Y104.285 E59.3633
G1 X100.966 Y104.411 E59.38191
G1 X100.568 Y104.588 E59.40364
G1 X100.175 Y104.797 E59.42584
G1 X99.862 Y104.992 E59.44424
G1 X99.508 Y105.251 E59.46613
G1 X99.148 Y105.553 E59.48957
G1 X98.829 Y105.86 E59.51166
G1 X98.547 Y106.171 E59.5326
G1 X98.382 Y106.383 E59.546
G1 X98.008 Y106.935 E59.57927
G1 X97.849 Y107.209 E59.59507
G1 X97.653 Y107.611 E59.61739
G1 X97.504 Y107.983 E59.63738
G1 X97.344 Y108.464 E59.66267
G1 X97.276 Y108.737 E59.67671
G1 X97.2 Y109.176 E59.69893
G1 X97.155 Y109.613 E59.72085
G1 X97.126 Y110.323 E59.7563
G1 X97.123 Y123.223 E60.39989
G1 X96.752 Y124.733 E60.47746
G1 X95.912 Y126.352 E60.56846
G1 X94.678 Y127.504 E60.65268
G1 X93.066 Y128.466 E60.74633
G1 X91.642 Y128.7 E60.81833
G1 X74.768 Y128.755 E61.66018
G1 X73.258 Y128.384 E61.73776
G1 X71.639 Y127.544 E61.82875
G1 X70.487 Y126.31 E61.91298
G1 X69.525 Y124.698 E62.00663
G1 X69.291 Y123.274 E62.07863
G1 X69.236 Y111.117 E62.68515
G1 X69.844 Y109.279 E62.78174
G1 X70.148 Y108.691 E62.81476
G1 X70.999 Y107.682 E62.88061
G1 X87.499 Y92.551 E63.99753
G0 F7500 X87.758 Y92.856
G1 F1500 X88.709 Y92.046 E64.05985
G1 X90.167 Y90.966 E64.15037
G1 X91.511 Y90.107 E64.22995
G1 X92.724 Y89.44 E64.29901
G1 X94.339 Y88.696 E64.38772
G1 X95.809 Y88.14 E64.46613
G1 X97.105 Y87.744 E64.53374
G1 X98.88 Y87.329 E64.62468
G1 X100.073 Y87.132 E64.68501
G1 X102.032 Y86.949 E64.78317
G1 X103.619 Y86.915 E64.86236
G1 X105.097 Y86.986 E64.93619
G1 X106.537 Y87.148 E65.00848
G1 X129.415 Y90.441 E66.16163
G1 X130.999 Y90.896 E66.24385
G1 X131.714 Y91.208 E66.28277
G1 X135.124 Y93.203 E66.47988
G1 X136.02 Y93.871 E66.53563
G1 X149.411 Y108.669 E67.53131
G1 X150.238 Y110.328 E67.6238
G1 X150.399 Y111.553 E67.68544
G1 X150.426 Y123.238 E68.26841
G1 X150.078 Y124.653 E68.3411
G1 X149.292 Y126.169 E68.4263
G1 X148.139 Y127.245 E68.50498
G1 X146.631 Y128.145 E68.59259
G1 X145.28 Y128.367 E68.6609
G1 X114.953 Y128.417 E70.17392
G1 X113.538 Y128.069 E70.24662
G1 X112.022 Y127.283 E70.33181
G1 X110.946 Y126.13 E70.4105
G1 X110.046 Y124.622 E70.49811
G1 X109.824 Y123.271 E70.56642
G1 X109.774 Y110.28 E71.21454
G1 X109.745 Y109.588 E71.2491
G1 X109.698 Y109.135 E71.27182
G1 X109.618 Y108.674 E71.29516
G1 X109.526 Y108.299 E71.31443
G1 X109.407 Y107.939 E71.33334
G1 X109.17 Y107.354 E71.36483
G1 X109.014 Y107.035 E71.38255
G1 X108.843 Y106.742 E71.39947
G1 X108.441 Y106.145 E71.43538
G1 X108.263 Y105.916 E71.44985
G1 X107.956 Y105.577 E71.47267
G1 X107.621 Y105.254 E71.49589
G1 X107.251 Y104.944 E71.51997
G1 X106.901 Y104.688 E71.5416
G1 X106.479 Y104.427 E71.56636
G1 X106.078 Y104.212 E71.58906
G1 X105.71 Y104.047 E71.60918
G1 X105.333 Y103.911 E71.62917
G1 X104.73 Y103.74 E71.66044
G1 X104.437 Y103.679 E71.67537
G1 X103.93 Y103.607 E71.70092
G1 X103.47 Y103.575 E71.72393
