;FLAVOR:Marlin
;TIME:7574
;Filament used: 10.8025m
;Layer height: 0.4
;MINX:76.151
;MINY:76.151
;MINZ:0.3
;MAXX:143.848
;MAXY:143.849
;MAXZ:39.9
;Generated with Cura_SteamEngine 5.4.0
M140 S98
M105
M190 S98
M104 S240
M105
M109 S240
M82 ;absolute extrusion mode
G28 ;Home
G1 Z15.0 F2000 ;Move the platform
G92 E0
G92 E0
G1 F1500 E-6.5
;LAYER_COUNT:100
;LAYER:0
M107
M204 S1000
G0 F7500 X79.857 Y79.98 Z0.3
;TYPE:SKIRT
G1 F1500 E0
G1 X80.832 Y79.096 E0.06566
G1 X81.618 Y78.5 E0.11487
G1 X83.377 Y77.448 E0.21713
G1 X84.126 Y77.115 E0.25802
G1 X86.496 Y76.402 E0.3815
G1 X87.285 Y76.271 E0.4214
G1 X89.02 Y76.153 E0.50816
G1 X98.004 Y76.192 E0.95637
G1 X99.946 Y76.412 E1.05388
G1 X101.887 Y76.865 E1.15332
G1 X104.306 Y77.516 E1.2783
G1 X106.722 Y77.94 E1.40068
G1 X108.766 Y78.118 E1.50304
G1 X111.233 Y78.118 E1.62612
G1 X113.283 Y77.94 E1.72878
G1 X115.654 Y77.527 E1.84885
G1 X118.465 Y76.77 E1.99408
G1 X120.813 Y76.291 E2.11364
G1 X122.242 Y76.17 E2.18519
G1 X131.093 Y76.151 E2.62677
G1 X132.263 Y76.225 E2.68526
G1 X133.611 Y76.427 E2.75326
G1 X135.204 Y76.871 E2.83576
G1 X136.426 Y77.367 E2.90156
G1 X138.057 Y78.275 E2.99469
G1 X138.99 Y78.947 E3.05205
G1 X140.011 Y79.851 E3.12009
G1 X140.826 Y80.737 E3.18015
G1 X141.609 Y81.757 E3.2443
G1 X142.086 Y82.507 E3.28865
G1 X143.108 Y84.731 E3.41076
G1 X143.442 Y85.825 E3.46782
G1 X143.773 Y87.75 E3.56527
G1 X143.847 Y89.037 E3.62959
G1 X143.813 Y97.861 E4.06982
G1 X143.575 Y100.013 E4.17784
G1 X143.139 Y101.885 E4.27373
G1 X142.492 Y104.3 E4.39847
G1 X142.06 Y106.734 E4.5218
G1 X141.882 Y108.76 E4.62326
G1 X141.882 Y111.242 E4.74709
G1 X142.059 Y113.277 E4.849
G1 X142.472 Y115.649 E4.96912
G1 X143.216 Y118.397 E5.11116
G1 X143.591 Y120.097 E5.19801
G1 X143.848 Y122.835 E5.33521
G1 X143.847 Y130.374 E5.71133
G1 X143.821 Y131.677 E5.77635
G1 X143.63 Y133.26 E5.8559
G1 X143.14 Y135.159 E5.95374
G1 X142.619 Y136.458 E6.02357
G1 X142.041 Y137.545 E6.08499
G1 X141.075 Y138.951 E6.1701
G1 X140.109 Y140.04 E6.24272
G1 X138.509 Y141.418 E6.34807
G1 X137.669 Y141.973 E6.3983
G1 X135.653 Y142.965 E6.51039
G1 X134.607 Y143.322 E6.56553
G1 X132.648 Y143.737 E6.66544
G1 X131.608 Y143.831 E6.71754
G1 X130.452 Y143.849 E6.77522
G1 X122.051 Y143.811 E7.19435
G1 X120.01 Y143.58 E7.29682
G1 X118.112 Y143.136 E7.39407
G1 X115.693 Y142.485 E7.51905
G1 X113.277 Y142.061 E7.64143
G1 X111.233 Y141.883 E7.74379
G1 X108.766 Y141.883 E7.86687
G1 X106.718 Y142.061 E7.96943
G1 X104.376 Y142.474 E8.08807
G1 X101.647 Y143.214 E8.22914
G1 X100.237 Y143.543 E8.30138
G1 X97.16 Y143.849 E8.45565
G1 X88.221 Y143.82 E8.90162
G1 X87.289 Y143.724 E8.94836
G1 X85.54 Y143.358 E9.03751
G1 X83.869 Y142.773 E9.12584
G1 X82.237 Y142 E9.21593
G1 X80.844 Y140.861 E9.3057
G1 X80.07 Y139.881 E9.368
G1 X79.218 Y139.327 E9.4187
G1 X77.779 Y137.235 E9.54538
G1 X77.357 Y136.413 E9.59148
G1 X76.659 Y134.553 E9.69059
G1 X76.411 Y133.539 E9.74267
G1 X76.163 Y131.474 E9.84644
G1 X76.151 Y130.646 E9.88775
G1 X76.191 Y122.022 E10.31801
G1 X76.411 Y120.059 E10.41656
G1 X76.86 Y118.133 E10.51522
G1 X77.51 Y115.704 E10.64067
G1 X77.941 Y113.258 E10.76458
G1 X78.117 Y111.24 E10.86564
G1 X78.117 Y108.758 E10.98947
G1 X77.939 Y106.723 E11.09138
G1 X77.515 Y104.322 E11.21302
G1 X76.778 Y101.589 E11.35424
G1 X76.408 Y99.917 E11.43968
G1 X76.151 Y97.179 E11.57688
G1 X76.151 Y88.659 E12.00194
G1 X76.169 Y88.255 E12.02212
G1 X76.413 Y86.49 E12.11101
G1 X76.872 Y84.769 E12.19987
G1 X77.172 Y83.996 E12.24124
G1 X78.26 Y81.973 E12.35584
G1 X79.184 Y80.718 E12.43359
G1 X79.857 Y79.98 E12.48342
G0 F7500 X80.153 Y80.25
G1 F1500 X81.074 Y79.415 E12.54544
G1 X81.86 Y78.819 E12.59466
G1 X83.54 Y77.814 E12.69232
G1 X84.289 Y77.481 E12.73322
G1 X86.562 Y76.797 E12.85164
G1 X87.351 Y76.666 E12.89154
G1 X89.018 Y76.553 E12.9749
G1 X97.96 Y76.59 E13.42102
G1 X99.855 Y76.802 E13.51616
G1 X101.783 Y77.251 E13.61492
G1 X104.222 Y77.907 E13.74092
G1 X106.665 Y78.336 E13.86467
G1 X108.754 Y78.518 E13.96929
G1 X111.245 Y78.518 E14.09356
G1 X113.34 Y78.336 E14.19848
G1 X115.738 Y77.918 E14.31992
G1 X118.545 Y77.162 E14.46495
G1 X120.847 Y76.69 E14.58219
G1 X122.276 Y76.569 E14.65373
G1 X131.094 Y76.551 E15.09367
G1 X132.205 Y76.621 E15.1492
G1 X133.504 Y76.813 E15.21472
G1 X135.054 Y77.242 E15.29495
G1 X136.276 Y77.738 E15.36075
G1 X137.823 Y78.6 E15.4491
G1 X138.756 Y79.272 E15.50647
G1 X139.745 Y80.15 E15.57245
G1 X140.509 Y80.981 E15.62876
G1 X141.271 Y81.972 E15.69113
G1 X141.748 Y82.722 E15.73548
G1 X142.725 Y84.848 E15.85221
G1 X143.059 Y85.942 E15.90927
G1 X143.374 Y87.773 E16.00196
G1 X143.447 Y89.036 E16.06508
G1 X143.415 Y97.817 E16.50317
G1 X143.177 Y99.969 E16.61119
G1 X142.753 Y101.781 E16.70403
G1 X142.1 Y104.218 E16.8299
G1 X141.664 Y106.675 E16.9544
G1 X141.482 Y108.748 E17.05822
G1 X141.482 Y111.254 E17.18324
G1 X141.663 Y113.334 E17.28741
G1 X142.081 Y115.733 E17.4089
G1 X142.825 Y118.483 E17.55103
G1 X143.2 Y120.183 E17.63788
G1 X143.448 Y122.835 E17.77076
G1 X143.447 Y130.366 E18.14649
G1 X143.421 Y131.669 E18.21151
G1 X143.243 Y133.161 E18.28647
G1 X142.769 Y135.011 E18.38175
G1 X142.266 Y136.271 E18.44944
G1 X141.711 Y137.318 E18.50856
G1 X140.745 Y138.724 E18.59366
G1 X139.848 Y139.737 E18.66117
G1 X138.288 Y141.084 E18.76399
G1 X137.448 Y141.639 E18.81422
G1 X135.524 Y142.586 E18.92121
G1 X134.478 Y142.943 E18.97635
G1 X132.612 Y143.339 E19.07152
G1 X131.602 Y143.431 E19.12212
G1 X130.454 Y143.449 E19.1794
G1 X122.053 Y143.411 E19.59853
G1 X120.101 Y143.191 E19.69653
G1 X118.216 Y142.75 E19.79311
G1 X115.777 Y142.094 E19.91912
G1 X113.334 Y141.665 E20.04287
G1 X111.245 Y141.483 E20.14748
G1 X108.754 Y141.483 E20.27176
G1 X106.659 Y141.665 E20.37667
G1 X104.29 Y142.083 E20.49669
G1 X101.556 Y142.824 E20.63801
G1 X100.146 Y143.153 E20.71024
G1 X97.161 Y143.449 E20.8599
G1 X88.261 Y143.422 E21.30392
G1 X87.371 Y143.332 E21.34855
G1 X85.622 Y142.966 E21.4377
G1 X84.04 Y142.411 E21.52134
G1 X82.452 Y141.659 E21.609
G1 X81.131 Y140.579 E21.69413
G1 X80.344 Y139.583 E21.75746
G1 X79.502 Y139.035 E21.80758
G1 X78.135 Y137.052 E21.92774
G1 X77.713 Y136.23 E21.97384
G1 X77.048 Y134.458 E22.06826
G1 X76.8 Y133.444 E22.12034
G1 X76.563 Y131.468 E22.21963
G1 X76.551 Y130.648 E22.26055
G1 X76.589 Y122.066 E22.68871
G1 X76.801 Y120.15 E22.78488
G1 X77.25 Y118.224 E22.88355
G1 X77.902 Y115.785 E23.0095
G1 X78.337 Y113.318 E23.13448
G1 X78.517 Y111.252 E23.23794
G1 X78.517 Y108.746 E23.36297
G1 X78.335 Y106.664 E23.46724
G1 X77.907 Y104.24 E23.59004
G1 X77.169 Y101.503 E23.73147
G1 X76.799 Y99.831 E23.8169
G1 X76.551 Y97.179 E23.94979
G1 X76.551 Y88.677 E24.37395
G1 X76.569 Y88.273 E24.39413
G1 X76.809 Y86.545 E24.48117
G1 X77.245 Y84.914 E24.5654
G1 X77.545 Y84.141 E24.60676
G1 X78.582 Y82.21 E24.71612
G1 X79.48 Y80.988 E24.79177
G1 X80.153 Y80.25 E24.8416
G0 F7500 X80.449 Y80.52
G1 F1500 X81.316 Y79.734 E24.89999
G1 X82.102 Y79.138 E24.9492
G1 X83.703 Y78.18 E25.04228
G1 X84.452 Y77.847 E25.08317
G1 X86.628 Y77.192 E25.19655
G1 X87.417 Y77.061 E25.23645
G1 X89.016 Y76.953 E25.31641
G1 X97.916 Y76.988 E25.76043
G1 X99.811 Y77.2 E25.85556
G1 X101.679 Y77.637 E25.95127
G1 X104.138 Y78.298 E26.07831
G1 X106.608 Y78.732 E26.20343
G1 X108.742 Y78.918 E26.3103
G1 X111.257 Y78.918 E26.43577
G1 X113.397 Y78.732 E26.54294
G1 X115.822 Y78.309 E26.66575
G1 X118.626 Y77.554 E26.81062
G1 X120.881 Y77.089 E26.92549
G1 X122.31 Y76.968 E26.99704
G1 X131.095 Y76.951 E27.43533
G1 X132.147 Y77.017 E27.48791
G1 X133.446 Y77.209 E27.55343
G1 X134.904 Y77.613 E27.62891
G1 X136.126 Y78.109 E27.6947
G1 X137.589 Y78.925 E27.77828
G1 X138.522 Y79.597 E27.83564
G1 X139.451 Y80.421 E27.89759
G1 X140.192 Y81.225 E27.95214
G1 X140.933 Y82.187 E28.01273
G1 X141.41 Y82.937 E28.05707
G1 X142.342 Y84.965 E28.16842
G1 X142.676 Y86.059 E28.22549
G1 X142.975 Y87.796 E28.31342
G1 X143.047 Y89.035 E28.37534
G1 X143.017 Y97.774 E28.81133
G1 X142.787 Y99.878 E28.91693
G1 X142.367 Y101.677 E29.00909
G1 X141.708 Y104.136 E29.1361
G1 X141.268 Y106.616 E29.26176
G1 X141.082 Y108.736 E29.36793
G1 X141.082 Y111.266 E29.49416
G1 X141.267 Y113.391 E29.60057
G1 X141.69 Y115.817 E29.72343
G1 X142.434 Y118.569 E29.86566
G1 X142.809 Y120.269 E29.95251
G1 X143.048 Y122.835 E30.08109
G1 X143.047 Y130.358 E30.45641
G1 X143.021 Y131.661 E30.52143
G1 X142.846 Y133.113 E30.59439
G1 X142.397 Y134.863 E30.68453
G1 X141.912 Y136.084 E30.75008
G1 X141.381 Y137.091 E30.80687
G1 X140.415 Y138.497 E30.89198
G1 X139.586 Y139.435 E30.95443
G1 X138.067 Y140.75 E31.05467
G1 X137.227 Y141.305 E31.1049
G1 X135.395 Y142.207 E31.20677
G1 X134.349 Y142.564 E31.26191
G1 X132.575 Y142.941 E31.3524
G1 X131.596 Y143.031 E31.40144
G1 X130.456 Y143.049 E31.45833
G1 X122.097 Y143.013 E31.87536
G1 X120.192 Y142.801 E31.97099
G1 X118.32 Y142.364 E32.0669
G1 X115.861 Y141.703 E32.19393
G1 X113.391 Y141.269 E32.31905
G1 X111.257 Y141.083 E32.42592
G1 X108.742 Y141.083 E32.55139
G1 X106.602 Y141.269 E32.65856
G1 X104.202 Y141.692 E32.78014
G1 X101.465 Y142.434 E32.92162
G1 X100.055 Y142.763 E32.99385
G1 X97.162 Y143.049 E33.13889
G1 X88.3 Y143.024 E33.58102
G1 X87.453 Y142.94 E33.62348
G1 X85.704 Y142.574 E33.71263
G1 X84.211 Y142.05 E33.79157
G1 X82.67 Y141.32 E33.87664
G1 X81.418 Y140.297 E33.9573
G1 X80.618 Y139.285 E34.02166
G1 X79.786 Y138.743 E34.0712
G1 X78.491 Y136.869 E34.18485
G1 X78.069 Y136.047 E34.23095
G1 X77.437 Y134.363 E34.32068
G1 X77.189 Y133.349 E34.37276
G1 X76.963 Y131.462 E34.46758
G1 X76.951 Y130.65 E34.50809
G1 X76.987 Y122.11 E34.93416
G1 X77.199 Y120.194 E35.03033
G1 X77.636 Y118.327 E35.126
G1 X78.294 Y115.864 E35.25319
G1 X78.733 Y113.377 E35.37918
G1 X78.917 Y111.264 E35.485
G1 X78.917 Y108.734 E35.61122
G1 X78.731 Y106.605 E35.71784
G1 X78.299 Y104.158 E35.84181
G1 X77.56 Y101.417 E35.98344
G1 X77.19 Y99.745 E36.06888
G1 X76.951 Y97.179 E36.19745
G1 X76.951 Y88.695 E36.62072
G1 X76.969 Y88.291 E36.64089
G1 X77.205 Y86.6 E36.72607
G1 X77.618 Y85.059 E36.80567
G1 X77.918 Y84.286 E36.84704
G1 X78.934 Y82.4 E36.95391
G1 X79.776 Y81.258 E37.0247
G1 X80.449 Y80.52 E37.07453
G0 F7500 X80.745 Y80.79
G1 F1500 X81.558 Y80.053 E37.12928
G1 X82.344 Y79.457 E37.17849
G1 X83.866 Y78.546 E37.26698
G1 X84.615 Y78.213 E37.30788
G1 X86.694 Y77.587 E37.4162
G1 X87.483 Y77.456 E37.4561
G1 X89.015 Y77.353 E37.53271
G1 X97.872 Y77.386 E37.97459
G1 X99.72 Y77.59 E38.06734
G1 X101.575 Y78.023 E38.16238
G1 X104.054 Y78.689 E38.29044
G1 X106.551 Y79.128 E38.41693
G1 X108.73 Y79.318 E38.52605
G1 X111.269 Y79.318 E38.65272
G1 X113.454 Y79.128 E38.76214
G1 X115.906 Y78.7 E38.88632
G1 X118.707 Y77.946 E39.03104
G1 X120.915 Y77.488 E39.14354
G1 X122.344 Y77.367 E39.21509
G1 X131.096 Y77.351 E39.65173
G1 X132.089 Y77.413 E39.70137
G1 X133.388 Y77.605 E39.76688
G1 X134.754 Y77.984 E39.83761
G1 X135.976 Y78.48 E39.9034
G1 X137.355 Y79.25 E39.9822
G1 X138.288 Y79.922 E40.03956
G1 X139.157 Y80.692 E40.09749
G1 X139.875 Y81.47 E40.15031
G1 X140.595 Y82.402 E40.20906
G1 X141.072 Y83.152 E40.25341
G1 X141.959 Y85.082 E40.35938
G1 X142.293 Y86.176 E40.41644
G1 X142.576 Y87.819 E40.49962
G1 X142.647 Y89.034 E40.56034
G1 X142.619 Y97.731 E40.99424
G1 X142.397 Y99.787 E41.09741
G1 X141.981 Y101.573 E41.1889
G1 X141.316 Y104.054 E41.31705
G1 X140.872 Y106.557 E41.44387
G1 X140.682 Y108.724 E41.5524
G1 X140.682 Y111.278 E41.67982
G1 X140.871 Y113.448 E41.78849
G1 X141.299 Y115.901 E41.91272
G1 X142.043 Y118.655 E42.05504
G1 X142.418 Y120.355 E42.14189
G1 X142.648 Y122.835 E42.26615
G1 X142.647 Y130.35 E42.64108
G1 X142.621 Y131.653 E42.7061
G1 X142.458 Y133.014 E42.77448
G1 X142.025 Y134.715 E42.86205
G1 X141.54 Y135.936 E42.9276
G1 X141.051 Y136.864 E42.97993
G1 X140.085 Y138.27 E43.06504
G1 X139.287 Y139.169 E43.12501
G1 X137.846 Y140.416 E43.22008
G1 X137.006 Y140.971 E43.27031
G1 X135.266 Y141.828 E43.36708
G1 X134.22 Y142.185 E43.42222
G1 X132.538 Y142.543 E43.50801
G1 X131.59 Y142.631 E43.55551
G1 X130.458 Y142.649 E43.612
G1 X122.141 Y142.615 E44.02694
G1 X120.283 Y142.411 E44.12019
G1 X118.424 Y141.978 E44.21542
G1 X115.945 Y141.312 E44.34348
G1 X113.448 Y140.873 E44.46997
G1 X111.269 Y140.683 E44.57909
G1 X108.73 Y140.683 E44.70576
G1 X106.545 Y140.873 E44.81518
G1 X104.114 Y141.301 E44.93833
G1 X101.374 Y142.044 E45.07997
G1 X99.964 Y142.373 E45.1522
G1 X97.163 Y142.649 E45.29262
G1 X88.339 Y142.626 E45.73285
G1 X87.534 Y142.548 E45.7732
G1 X85.836 Y142.196 E45.85972
G1 X84.382 Y141.688 E45.93656
G1 X82.885 Y140.979 E46.0192
G1 X81.705 Y140.015 E46.09522
G1 X80.892 Y138.986 E46.16064
G1 X80.071 Y138.452 E46.2095
G1 X78.847 Y136.686 E46.3167
G1 X78.425 Y135.864 E46.3628
G1 X77.826 Y134.268 E46.44785
G1 X77.578 Y133.254 E46.49993
G1 X77.363 Y131.456 E46.59027
G1 X77.351 Y130.652 E46.63039
G1 X77.385 Y122.154 E47.05436
G1 X77.597 Y120.238 E47.15053
G1 X78.022 Y118.43 E47.24319
G1 X78.686 Y115.945 E47.37152
G1 X79.129 Y113.434 E47.49873
G1 X79.317 Y111.276 E47.6068
G1 X79.317 Y108.722 E47.73422
G1 X79.127 Y106.546 E47.84319
G1 X78.691 Y104.076 E47.96832
G1 X77.951 Y101.331 E48.11016
G1 X77.581 Y99.659 E48.1956
G1 X77.351 Y97.179 E48.31986
G1 X77.351 Y88.713 E48.74223
G1 X77.369 Y88.309 E48.7624
G1 X77.592 Y86.703 E48.84329
G1 X77.991 Y85.204 E48.92068
G1 X78.291 Y84.431 E48.96205
G1 X79.256 Y82.637 E49.06368
G1 X80.072 Y81.528 E49.13237
G1 X80.745 Y80.79 E49.1822
G0 F7500 X81.041 Y81.06
G1 F1500 X81.8 Y80.372 E49.23331
G1 X82.586 Y79.776 E49.28252
G1 X84.029 Y78.912 E49.36643
G1 X84.778 Y78.579 E49.40733
G1 X86.76 Y77.982 E49.5106
G1 X87.549 Y77.851 E49.5505
G1 X89.014 Y77.753 E49.62375
G1 X97.828 Y77.784 E50.06349
G1 X99.676 Y77.988 E50.15624
G1 X101.471 Y78.409 E50.24823
G1 X103.97 Y79.08 E50.37732
G1 X106.494 Y79.524 E50.50518
G1 X108.718 Y79.718 E50.61655
G1 X111.281 Y79.718 E50.74442
G1 X113.511 Y79.524 E50.8561
G1 X115.99 Y79.091 E50.98165
G1 X118.789 Y78.338 E51.12625
G1 X120.949 Y77.887 E51.23634
G1 X122.378 Y77.766 E51.30789
G1 X131.097 Y77.751 E51.74288
G1 X132.031 Y77.809 E51.78957
G1 X133.33 Y78.001 E51.85508
G1 X134.604 Y78.355 E51.92105
G1 X135.782 Y78.83 E51.98442
G1 X137.121 Y79.575 E52.06087
G1 X138.054 Y80.247 E52.11823
G1 X138.891 Y80.991 E52.1741
G1 X139.559 Y81.715 E52.22325
G1 X140.257 Y82.617 E52.28015
G1 X140.734 Y83.367 E52.32449
G1 X141.576 Y85.199 E52.42508
G1 X141.91 Y86.293 E52.48215
G1 X142.177 Y87.842 E52.56057
G1 X142.247 Y89.033 E52.62009
G1 X142.221 Y97.689 E53.05194
G1 X142.007 Y99.696 E53.15264
G1 X141.595 Y101.469 E53.24345
G1 X140.924 Y103.972 E53.37274
G1 X140.476 Y106.499 E53.50077
G1 X140.282 Y108.712 E53.6116
G1 X140.282 Y111.29 E53.74022
G1 X140.475 Y113.505 E53.85115
G1 X140.908 Y115.985 E53.97675
G1 X141.652 Y118.741 E54.11917
G1 X142.027 Y120.441 E54.20602
G1 X142.248 Y122.835 E54.32596
G1 X142.247 Y130.342 E54.70049
G1 X142.221 Y131.645 E54.76551
G1 X142.07 Y132.916 E54.82937
G1 X141.653 Y134.567 E54.91432
G1 X141.168 Y135.788 E54.97987
G1 X140.721 Y136.637 E55.02774
G1 X139.755 Y138.043 E55.11284
G1 X139.025 Y138.867 E55.16776
G1 X137.625 Y140.082 E55.26024
G1 X136.785 Y140.637 E55.31047
G1 X135.137 Y141.449 E55.40213
G1 X134.091 Y141.806 E55.45727
G1 X132.501 Y142.145 E55.53838
G1 X131.584 Y142.231 E55.58433
G1 X130.46 Y142.249 E55.64041
G1 X122.185 Y142.217 E56.05326
G1 X120.327 Y142.013 E56.14651
G1 X118.528 Y141.592 E56.23869
G1 X116.029 Y140.921 E56.36778
G1 X113.505 Y140.477 E56.49564
G1 X111.281 Y140.283 E56.60701
G1 X108.718 Y140.283 E56.73488
G1 X106.488 Y140.477 E56.84656
G1 X104.027 Y140.91 E56.97122
G1 X101.283 Y141.654 E57.11307
G1 X99.873 Y141.983 E57.1853
G1 X97.164 Y142.249 E57.3211
G1 X88.377 Y142.228 E57.75949
G1 X87.615 Y142.156 E57.79768
G1 X85.917 Y141.804 E57.88419
G1 X84.553 Y141.326 E57.9563
G1 X83.1 Y140.638 E58.0365
G1 X81.992 Y139.733 E58.10788
G1 X81.166 Y138.687 E58.17437
G1 X80.354 Y138.159 E58.22269
G1 X79.203 Y136.503 E58.32331
G1 X78.781 Y135.681 E58.36941
G1 X78.215 Y134.173 E58.44977
G1 X77.967 Y133.159 E58.50185
G1 X77.763 Y131.45 E58.58771
G1 X77.751 Y130.654 E58.62743
G1 X77.783 Y122.198 E59.04931
G1 X77.995 Y120.282 E59.14548
G1 X78.408 Y118.533 E59.23514
G1 X79.078 Y116.026 E59.3646
G1 X79.525 Y113.491 E59.49302
G1 X79.717 Y111.288 E59.60335
