;FLAVOR:Marlin
;TIME:3686
;Filament used: 2.22595m
;Layer height: 0.15
;MINX:50.114
;MINY:94.26
;MINZ:0.3
;MAXX:173.305
;MAXY:125.483
;MAXZ:14.85
;Generated with Cura_SteamEngine 5.4.0
M140 S98
M105
M190 S98
M104 S240
M105
M109 S240
M82 ;absolute extrusion mode
G28 ;Home
G1 Z15.0 F2000 ;Move the platform
G92 E0
G92 E0
G1 F1500 E-6.5
;LAYER_COUNT:98
;LAYER:0
M107
M204 S1000
G0 F7500 X54.526 Y105.968 Z0.3
;TYPE:SKIRT
G1 F1500 E0
G1 X56.57 Y105.082 E0.11114
G1 X57.98 Y104.87 E0.18228
G1 X85.991 Y104.814 E1.57976
G1 X85.997 Y104.577 E1.59158
G1 X86.134 Y103.557 E1.64293
G1 X86.478 Y102.211 E1.71224
G1 X87.157 Y100.581 E1.80033
G1 X87.877 Y99.406 E1.86909
G1 X88.726 Y98.352 E1.93661
G1 X89.67 Y97.451 E2.00171
G1 X91.088 Y96.429 E2.08892
G1 X92.096 Y95.899 E2.14573
G1 X95.381 Y94.572 E2.32249
G1 X96.606 Y94.26 E2.38556
G1 X99.929 Y94.307 E2.55136
G1 X101.089 Y94.469 E2.60979
G1 X103.344 Y95.442 E2.73232
G1 X104.847 Y96.745 E2.83156
G1 X105.887 Y97.948 E2.9109
G1 X106.8 Y100.031 E3.02436
G1 X107.134 Y102.157 E3.13173
G1 X107.029 Y103.091 E3.17862
G1 X111.07 Y104.8 E3.39752
G1 X165.845 Y104.874 E6.13025
G1 X166.834 Y105.053 E6.1804
G1 X168.946 Y105.929 E6.29447
G1 X170.798 Y107.364 E6.41136
G1 X172.046 Y109.062 E6.51649
G1 X172.737 Y110.275 E6.58614
G1 X173.305 Y112.605 E6.70579
G1 X173.24 Y116.996 E6.92488
G1 X172.994 Y118.476 E6.99973
G1 X172.524 Y119.957 E7.07725
G1 X171.844 Y121.441 E7.15869
G1 X170.562 Y122.982 E7.25869
G1 X168.613 Y124.574 E7.38425
G1 X165.808 Y125.48 E7.53131
G1 X122.673 Y125.483 E9.68332
G1 X121.86 Y125.445 E9.72393
G1 X121.222 Y125.396 E9.75585
G1 X119.835 Y125.269 E9.82534
G1 X118.153 Y125.079 E9.90979
G1 X115.723 Y124.774 E10.03197
G1 X113.924 Y124.565 E10.12233
G1 X112.812 Y124.45 E10.1781
G1 X111.81 Y124.358 E10.2283
G1 X110.597 Y124.266 E10.28899
G1 X109.581 Y124.205 E10.33977
G1 X108.354 Y124.146 E10.40106
G1 X107.221 Y124.105 E10.45762
G1 X106.115 Y124.084 E10.51281
G1 X105.121 Y124.081 E10.5624
G1 X104.004 Y124.1 E10.61813
G1 X101.6 Y124.187 E10.73815
G1 X100.603 Y124.249 E10.78799
G1 X99.356 Y124.344 E10.85038
G1 X98.293 Y124.439 E10.90362
G1 X97.039 Y124.566 E10.96651
G1 X95.955 Y124.69 E11.02094
G1 X91.812 Y125.204 E11.22922
G1 X90.526 Y125.334 E11.2937
G1 X89.777 Y125.399 E11.33121
G1 X88.256 Y125.479 E11.4072
G1 X57.254 Y125.383 E12.9539
G1 X56.205 Y125.198 E13.00705
G1 X53.805 Y124.123 E13.13825
G1 X51.816 Y122.177 E13.27707
G1 X51.512 Y121.768 E13.3025
G1 X50.356 Y119.188 E13.44354
G1 X50.114 Y116.843 E13.56116
G1 X50.121 Y112.487 E13.77848
G1 X50.804 Y109.883 E13.91279
G1 X52.619 Y107.352 E14.06817
G1 X54.526 Y105.968 E14.18573
G0 F7500 X54.727 Y106.317
G1 F1500 X56.679 Y105.471 E14.29187
G1 X58.04 Y105.266 E14.36053
G1 X86.385 Y105.213 E15.77467
G1 X86.394 Y104.629 E15.80381
G1 X86.522 Y103.656 E15.85277
G1 X86.866 Y102.31 E15.92208
G1 X87.498 Y100.789 E16.00426
G1 X88.189 Y99.657 E16.07042
G1 X89.038 Y98.603 E16.13794
G1 X89.904 Y97.776 E16.19769
G1 X91.322 Y96.754 E16.28489
G1 X92.246 Y96.27 E16.33693
G1 X95.48 Y94.96 E16.51101
G1 X96.655 Y94.661 E16.5715
G1 X99.923 Y94.707 E16.73456
G1 X100.982 Y94.858 E16.78792
G1 X103.128 Y95.784 E16.90453
G1 X104.544 Y97.007 E16.99788
G1 X105.546 Y98.166 E17.07431
G1 X106.413 Y100.144 E17.18206
G1 X106.731 Y102.167 E17.28423
G1 X106.598 Y103.343 E17.34327
G1 X110.989 Y105.2 E17.58112
G1 X165.774 Y105.268 E20.31436
G1 X166.724 Y105.44 E20.36253
G1 X168.742 Y106.277 E20.47152
G1 X170.509 Y107.646 E20.58304
G1 X171.698 Y109.26 E20.68305
G1 X172.361 Y110.424 E20.74989
G1 X172.904 Y112.652 E20.86429
G1 X172.845 Y116.93 E21.07774
G1 X172.599 Y118.41 E21.1526
G1 X172.16 Y119.79 E21.22484
G1 X171.502 Y121.226 E21.30365
G1 X170.278 Y122.698 E21.39916
G1 X168.419 Y124.216 E21.5189
G1 X165.744 Y125.08 E21.65914
G1 X122.691 Y125.083 E23.80707
G1 X121.89 Y125.046 E23.84707
G1 X121.258 Y124.998 E23.87869
G1 X119.88 Y124.872 E23.94773
G1 X118.203 Y124.682 E24.03193
G1 X115.773 Y124.377 E24.15411
G1 X113.965 Y124.167 E24.24492
G1 X112.853 Y124.052 E24.30069
G1 X111.84 Y123.959 E24.35145
G1 X110.627 Y123.867 E24.41214
G1 X109.6 Y123.805 E24.46347
G1 X108.373 Y123.746 E24.52475
G1 X107.235 Y123.705 E24.58156
G1 X106.123 Y123.684 E24.63705
G1 X105.115 Y123.681 E24.68734
G1 X103.99 Y123.7 E24.74348
G1 X101.586 Y123.787 E24.86349
G1 X100.573 Y123.85 E24.91413
G1 X99.326 Y123.945 E24.97652
G1 X98.253 Y124.041 E25.03027
G1 X96.999 Y124.168 E25.09315
G1 X95.906 Y124.293 E25.14803
G1 X91.772 Y124.806 E25.35586
G1 X90.491 Y124.935 E25.4201
G1 X89.742 Y125 E25.4576
G1 X88.257 Y125.079 E25.5318
G1 X57.324 Y124.989 E27.07506
G1 X56.322 Y124.812 E27.12582
G1 X54.035 Y123.788 E27.25083
G1 X52.096 Y121.891 E27.38617
G1 X51.858 Y121.563 E27.40638
G1 X50.748 Y119.084 E27.54189
G1 X50.514 Y116.844 E27.65426
G1 X50.521 Y112.54 E27.86898
G1 X51.173 Y110.055 E27.99716
G1 X52.906 Y107.639 E28.1455
G1 X54.727 Y106.317 E28.25776
G0 F7500 X54.928 Y106.666
G1 F1500 X56.789 Y105.859 E28.35896
G1 X58.099 Y105.662 E28.42505
G1 X86.78 Y105.612 E29.85596
G1 X86.791 Y104.68 E29.90246
G1 X86.91 Y103.755 E29.94898
G1 X87.254 Y102.409 E30.0183
G1 X87.84 Y100.997 E30.09457
G1 X88.501 Y99.908 E30.15812
G1 X89.35 Y98.854 E30.22564
G1 X90.138 Y98.101 E30.28002
G1 X91.556 Y97.079 E30.36722
G1 X92.397 Y96.641 E30.41453
G1 X95.579 Y95.348 E30.58589
G1 X96.704 Y95.062 E30.6438
G1 X99.866 Y95.103 E30.80157
G1 X100.875 Y95.247 E30.85241
G1 X102.912 Y96.126 E30.9631
G1 X104.241 Y97.269 E31.05055
G1 X105.205 Y98.384 E31.12409
G1 X106.026 Y100.257 E31.22612
G1 X106.328 Y102.177 E31.32308
G1 X106.168 Y103.595 E31.39428
G1 X110.908 Y105.6 E31.65104
G1 X165.703 Y105.662 E34.38478
G1 X166.614 Y105.827 E34.43097
G1 X168.538 Y106.625 E34.53488
G1 X170.218 Y107.927 E34.64092
G1 X171.35 Y109.458 E34.73592
G1 X171.985 Y110.573 E34.79993
G1 X172.503 Y112.699 E34.9091
G1 X172.45 Y116.864 E35.11691
G1 X172.204 Y118.344 E35.19176
G1 X171.796 Y119.623 E35.25874
G1 X171.16 Y121.011 E35.33491
G1 X169.994 Y122.414 E35.42592
G1 X168.225 Y123.858 E35.53985
G1 X165.68 Y124.68 E35.67328
G1 X122.709 Y124.683 E37.81711
G1 X121.92 Y124.647 E37.85651
G1 X121.294 Y124.6 E37.88783
G1 X119.925 Y124.475 E37.95642
G1 X118.253 Y124.285 E38.04037
G1 X115.823 Y123.98 E38.16256
G1 X114.006 Y123.769 E38.25382
G1 X112.894 Y123.654 E38.30959
G1 X111.87 Y123.56 E38.36089
G1 X110.657 Y123.468 E38.42158
G1 X109.619 Y123.405 E38.47346
G1 X108.392 Y123.346 E38.53475
G1 X107.249 Y123.305 E38.59181
G1 X106.131 Y123.284 E38.6476
G1 X105.109 Y123.281 E38.69859
G1 X103.978 Y123.3 E38.75502
G1 X102.815 Y123.336 E38.81307
G1 X101.57 Y123.387 E38.87523
G1 X100.543 Y123.451 E38.92657
G1 X99.296 Y123.546 E38.98896
G1 X98.213 Y123.643 E39.04321
G1 X96.959 Y123.77 E39.10609
G1 X95.857 Y123.896 E39.16143
G1 X91.732 Y124.408 E39.36881
G1 X90.456 Y124.536 E39.43279
G1 X89.707 Y124.601 E39.4703
G1 X88.258 Y124.679 E39.54269
G1 X57.394 Y124.595 E41.08251
G1 X56.439 Y124.426 E41.13089
G1 X54.265 Y123.453 E41.24972
G1 X52.376 Y121.605 E41.38156
G1 X52.206 Y121.361 E41.3964
G1 X51.14 Y118.98 E41.52655
G1 X50.914 Y116.845 E41.63366
G1 X50.921 Y112.592 E41.84584
G1 X51.541 Y110.228 E41.96777
G1 X53.193 Y107.926 E42.10913
G1 X54.928 Y106.666 E42.21611
G0 F7500 X55.129 Y107.015
G1 F1500 X56.898 Y106.248 E42.31231
G1 X58.159 Y106.058 E42.37593
G1 X87.176 Y106.011 E43.82359
G1 X87.188 Y104.731 E43.88745
G1 X87.307 Y103.806 E43.93398
G1 X87.641 Y102.509 E44.0008
G1 X88.183 Y101.204 E44.0713
G1 X88.813 Y100.159 E44.13218
G1 X89.662 Y99.105 E44.1997
G1 X90.372 Y98.426 E44.24871
G1 X91.79 Y97.404 E44.33592
G1 X92.548 Y97.012 E44.37849
G1 X95.73 Y95.719 E44.54985
G1 X96.751 Y95.463 E44.60236
G1 X99.809 Y95.499 E44.75494
G1 X100.767 Y95.636 E44.80322
G1 X102.696 Y96.468 E44.90803
G1 X103.938 Y97.531 E44.98959
G1 X104.864 Y98.602 E45.06022
G1 X105.639 Y100.37 E45.15653
G1 X105.925 Y102.187 E45.2483
G1 X105.738 Y103.847 E45.33164
G1 X110.827 Y106 E45.60732
G1 X165.632 Y106.056 E48.34155
G1 X166.504 Y106.214 E48.38576
G1 X168.334 Y106.973 E48.4846
G1 X169.93 Y108.21 E48.58534
G1 X171.002 Y109.656 E48.67515
G1 X171.609 Y110.722 E48.73635
G1 X172.102 Y112.746 E48.84028
G1 X172.055 Y116.798 E49.04245
G1 X171.809 Y118.278 E49.1173
G1 X171.432 Y119.456 E49.179
G1 X170.818 Y120.796 E49.25254
G1 X169.71 Y122.13 E49.33906
G1 X168.031 Y123.5 E49.44717
G1 X165.616 Y124.28 E49.57378
G1 X122.727 Y124.283 E51.71352
G1 X121.95 Y124.248 E51.75233
G1 X121.33 Y124.202 E51.78335
G1 X119.97 Y124.078 E51.85148
G1 X118.303 Y123.888 E51.93518
G1 X115.873 Y123.583 E52.05737
G1 X114.047 Y123.371 E52.14908
G1 X112.935 Y123.256 E52.20485
G1 X111.9 Y123.161 E52.25671
G1 X110.687 Y123.069 E52.3174
G1 X109.638 Y123.005 E52.36983
G1 X108.411 Y122.946 E52.43111
G1 X107.263 Y122.905 E52.48842
G1 X106.138 Y122.884 E52.54456
G1 X105.103 Y122.881 E52.5962
G1 X103.966 Y122.9 E52.65293
G1 X102.799 Y122.936 E52.71118
G1 X101.554 Y122.987 E52.77335
G1 X100.513 Y123.052 E52.82538
G1 X99.266 Y123.147 E52.88778
G1 X98.173 Y123.245 E52.94252
G1 X96.919 Y123.372 E53.00541
G1 X95.808 Y123.499 E53.0612
G1 X91.692 Y124.01 E53.26812
G1 X90.421 Y124.137 E53.33185
G1 X89.672 Y124.202 E53.36936
G1 X88.259 Y124.279 E53.43995
G1 X57.463 Y124.201 E54.97638
G1 X56.556 Y124.041 E55.02233
G1 X54.495 Y123.118 E55.13499
G1 X52.656 Y121.319 E55.26334
G1 X52.571 Y121.197 E55.27076
G1 X51.531 Y118.875 E55.39769
G1 X51.314 Y116.846 E55.4995
G1 X51.321 Y112.645 E55.70908
G1 X51.91 Y110.4 E55.82488
G1 X53.48 Y108.213 E55.95919
G1 X55.129 Y107.015 E56.06088
G0 F7500 X55.33 Y107.364
G1 F1500 X57.008 Y106.636 E56.15214
G1 X58.218 Y106.454 E56.21318
G1 X87.626 Y106.41 E57.68035
G1 X87.574 Y105.986 E57.70167
G1 X87.585 Y104.782 E57.76174
G1 X87.704 Y103.857 E57.80827
G1 X88.028 Y102.61 E57.87254
G1 X88.526 Y101.411 E57.93732
G1 X89.156 Y100.366 E57.99819
G1 X89.94 Y99.393 E58.06053
G1 X90.606 Y98.751 E58.10669
G1 X92.024 Y97.729 E58.19389
G1 X92.699 Y97.383 E58.23173
G1 X95.881 Y96.09 E58.40309
G1 X96.797 Y95.864 E58.45016
G1 X99.753 Y95.895 E58.59764
G1 X100.658 Y96.024 E58.64325
G1 X102.481 Y96.811 E58.74231
G1 X103.635 Y97.793 E58.81791
G1 X104.523 Y98.82 E58.88564
G1 X105.252 Y100.483 E58.97623
G1 X105.522 Y102.197 E59.0628
G1 X105.338 Y103.831 E59.14483
G1 X105.258 Y104.078 E59.15779
G1 X110.746 Y106.4 E59.45508
G1 X165.56 Y106.45 E62.18977
G1 X166.391 Y106.601 E62.2319
G1 X168.133 Y107.323 E62.32598
G1 X169.641 Y108.492 E62.42117
G1 X170.654 Y109.854 E62.50586
G1 X171.233 Y110.871 E62.56424
G1 X171.701 Y112.793 E62.66293
G1 X171.66 Y116.734 E62.85956
G1 X171.428 Y118.156 E62.93144
G1 X171.051 Y119.334 E62.99315
G1 X170.477 Y120.58 E63.06159
G1 X169.428 Y121.844 E63.14354
G1 X167.837 Y123.142 E63.24598
G1 X165.552 Y123.88 E63.36578
G1 X122.745 Y123.883 E65.50143
G1 X121.979 Y123.849 E65.53968
G1 X121.366 Y123.804 E65.57035
G1 X120.015 Y123.681 E65.63803
G1 X118.353 Y123.491 E65.72149
G1 X115.923 Y123.186 E65.84367
G1 X114.088 Y122.973 E65.93583
G1 X112.976 Y122.858 E65.99161
G1 X111.93 Y122.762 E66.04401
G1 X110.717 Y122.67 E66.1047
G1 X109.657 Y122.605 E66.15769
G1 X108.43 Y122.546 E66.21897
G1 X107.277 Y122.505 E66.27653
G1 X106.145 Y122.484 E66.33302
G1 X105.097 Y122.481 E66.3853
G1 X103.954 Y122.5 E66.44233
G1 X102.783 Y122.536 E66.50078
G1 X101.538 Y122.587 E66.56295
G1 X100.483 Y122.653 E66.61569
G1 X99.236 Y122.748 E66.67808
G1 X98.133 Y122.847 E66.73333
G1 X96.879 Y122.974 E66.79621
G1 X95.759 Y123.102 E66.85245
G1 X91.652 Y123.612 E67.05893
G1 X90.386 Y123.739 E67.1224
G1 X89.65 Y123.803 E67.15926
G1 X88.26 Y123.879 E67.22871
G1 X57.532 Y123.807 E68.76174
G1 X56.675 Y123.656 E68.80516
G1 X54.724 Y122.782 E68.91181
G1 X52.936 Y121.033 E69.0366
G1 X51.922 Y118.77 E69.16032
G1 X51.714 Y116.847 E69.25681
G1 X51.721 Y112.697 E69.46386
G1 X52.278 Y110.573 E69.57341
G1 X53.767 Y108.5 E69.70075
G1 X55.33 Y107.364 E69.79714
G0 F7500 X55.531 Y107.713
G1 F1500 X57.118 Y107.024 E69.88346
G1 X58.277 Y106.85 E69.94193
G1 X88.083 Y106.809 E71.42896
G1 X87.974 Y105.989 E71.47023
G1 X87.982 Y104.832 E71.52795
G1 X88.091 Y103.958 E71.5719
G1 X88.415 Y102.711 E71.63617
G1 X88.869 Y101.618 E71.69522
G1 X89.499 Y100.573 E71.7561
G1 X90.218 Y99.681 E71.81326
G1 X90.884 Y99.039 E71.85941
G1 X92.207 Y98.085 E71.94078
G1 X92.85 Y97.754 E71.97686
G1 X96.032 Y96.461 E72.14822
G1 X96.844 Y96.265 E72.18989
G1 X99.696 Y96.291 E72.33219
G1 X100.551 Y96.413 E72.37528
G1 X102.268 Y97.154 E72.46857
G1 X103.332 Y98.055 E72.53813
G1 X104.182 Y99.038 E72.60297
G1 X104.865 Y100.596 E72.68784
G1 X105.119 Y102.207 E72.7692
G1 X104.941 Y103.786 E72.84848
G1 X104.747 Y104.296 E72.8757
G1 X110.665 Y106.8 E73.19629
G1 X165.489 Y106.844 E75.93147
G1 X166.277 Y106.987 E75.97143
G1 X167.932 Y107.673 E76.06081
G1 X169.352 Y108.774 E76.15045
G1 X170.306 Y110.052 E76.23002
G1 X170.858 Y111.021 E76.28566
G1 X171.3 Y112.84 E76.37905
G1 X171.265 Y116.671 E76.57018
G1 X171.047 Y118.034 E76.63905
G1 X170.67 Y119.212 E76.70076
G1 X170.135 Y120.365 E76.76417
G1 X169.146 Y121.558 E76.84148
G1 X167.643 Y122.784 E76.93825
G1 X165.488 Y123.48 E77.05123
G1 X122.762 Y123.483 E79.18284
G1 X122.008 Y123.45 E79.22049
G1 X121.402 Y123.406 E79.25081
G1 X120.061 Y123.284 E79.31799
G1 X118.403 Y123.094 E79.40124
G1 X115.973 Y122.789 E79.52343
G1 X114.129 Y122.575 E79.61604
G1 X113.017 Y122.46 E79.67182
G1 X111.96 Y122.363 E79.72477
G1 X110.747 Y122.271 E79.78546
G1 X109.676 Y122.205 E79.839
G1 X108.449 Y122.146 E79.90028
G1 X107.291 Y122.105 E79.95809
G1 X106.152 Y122.084 E80.01493
G1 X105.091 Y122.081 E80.06786
G1 X103.942 Y122.1 E80.12519
G1 X102.767 Y122.136 E80.18384
G1 X101.522 Y122.187 E80.24601
G1 X100.453 Y122.254 E80.29944
G1 X99.206 Y122.349 E80.36184
G1 X98.093 Y122.449 E80.41759
G1 X96.839 Y122.576 E80.48047
G1 X95.71 Y122.705 E80.53716
G1 X91.612 Y123.214 E80.74318
G1 X90.351 Y123.341 E80.80641
G1 X89.628 Y123.404 E80.84262
G1 X88.261 Y123.479 E80.91092
G1 X57.602 Y123.413 E82.44051
G1 X56.792 Y123.27 E82.48155
G1 X54.954 Y122.447 E82.58202
G1 X53.269 Y120.799 E82.69961
G1 X52.314 Y118.666 E82.8162
G1 X52.114 Y116.848 E82.90745
G1 X52.121 Y112.75 E83.1119
G1 X52.647 Y110.745 E83.21531
G1 X54.054 Y108.787 E83.3356
G1 X55.531 Y107.713 E83.42671
G0 F7500 X55.728 Y108.063
G1 F1500 X57.227 Y107.413 E83.50823
G1 X58.337 Y107.246 E83.56423
G1 X88.54 Y107.208 E85.07106
G1 X88.371 Y105.936 E85.13508
G1 X88.379 Y104.882 E85.18767
G1 X88.488 Y104.008 E85.23161
G1 X88.785 Y102.863 E85.29062
G1 X89.212 Y101.825 E85.34662
G1 X89.842 Y100.78 E85.4075
G1 X90.496 Y99.969 E85.45948
G1 X91.162 Y99.327 E85.50563
G1 X92.39 Y98.441 E85.58117
G1 X93.033 Y98.11 E85.61725
G1 X96.126 Y96.85 E85.78388
G1 X96.891 Y96.665 E85.82314
G1 X99.64 Y96.687 E85.9603
G1 X100.442 Y96.801 E86.00071
G1 X102.054 Y97.497 E86.08831
G1 X103.073 Y98.36 E86.15493
G1 X103.84 Y99.254 E86.2137
G1 X104.478 Y100.709 E86.29296
G1 X104.716 Y102.217 E86.36912
G1 X104.55 Y103.689 E86.44303
G1 X104.236 Y104.514 E86.48707
G1 X110.585 Y107.2 E86.831
G1 X165.418 Y107.238 E89.56663
G1 X166.163 Y107.373 E89.6044
G1 X167.731 Y108.023 E89.68909
G1 X169.064 Y109.056 E89.77322
G1 X169.958 Y110.25 E89.84764
G1 X170.482 Y111.17 E89.90046
G1 X170.9 Y112.888 E89.98867
G1 X170.87 Y116.609 E90.17432
G1 X170.666 Y117.912 E90.24012
G1 X170.289 Y119.09 E90.30183
G1 X169.795 Y120.149 E90.36013
G1 X168.864 Y121.272 E90.4329
G1 X167.449 Y122.426 E90.524
G1 X165.424 Y123.08 E90.63016
G1 X122.779 Y123.083 E92.75773
G1 X122.037 Y123.051 E92.79478
G1 X121.438 Y123.008 E92.82474
G1 X120.107 Y122.887 E92.89142
G1 X118.453 Y122.697 E92.97448
G1 X116.023 Y122.392 E93.09667
G1 X114.17 Y122.177 E93.18973
G1 X113.058 Y122.062 E93.24551
G1 X111.99 Y121.964 E93.29901
G1 X110.777 Y121.872 E93.3597
G1 X109.695 Y121.805 E93.41379
G1 X108.468 Y121.746 E93.47508
G1 X107.305 Y121.705 E93.53313
G1 X106.159 Y121.684 E93.59032
G1 X105.085 Y121.681 E93.6439
G1 X103.93 Y121.7 E93.70153
G1 X102.751 Y121.736 E93.76038
G1 X101.506 Y121.787 E93.82254
G1 X100.423 Y121.855 E93.87668
G1 X99.176 Y121.95 E93.93908
G1 X98.053 Y122.051 E93.99533
G1 X96.799 Y122.178 E94.05821
G1 X95.661 Y122.308 E94.11535
G1 X91.572 Y122.816 E94.32092
G1 X90.316 Y122.943 E94.38391
