;FLAVOR:Marlin
;TIME:2021
;Filament used: 2.21067m
;Layer height: 0.4
;MINX:75.629
;MINY:97.204
;MINZ:0.3
;MAXX:145.298
;MAXY:122.796
;MAXZ:13.9
;Generated with Cura_SteamEngine 5.4.0
M140 S98
M105
M190 S98
M104 S240
M105
M109 S240
M82 ;absolute extrusion mode
G28 ;Home
G1 Z15.0 F2000 ;Move the platform
G92 E0
G92 E0
G1 F1500 E-6.5
;LAYER_COUNT:35
;LAYER:0
M107
M204 S1000
G0 F7500 X78.709 Y98.768 Z0.3
;TYPE:SKIRT
G1 F1500 E0
G1 X80.732 Y97.561 E0.11753
G1 X82.45 Y97.279 E0.20439
G1 X138.351 Y97.204 E2.9933
G1 X140.247 Y97.67 E3.09071
G1 X142.275 Y98.723 E3.20471
G1 X143.734 Y100.284 E3.31131
G1 X144.941 Y102.307 E3.42884
G1 X145.223 Y104.025 E3.51569
G1 X145.298 Y115.839 E4.10511
G1 X144.83 Y117.747 E4.20312
G1 X143.779 Y119.773 E4.31699
G1 X142.218 Y121.232 E4.42359
G1 X140.195 Y122.439 E4.54112
G1 X138.477 Y122.721 E4.62798
G1 X82.576 Y122.796 E7.41689
G1 X80.68 Y122.33 E7.5143
G1 X78.652 Y121.277 E7.6283
G1 X77.193 Y119.716 E7.7349
G1 X75.986 Y117.693 E7.85243
G1 X75.704 Y115.975 E7.93928
G1 X75.629 Y104.161 E8.5287
G1 X76.097 Y102.253 E8.62671
G1 X77.148 Y100.227 E8.74058
G1 X78.709 Y98.768 E8.84718
G0 F7500 X78.948 Y99.092
G1 F1500 X80.872 Y97.944 E8.95896
G1 X82.515 Y97.674 E9.04203
G1 X138.305 Y97.604 E11.8254
G1 X140.104 Y98.046 E11.91782
G1 X142.03 Y99.046 E12.02609
G1 X143.41 Y100.523 E12.12694
G1 X144.558 Y102.447 E12.23872
G1 X144.828 Y104.09 E12.32179
G1 X144.898 Y115.794 E12.90571
G1 X144.454 Y117.604 E12.99869
G1 X143.456 Y119.528 E13.10682
G1 X141.979 Y120.908 E13.20767
G1 X140.055 Y122.056 E13.31945
G1 X138.412 Y122.326 E13.40252
G1 X82.622 Y122.396 E16.18589
G1 X80.823 Y121.954 E16.27831
G1 X78.897 Y120.954 E16.38658
G1 X77.517 Y119.477 E16.48743
G1 X76.369 Y117.553 E16.59921
G1 X76.099 Y115.91 E16.68228
G1 X76.029 Y104.206 E17.2662
G1 X76.473 Y102.396 E17.35918
G1 X77.471 Y100.472 E17.46731
G1 X78.948 Y99.092 E17.56816
G0 F7500 X79.19 Y99.413
G1 F1500 X81.01 Y98.327 E17.6739
G1 X82.58 Y98.069 E17.75327
G1 X138.258 Y98.004 E20.53106
G1 X139.962 Y98.423 E20.61861
G1 X141.785 Y99.369 E20.72107
G1 X143.089 Y100.765 E20.81638
G1 X144.175 Y102.585 E20.92212
G1 X144.433 Y104.155 E21.00149
G1 X144.498 Y115.749 E21.57993
G1 X144.078 Y117.461 E21.66787
G1 X143.133 Y119.283 E21.77027
G1 X141.737 Y120.587 E21.86558
G1 X139.917 Y121.673 E21.97132
G1 X138.347 Y121.931 E22.05069
G1 X82.669 Y121.996 E24.82848
G1 X80.965 Y121.577 E24.91603
G1 X79.142 Y120.631 E25.01849
G1 X77.838 Y119.235 E25.1138
G1 X76.752 Y117.415 E25.21954
G1 X76.494 Y115.845 E25.29891
G1 X76.429 Y104.251 E25.87735
G1 X76.849 Y102.539 E25.96529
G1 X77.794 Y100.717 E26.06769
G1 X79.19 Y99.413 E26.163
G0 F7500 X79.432 Y99.734
G1 F1500 X81.148 Y98.71 E26.26269
G1 X82.645 Y98.464 E26.33838
G1 X138.212 Y98.404 E29.11063
G1 X139.819 Y98.799 E29.19319
G1 X141.54 Y99.692 E29.28992
G1 X142.768 Y101.007 E29.37969
G1 X143.792 Y102.723 E29.47938
G1 X144.038 Y104.22 E29.55507
G1 X144.098 Y115.704 E30.12802
G1 X143.702 Y117.318 E30.21093
G1 X142.81 Y119.038 E30.30759
G1 X141.495 Y120.266 E30.39736
G1 X139.779 Y121.29 E30.49705
G1 X138.282 Y121.536 E30.57274
G1 X82.715 Y121.596 E33.34499
G1 X81.108 Y121.201 E33.42755
G1 X79.387 Y120.308 E33.52428
G1 X78.159 Y118.993 E33.61405
G1 X77.135 Y117.277 E33.71374
G1 X76.889 Y115.78 E33.78943
G1 X76.829 Y104.296 E34.36238
G1 X77.225 Y102.682 E34.44529
G1 X78.117 Y100.962 E34.54195
G1 X79.432 Y99.734 E34.63172
G0 F7500 X79.674 Y100.055
G1 F1500 X81.286 Y99.093 E34.72537
G1 X82.71 Y98.859 E34.79737
G1 X138.166 Y98.804 E37.56408
G1 X139.676 Y99.175 E37.64165
G1 X141.295 Y100.015 E37.73265
G1 X142.447 Y101.249 E37.81687
G1 X143.409 Y102.861 E37.91053
G1 X143.643 Y104.285 E37.98252
G1 X143.698 Y115.659 E38.54998
G1 X143.326 Y117.175 E38.62786
G1 X142.487 Y118.793 E38.71879
G1 X141.253 Y119.945 E38.80301
G1 X139.641 Y120.907 E38.89667
G1 X138.217 Y121.141 E38.96866
G1 X82.761 Y121.196 E41.73538
G1 X81.251 Y120.825 E41.81295
G1 X79.632 Y119.985 E41.90395
G1 X78.48 Y118.751 E41.98817
G1 X77.518 Y117.139 E42.08183
G1 X77.284 Y115.715 E42.15382
G1 X77.229 Y104.341 E42.72128
G1 X77.601 Y102.825 E42.79916
G1 X78.44 Y101.207 E42.89009
G1 X79.674 Y100.055 E42.97431
G0 F7500 X79.916 Y100.376
G1 F1500 X81.424 Y99.476 E43.06192
G1 X82.775 Y99.254 E43.13023
G1 X138.119 Y99.204 E45.89135
G1 X139.534 Y99.552 E45.96405
G1 X141.05 Y100.338 E46.04925
G1 X142.126 Y101.491 E46.12793
G1 X143.026 Y102.999 E46.21554
G1 X143.248 Y104.35 E46.28385
G1 X143.298 Y115.614 E46.84582
G1 X142.95 Y117.032 E46.91866
G1 X142.164 Y118.548 E47.00385
G1 X141.011 Y119.624 E47.08254
G1 X139.503 Y120.524 E47.17015
G1 X138.152 Y120.746 E47.23846
G1 X82.808 Y120.796 E49.99958
G1 X81.393 Y120.448 E50.07228
G1 X79.877 Y119.662 E50.15747
G1 X78.801 Y118.509 E50.23615
G1 X77.901 Y117.001 E50.32377
G1 X77.679 Y115.65 E50.39207
G1 X77.629 Y104.386 E50.95404
G1 X77.977 Y102.968 E51.02689
G1 X78.763 Y101.452 E51.11208
G1 X79.916 Y100.376 E51.19076
G0 F7500 X80.158 Y100.697
G1 F1500 X81.562 Y99.859 E51.27234
G1 X82.84 Y99.649 E51.33695
G1 X138.073 Y99.604 E54.09254
G1 X139.391 Y99.928 E54.16025
G1 X140.805 Y100.661 E54.23971
G1 X141.805 Y101.733 E54.31285
G1 X142.643 Y103.137 E54.39442
G1 X142.853 Y104.415 E54.45904
G1 X142.898 Y115.569 E55.01552
G1 X142.574 Y116.889 E55.08333
G1 X141.841 Y118.303 E55.16279
G1 X140.769 Y119.303 E55.23593
G1 X139.365 Y120.141 E55.3175
G1 X138.087 Y120.351 E55.38212
G1 X82.854 Y120.396 E58.1377
G1 X81.536 Y120.072 E58.20542
G1 X80.122 Y119.339 E58.28488
G1 X79.122 Y118.267 E58.35802
G1 X78.284 Y116.863 E58.43959
G1 X78.074 Y115.585 E58.5042
G1 X78.029 Y104.431 E59.06068
G1 X78.353 Y103.111 E59.12849
G1 X79.086 Y101.697 E59.20795
G1 X80.158 Y100.697 E59.28109
G0 F7500 X80.403 Y101.016
G1 F1500 X81.7 Y100.242 E59.35645
G1 X82.905 Y100.044 E59.41737
G1 X138.027 Y100.004 E62.16742
G1 X139.248 Y100.304 E62.23015
G1 X140.558 Y100.983 E62.30376
G1 X141.486 Y101.978 E62.37164
G1 X142.26 Y103.275 E62.447
G1 X142.458 Y104.48 E62.50792
G1 X142.498 Y115.524 E63.05891
G1 X142.198 Y116.746 E63.12169
G1 X141.519 Y118.056 E63.1953
G1 X140.524 Y118.984 E63.26318
G1 X139.227 Y119.758 E63.33853
G1 X138.022 Y119.956 E63.39946
G1 X82.9 Y119.996 E66.14951
G1 X81.679 Y119.696 E66.21223
G1 X80.369 Y119.017 E66.28585
G1 X79.441 Y118.022 E66.35373
G1 X78.667 Y116.725 E66.42908
G1 X78.469 Y115.52 E66.49001
G1 X78.429 Y104.476 E67.041
G1 X78.729 Y103.254 E67.10377
G1 X79.408 Y101.944 E67.17739
G1 X80.403 Y101.016 E67.24527
G0 F7500 X80.645 Y101.338
G1 F1500 X81.84 Y100.625 E67.31469
G1 X82.97 Y100.439 E67.37183
G1 X137.981 Y100.404 E70.11634
G1 X139.105 Y100.68 E70.17408
G1 X140.311 Y101.305 E70.24185
G1 X141.164 Y102.22 E70.30426
G1 X141.877 Y103.415 E70.37368
G1 X142.063 Y104.545 E70.43081
G1 X142.098 Y115.479 E70.97632
G1 X141.822 Y116.603 E71.03406
G1 X141.197 Y117.809 E71.10183
G1 X140.282 Y118.662 E71.16424
G1 X139.087 Y119.375 E71.23366
G1 X137.957 Y119.561 E71.29079
G1 X82.946 Y119.596 E74.03531
G1 X81.822 Y119.32 E74.09305
G1 X80.616 Y118.695 E74.16081
G1 X79.763 Y117.78 E74.22322
G1 X79.05 Y116.585 E74.29265
G1 X78.864 Y115.455 E74.34978
G1 X78.829 Y104.521 E74.89529
G1 X79.105 Y103.397 E74.95303
G1 X79.73 Y102.191 E75.0208
G1 X80.645 Y101.338 E75.0832
G0 F7500 X80.887 Y101.66
G1 F1500 X81.98 Y101.008 E75.1467
G1 X83.035 Y100.834 E75.20004
G1 X137.934 Y100.804 E77.93897
G1 X138.963 Y101.057 E77.99183
G1 X140.064 Y101.627 E78.05369
G1 X140.842 Y102.462 E78.11063
G1 X141.494 Y103.555 E78.17412
G1 X141.668 Y104.61 E78.22747
G1 X141.698 Y115.432 E78.76738
G1 X141.445 Y116.461 E78.82025
G1 X140.875 Y117.562 E78.8821
G1 X140.04 Y118.34 E78.93904
G1 X138.947 Y118.992 E79.00253
G1 X137.892 Y119.166 E79.05588
G1 X82.993 Y119.196 E81.7948
G1 X81.964 Y118.943 E81.84767
G1 X80.863 Y118.373 E81.90952
G1 X80.085 Y117.538 E81.96646
G1 X79.433 Y116.445 E82.02995
G1 X79.259 Y115.39 E82.0833
G1 X79.229 Y104.568 E82.62321
G1 X79.482 Y103.539 E82.67608
G1 X80.052 Y102.438 E82.73793
G1 X80.887 Y101.66 E82.79487
G0 F7500 X81.129 Y101.982
G1 F1500 X82.12 Y101.391 E82.85244
G1 X83.1 Y101.229 E82.90199
G1 X137.888 Y101.204 E85.63538
G1 X138.82 Y101.433 E85.68326
G1 X139.817 Y101.949 E85.73927
G1 X140.52 Y102.704 E85.79073
G1 X141.111 Y103.695 E85.8483
G1 X141.273 Y104.675 E85.89785
G1 X141.298 Y115.386 E86.43223
G1 X141.069 Y116.318 E86.48011
G1 X140.553 Y117.315 E86.53612
G1 X139.798 Y118.018 E86.58759
G1 X138.807 Y118.609 E86.64515
G1 X137.827 Y118.771 E86.69471
G1 X83.039 Y118.796 E89.42809
G1 X82.107 Y118.567 E89.47597
G1 X81.11 Y118.051 E89.53198
G1 X80.407 Y117.296 E89.58345
G1 X79.816 Y116.305 E89.64101
G1 X79.654 Y115.325 E89.69057
G1 X79.629 Y104.614 E90.22495
G1 X79.858 Y103.682 E90.27283
G1 X80.374 Y102.685 E90.32883
G1 X81.129 Y101.982 E90.3803
G0 F7500 X81.368 Y102.306
G1 F1500 X82.26 Y101.774 E90.43212
G1 X83.165 Y101.624 E90.47788
G1 X137.842 Y101.604 E93.20573
G1 X138.677 Y101.809 E93.24863
G1 X139.572 Y102.272 E93.2989
G1 X140.196 Y102.943 E93.34461
G1 X140.728 Y103.835 E93.39643
G1 X140.878 Y104.74 E93.4422
G1 X140.898 Y115.34 E93.97103
G1 X140.693 Y116.175 E94.01393
G1 X140.23 Y117.07 E94.0642
G1 X139.559 Y117.694 E94.10992
G1 X138.667 Y118.226 E94.16173
G1 X137.762 Y118.376 E94.2075
G1 X83.085 Y118.396 E96.93534
G1 X82.25 Y118.191 E96.97824
G1 X81.355 Y117.728 E97.02851
G1 X80.731 Y117.057 E97.07423
G1 X80.199 Y116.165 E97.12604
G1 X80.049 Y115.26 E97.17181
G1 X80.029 Y104.66 E97.70065
G1 X80.234 Y103.825 E97.74354
G1 X80.697 Y102.93 E97.79382
G1 X81.368 Y102.306 E97.83953
G0 F7500 X81.607 Y102.63
G1 F1500 X82.4 Y102.157 E97.8856
G1 X83.231 Y102.019 E97.92762
G1 X137.796 Y102.004 E100.64988
G1 X138.534 Y102.185 E100.68779
G1 X139.327 Y102.595 E100.73233
G1 X139.872 Y103.182 E100.77229
G1 X140.345 Y103.975 E100.81836
G1 X140.483 Y104.806 E100.86038
G1 X140.498 Y115.294 E101.38363
G1 X140.317 Y116.032 E101.42154
G1 X139.907 Y116.825 E101.46608
G1 X139.32 Y117.37 E101.50604
G1 X138.527 Y117.843 E101.55211
G1 X137.696 Y117.981 E101.59414
G1 X83.131 Y117.996 E104.3164
G1 X82.393 Y117.815 E104.35431
G1 X81.6 Y117.405 E104.39884
G1 X81.055 Y116.818 E104.43881
G1 X80.582 Y116.025 E104.48487
G1 X80.444 Y115.194 E104.5269
G1 X80.429 Y104.706 E105.05015
G1 X80.61 Y103.968 E105.08806
G1 X81.02 Y103.175 E105.1326
G1 X81.607 Y102.63 E105.17256
G0 F7500 X81.846 Y102.954
G1 F1500 X82.54 Y102.54 E105.21287
G1 X83.297 Y102.414 E105.25116
G1 X137.746 Y102.404 E107.96763
G1 X138.395 Y102.563 E108.00097
G1 X139.082 Y102.918 E108.03955
G1 X139.548 Y103.421 E108.07376
G1 X139.962 Y104.115 E108.11407
G1 X140.088 Y104.872 E108.15236
G1 X140.098 Y115.244 E108.66982
G1 X139.939 Y115.893 E108.70316
G1 X139.584 Y116.58 E108.74174
G1 X139.081 Y117.046 E108.77595
G1 X138.387 Y117.46 E108.81626
G1 X137.63 Y117.586 E108.85455
G1 X83.181 Y117.596 E111.57102
G1 X82.532 Y117.437 E111.60436
G1 X81.845 Y117.082 E111.64294
G1 X81.379 Y116.579 E111.67715
G1 X80.965 Y115.885 E111.71746
G1 X80.839 Y115.128 E111.75575
G1 X80.829 Y104.756 E112.27321
G1 X80.988 Y104.107 E112.30655
G1 X81.343 Y103.42 E112.34513
G1 X81.846 Y102.954 E112.37934
G0 F7500 X82.085 Y103.278
G1 F1500 X82.68 Y102.923 E112.4139
G1 X83.363 Y102.809 E112.44845
G1 X137.696 Y102.804 E115.15913
G1 X138.256 Y102.941 E115.1879
G1 X138.836 Y103.241 E115.22047
G1 X139.224 Y103.66 E115.24896
G1 X139.579 Y104.255 E115.28353
G1 X139.693 Y104.938 E115.31808
G1 X139.698 Y115.194 E115.82975
G1 X139.561 Y115.754 E115.85851
G1 X139.261 Y116.334 E115.89109
G1 X138.842 Y116.722 E115.91958
G1 X138.247 Y117.077 E115.95415
G1 X137.564 Y117.191 E115.9887
G1 X83.231 Y117.196 E118.69938
G1 X82.671 Y117.059 E118.72814
G1 X82.091 Y116.759 E118.76072
G1 X81.703 Y116.34 E118.78921
G1 X81.348 Y115.745 E118.82378
G1 X81.234 Y115.062 E118.85832
G1 X81.229 Y104.806 E119.37
G1 X81.366 Y104.246 E119.39876
G1 X81.666 Y103.666 E119.43134
G1 X82.085 Y103.278 E119.45983
G0 F7500 X82.327 Y103.599
G1 F1500 X82.818 Y103.306 E119.48835
G1 X83.429 Y103.204 E119.51926
G1 X137.646 Y103.204 E122.22416
G1 X138.117 Y103.319 E122.24834
G1 X138.59 Y103.564 E122.27492
G1 X138.903 Y103.902 E122.2979
G1 X139.196 Y104.393 E122.32643
G1 X139.298 Y105.004 E122.35733
G1 X139.298 Y115.144 E122.86322
G1 X139.183 Y115.615 E122.88741
G1 X138.938 Y116.088 E122.91398
G1 X138.6 Y116.401 E122.93697
G1 X138.109 Y116.694 E122.96549
G1 X137.498 Y116.796 E122.9964
G1 X83.281 Y116.796 E125.7013
G1 X82.81 Y116.681 E125.72548
G1 X82.337 Y116.436 E125.75206
G1 X82.024 Y116.098 E125.77504
G1 X81.731 Y115.607 E125.80357
G1 X81.629 Y114.996 E125.83447
G1 X81.629 Y104.856 E126.34036
G1 X81.744 Y104.385 E126.36455
G1 X81.989 Y103.912 E126.39112
G1 X82.327 Y103.599 E126.41411
G0 F7500 X82.569 Y103.92
G1 F1500 X82.956 Y103.689 E126.43659
G1 X83.429 Y103.604 E126.46057
G1 X137.596 Y103.604 E129.16297
G1 X137.978 Y103.697 E129.18259
G1 X138.344 Y103.887 E129.20316
G1 X138.582 Y104.144 E129.22064
G1 X138.813 Y104.531 E129.24312
G1 X138.898 Y105.004 E129.2671
G1 X138.898 Y115.094 E129.77049
G1 X138.805 Y115.476 E129.7901
G1 X138.615 Y115.842 E129.81068
G1 X138.358 Y116.08 E129.82815
G1 X137.971 Y116.311 E129.85064
G1 X137.498 Y116.396 E129.87461
G1 X83.331 Y116.396 E132.57702
G1 X82.949 Y116.303 E132.59663
G1 X82.583 Y116.113 E132.6172
G1 X82.345 Y115.856 E132.63468
G1 X82.114 Y115.469 E132.65717
G1 X82.029 Y114.996 E132.68114
G1 X82.029 Y104.906 E133.18453
G1 X82.122 Y104.524 E133.20415
G1 X82.312 Y104.158 E133.22472
G1 X82.569 Y103.92 E133.2422
G0 F7500 X82.774 Y104.264
G1 F1500 X83.101 Y104.069 E133.26119
G1 X83.429 Y104.004 E133.27787
G1 X137.547 Y104.004 E135.97783
G1 X137.836 Y104.074 E135.99267
G1 X138.099 Y104.211 E136.00746
G1 X138.238 Y104.349 E136.01723
G1 X138.433 Y104.676 E136.03623
G1 X138.498 Y105.004 E136.05291
G1 X138.498 Y115.045 E136.55386
G1 X138.428 Y115.334 E136.56869
G1 X138.291 Y115.597 E136.58349
G1 X138.153 Y115.736 E136.59326
G1 X137.826 Y115.931 E136.61226
G1 X137.498 Y115.996 E136.62894
G1 X83.38 Y115.996 E139.3289
G1 X83.091 Y115.926 E139.34373
G1 X82.828 Y115.789 E139.35853
G1 X82.689 Y115.651 E139.3683
G1 X82.494 Y115.324 E139.38729
G1 X82.429 Y114.996 E139.40397
G1 X82.429 Y104.955 E139.90492
G1 X82.499 Y104.666 E139.91976
G1 X82.636 Y104.403 E139.93455
G1 X82.774 Y104.264 E139.94432
G0 F7500 X83.268 Y104.885
G1 F1500 X83.429 Y104.804 E139.95331
G1 X137.498 Y104.804 E142.65083
G1 X137.617 Y104.843 E142.65708
G1 X137.698 Y105.004 E142.66607
G1 X137.698 Y114.996 E143.16457
G1 X137.659 Y115.115 E143.17082
G1 X137.498 Y115.196 E143.17981
G1 X83.429 Y115.196 E145.87732
G1 X83.31 Y115.157 E145.88357
G1 X83.229 Y114.996 E145.89256
G1 X83.229 Y105.004 E146.39106
G1 X83.268 Y104.885 E146.39731
G0 F7500 X82.979 Y104.608
G1 F1500 X83.249 Y104.447 E146.413
G1 X83.429 Y104.404 E146.42223
G1 X137.498 Y104.404 E149.11974
G1 X137.742 Y104.463 E149.13227
G1 X137.894 Y104.554 E149.1411
G1 X138.055 Y104.824 E149.15679
G1 X138.098 Y105.004 E149.16602
G1 X138.098 Y114.996 E149.66452
G1 X138.039 Y115.24 E149.67705
G1 X137.948 Y115.392 E149.68589
G1 X137.678 Y115.553 E149.70157
G1 X137.498 Y115.596 E149.7108
G1 X83.429 Y115.596 E152.40832
G1 X83.185 Y115.537 E152.42084
G1 X83.033 Y115.446 E152.42968
G1 X82.872 Y115.176 E152.44536
G1 X82.829 Y114.996 E152.45459
G1 X82.829 Y105.004 E152.9531
G1 X82.888 Y104.76 E152.96562
G1 X82.979 Y104.608 E152.97446
G1 F1500 E146.47446
;MESH:Lower Belt C Primo.STL
G0 F7500 X83.843 Y105.418
G0 X84.029 Y114.396
;TYPE:WALL-INNER
G1 F1500 E152.97446
G1 X136.898 Y114.396 E155.61211
G1 X136.898 Y105.604 E156.05074
G1 X84.029 Y105.604 E158.68839
G1 X84.029 Y114.396 E159.12702
G0 F7500 X83.629 Y114.796
;TYPE:WALL-OUTER
G1 F1500 X137.298 Y114.796 E161.80458
G1 X137.298 Y105.204 E162.28312
G1 X83.629 Y105.204 E164.96068
G1 X83.629 Y114.796 E165.43923
G0 F7500 X83.829 Y114.796
G0 X84.389 Y114.036
;TYPE:SKIN
G1 F1500 X84.389 Y105.964 E165.84194
G1 X136.538 Y105.964 E168.44367
G1 X136.538 Y114.036 E168.84638
G1 X84.389 Y114.036 E171.4481
G0 F7500 X84.589 Y113.439
G1 F1500 X84.985 Y113.834 E171.47601
G0 F7500 X85.55 Y113.834
G1 F1500 X84.589 Y112.873 E171.54381
G0 F7500 X84.589 Y112.307
G1 F1500 X86.116 Y113.834 E171.65155
G0 F7500 X86.682 Y113.834
