;FLAVOR:Marlin
;TIME:9483
;Filament used: 11.1675m
;Layer height: 0.4
;MINX:40.637
;MINY:68.538
;MINZ:0.3
;MAXX:179.334
;MAXY:151.48
;MAXZ:15.9
;Generated with Cura_SteamEngine 5.4.0
M140 S98
M105
M190 S98
M104 S240
M105
M109 S240
M82 ;absolute extrusion mode
G28 ;Home
G1 Z15.0 F2000 ;Move the platform
G92 E0
G92 E0
G1 F1500 E-6.5
;LAYER_COUNT:40
;LAYER:0
M107
M204 S1000
G0 F7500 X85.386 Y72.293 Z0.3
;TYPE:SKIRT
G1 F1500 E0
G1 X86.771 Y71.106 E0.091
G1 X88.323 Y70.109 E0.18303
G1 X89.943 Y69.362 E0.27203
G1 X91.069 Y68.997 E0.33109
G1 X94.08 Y68.538 E0.48304
G1 X127.068 Y68.62 E2.12883
G1 X128.175 Y68.812 E2.18488
G1 X130.335 Y69.483 E2.29772
G1 X132.188 Y70.403 E2.40093
G1 X133.421 Y71.251 E2.47559
G1 X134.877 Y72.546 E2.57281
G1 X176.921 Y117.037 E5.62678
G1 X177.79 Y118.228 E5.70034
G1 X178.521 Y119.559 E5.7761
G1 X179.108 Y121.384 E5.87174
G1 X179.334 Y122.873 E5.94688
G1 X179.311 Y124.866 E6.04632
G1 X179.085 Y126.098 E6.10881
G1 X178.408 Y128.041 E6.21146
G1 X177.769 Y129.218 E6.27828
G1 X177.051 Y130.235 E6.34039
G1 X170.466 Y138.151 E6.8541
G1 X169.169 Y139.096 E6.93416
G1 X168.41 Y140.611 E7.0187
G1 X162.081 Y148.175 E7.51074
G1 X161.058 Y149.129 E7.58053
G1 X159.35 Y150.276 E7.68317
G1 X158.482 Y150.687 E7.73109
G1 X156.773 Y151.217 E7.82036
G1 X155.188 Y151.48 E7.90051
G1 X153.633 Y151.415 E7.97816
G1 X151.83 Y151.083 E8.06962
G1 X150.474 Y150.614 E8.14121
G1 X149.863 Y150.325 E8.17493
G1 X132.191 Y139.976 E9.19664
G1 X131.498 Y139.549 E9.23725
G1 X127.881 Y137.391 E9.44738
G1 X124.62 Y135.86 E9.62711
G1 X121.052 Y134.593 E9.81601
G1 X117.476 Y133.692 E10
G1 X113.787 Y133.151 E10.18601
G1 X109.998 Y132.97 E10.37526
G1 X106.213 Y133.15 E10.56431
G1 X102.529 Y133.691 E10.75007
G1 X98.942 Y134.595 E10.93463
G1 X95.379 Y135.859 E11.12324
G1 X91.964 Y137.467 E11.31156
G1 X88.524 Y139.522 E11.51147
G1 X87.632 Y140.074 E11.5638
G1 X70.256 Y150.251 E12.56844
G1 X68.556 Y150.977 E12.66066
G1 X67.826 Y151.178 E12.69844
G1 X65.243 Y151.469 E12.82812
G1 X64.657 Y151.44 E12.85739
G1 X62.32 Y150.976 E12.97626
G1 X60.904 Y150.406 E13.05241
G1 X59.975 Y149.884 E13.10558
G1 X58.549 Y148.801 E13.19491
G1 X57.873 Y148.133 E13.24233
G1 X51.227 Y140.172 E13.75971
G1 X50.858 Y139.112 E13.81571
G1 X50.652 Y138.996 E13.8275
G1 X49.673 Y138.308 E13.8872
G1 X42.657 Y129.837 E14.43595
G1 X41.901 Y128.648 E14.50625
G1 X41.013 Y126.508 E14.62184
G1 X40.756 Y125.355 E14.68077
G1 X40.637 Y124.253 E14.73607
G1 X40.748 Y122.086 E14.84433
G1 X41.046 Y120.654 E14.9173
G1 X41.893 Y118.769 E15.0204
G1 X42.608 Y117.636 E15.08724
G1 X43.391 Y116.67 E15.14928
G1 X85.386 Y72.293 E18.19744
G0 F7500 X85.677 Y72.568
G1 F1500 X86.988 Y71.442 E18.28366
G1 X88.491 Y70.472 E18.37291
G1 X90.066 Y69.743 E18.45949
G1 X91.192 Y69.378 E18.51855
G1 X94.079 Y68.938 E18.66424
G1 X127.001 Y69.014 E20.30673
G1 X128.056 Y69.194 E20.36013
G1 X130.216 Y69.865 E20.47297
G1 X131.961 Y70.733 E20.5702
G1 X133.194 Y71.581 E20.64486
G1 X134.586 Y72.821 E20.73787
G1 X176.598 Y117.274 E23.78937
G1 X177.439 Y118.421 E23.86033
G1 X178.153 Y119.721 E23.93432
G1 X178.727 Y121.506 E24.02787
G1 X178.934 Y122.868 E24.0966
G1 X178.911 Y124.861 E24.19604
G1 X178.707 Y125.966 E24.2521
G1 X178.03 Y127.909 E24.35475
G1 X177.418 Y129.026 E24.41829
G1 X176.743 Y129.979 E24.47656
G1 X170.189 Y137.858 E24.98786
G1 X168.855 Y138.83 E25.07021
G1 X168.073 Y140.39 E25.15727
G1 X161.808 Y147.882 E25.64451
G1 X160.785 Y148.836 E25.7143
G1 X159.179 Y149.914 E25.8108
G1 X158.311 Y150.325 E25.85871
G1 X156.708 Y150.822 E25.94244
G1 X155.164 Y151.078 E26.02052
G1 X153.65 Y151.015 E26.09612
G1 X151.96 Y150.705 E26.18184
G1 X150.645 Y150.252 E26.25123
G1 X150.034 Y149.963 E26.28495
G1 X132.401 Y139.635 E27.30446
G1 X131.708 Y139.208 E27.34507
G1 X128.074 Y137.04 E27.55618
G1 X124.771 Y135.489 E27.73823
G1 X121.167 Y134.209 E27.92904
G1 X117.554 Y133.299 E28.11493
G1 X113.823 Y132.752 E28.30306
G1 X109.998 Y132.569 E28.4941
G1 X106.177 Y132.751 E28.68495
G1 X102.451 Y133.298 E28.87283
G1 X98.827 Y134.211 E29.05929
G1 X95.228 Y135.488 E29.24981
G1 X91.779 Y137.112 E29.44
G1 X88.319 Y139.179 E29.64108
G1 X87.43 Y139.729 E29.69323
G1 X70.098 Y149.883 E30.69539
G1 X68.45 Y150.591 E30.78488
G1 X67.72 Y150.792 E30.82265
G1 X65.263 Y151.069 E30.94601
G1 X64.677 Y151.04 E30.97528
G1 X62.434 Y150.591 E31.08941
G1 X61.1 Y150.057 E31.16109
G1 X60.171 Y149.535 E31.21426
G1 X58.83 Y148.516 E31.29828
G1 X58.154 Y147.848 E31.3457
G1 X51.581 Y139.973 E31.85746
G1 X51.185 Y138.835 E31.91757
G1 X50.882 Y138.669 E31.93481
G1 X49.947 Y138.012 E31.99182
G1 X42.995 Y129.622 E32.53542
G1 X42.239 Y128.433 E32.60572
G1 X41.403 Y126.42 E32.71446
G1 X41.154 Y125.312 E32.77112
G1 X41.035 Y124.21 E32.82642
G1 X41.14 Y122.167 E32.92848
G1 X41.429 Y120.778 E32.99926
G1 X42.258 Y118.933 E33.10017
G1 X42.946 Y117.85 E33.16418
G1 X43.682 Y116.945 E33.22238
G1 X85.677 Y72.568 E36.27054
G0 F7500 X85.968 Y72.843
G1 F1500 X87.206 Y71.778 E36.35202
G1 X88.66 Y70.835 E36.43848
G1 X90.189 Y70.124 E36.52261
G1 X91.315 Y69.759 E36.58166
G1 X94.078 Y69.338 E36.7211
G1 X126.935 Y69.409 E38.36034
G1 X127.937 Y69.576 E38.41102
G1 X130.097 Y70.247 E38.52387
G1 X131.734 Y71.063 E38.61512
G1 X132.967 Y71.911 E38.68978
G1 X134.295 Y73.096 E38.77857
G1 X176.275 Y117.511 E41.8276
G1 X177.116 Y118.658 E41.89856
G1 X177.783 Y119.879 E41.96797
G1 X178.346 Y121.629 E42.05969
G1 X178.534 Y122.863 E42.12196
G1 X178.511 Y124.856 E42.2214
G1 X178.329 Y125.834 E42.27103
G1 X177.652 Y127.777 E42.37368
G1 X177.091 Y128.795 E42.43167
G1 X176.435 Y129.723 E42.48837
G1 X169.912 Y137.565 E42.99727
G1 X168.541 Y138.564 E43.0819
G1 X167.736 Y140.169 E43.17148
G1 X161.535 Y147.589 E43.65392
G1 X160.512 Y148.543 E43.7237
G1 X159.008 Y149.552 E43.81406
G1 X158.14 Y149.963 E43.86197
G1 X156.643 Y150.427 E43.94016
G1 X155.14 Y150.676 E44.01617
G1 X153.667 Y150.615 E44.08972
G1 X152.09 Y150.327 E44.1697
G1 X150.816 Y149.89 E44.2369
G1 X150.205 Y149.601 E44.27062
G1 X132.611 Y139.294 E45.28792
G1 X131.918 Y138.867 E45.32853
G1 X128.267 Y136.689 E45.54062
G1 X124.922 Y135.118 E45.725
G1 X121.282 Y133.825 E45.91771
G1 X117.632 Y132.906 E46.1055
G1 X113.859 Y132.353 E46.29574
G1 X109.998 Y132.168 E46.48859
G1 X106.141 Y132.352 E46.68123
G1 X102.373 Y132.905 E46.87123
G1 X98.712 Y133.827 E47.05959
G1 X95.077 Y135.117 E47.25202
G1 X91.594 Y136.757 E47.44409
G1 X88.114 Y138.836 E47.64633
G1 X87.228 Y139.384 E47.6983
G1 X69.896 Y149.538 E48.70046
G1 X68.344 Y150.205 E48.78474
G1 X67.614 Y150.406 E48.82252
G1 X65.283 Y150.669 E48.93955
G1 X64.697 Y150.64 E48.96882
G1 X62.582 Y150.219 E49.07641
G1 X61.296 Y149.708 E49.14545
G1 X60.367 Y149.186 E49.19861
G1 X59.111 Y148.231 E49.27733
G1 X58.435 Y147.563 E49.32474
G1 X51.935 Y139.774 E49.83087
G1 X51.512 Y138.558 E49.8951
G1 X51.075 Y138.318 E49.91998
G1 X50.221 Y137.716 E49.9721
G1 X43.333 Y129.407 E50.51056
G1 X42.577 Y128.218 E50.58085
G1 X41.793 Y126.331 E50.6828
G1 X41.552 Y125.269 E50.73713
G1 X41.433 Y124.167 E50.79243
G1 X41.532 Y122.249 E50.88824
G1 X41.813 Y120.899 E50.95704
G1 X42.596 Y119.147 E51.05278
G1 X43.257 Y118.102 E51.11447
G1 X43.973 Y117.22 E51.17115
G1 X85.968 Y72.843 E54.21931
G0 F7500 X86.259 Y73.118
G1 F1500 X87.424 Y72.114 E54.29604
G1 X88.878 Y71.171 E54.3825
G1 X90.312 Y70.505 E54.46138
G1 X91.438 Y70.14 E54.52043
G1 X94.077 Y69.738 E54.65361
G1 X126.869 Y69.804 E56.28962
G1 X127.871 Y69.971 E56.3403
G1 X129.919 Y70.605 E56.44726
G1 X131.507 Y71.393 E56.5357
G1 X132.74 Y72.241 E56.61036
G1 X134.004 Y73.371 E56.69494
G1 X175.984 Y117.786 E59.74397
G1 X176.765 Y118.85 E59.80982
G1 X177.414 Y120.038 E59.87736
G1 X177.965 Y121.751 E59.96713
G1 X178.134 Y122.859 E60.02305
G1 X178.117 Y124.785 E60.11914
G1 X177.951 Y125.703 E60.16568
G1 X177.301 Y127.585 E60.26502
G1 X176.764 Y128.564 E60.32073
G1 X176.108 Y129.492 E60.37742
G1 X169.637 Y137.27 E60.88221
G1 X168.227 Y138.298 E60.96926
G1 X167.398 Y139.95 E61.06148
G1 X161.262 Y147.296 E61.539
G1 X160.239 Y148.25 E61.60879
G1 X158.837 Y149.19 E61.693
G1 X157.969 Y149.601 E61.74092
G1 X156.578 Y150.032 E61.81357
G1 X155.115 Y150.274 E61.88755
G1 X153.738 Y150.221 E61.9563
G1 X152.219 Y149.948 E62.0333
G1 X150.987 Y149.528 E62.09823
G1 X150.376 Y149.239 E62.13196
G1 X132.821 Y138.953 E63.14705
G1 X132.128 Y138.526 E63.18766
G1 X128.46 Y136.338 E63.40074
G1 X125.073 Y134.747 E63.58743
G1 X121.397 Y133.441 E63.78206
G1 X117.71 Y132.513 E63.97174
G1 X113.895 Y131.954 E64.1641
G1 X109.998 Y131.767 E64.35875
G1 X106.105 Y131.953 E64.55319
G1 X102.295 Y132.512 E64.74531
G1 X98.597 Y133.443 E64.93556
G1 X94.926 Y134.746 E65.1299
G1 X91.409 Y136.402 E65.32384
G1 X87.909 Y138.493 E65.52725
G1 X87.026 Y139.039 E65.57904
G1 X69.694 Y149.193 E66.58121
G1 X68.238 Y149.819 E66.66027
G1 X67.508 Y150.02 E66.69805
G1 X65.303 Y150.269 E66.80876
G1 X64.717 Y150.24 E66.83803
G1 X62.696 Y149.834 E66.94087
G1 X61.492 Y149.359 E67.00544
G1 X60.563 Y148.837 E67.05861
G1 X59.392 Y147.946 E67.13202
G1 X58.716 Y147.278 E67.17943
G1 X52.29 Y139.575 E67.6799
G1 X51.839 Y138.28 E67.74832
G1 X51.305 Y137.991 E67.77861
G1 X50.495 Y137.42 E67.82805
G1 X43.671 Y129.192 E68.36136
G1 X42.915 Y128.003 E68.43165
G1 X42.183 Y126.242 E68.5268
G1 X41.95 Y125.226 E68.5788
G1 X41.831 Y124.124 E68.6341
G1 X41.924 Y122.33 E68.72372
G1 X42.196 Y121.023 E68.79033
G1 X42.935 Y119.36 E68.88112
G1 X43.568 Y118.354 E68.94041
G1 X44.264 Y117.495 E68.99557
G1 X86.259 Y73.118 E72.04374
G0 F7500 X86.55 Y73.393
G1 F1500 X87.642 Y72.45 E72.11572
G1 X89.096 Y71.507 E72.20218
G1 X90.435 Y70.886 E72.27582
G1 X91.561 Y70.521 E72.33487
G1 X94.076 Y70.138 E72.46179
G1 X126.803 Y70.199 E74.09455
G1 X127.805 Y70.366 E74.14523
G1 X129.742 Y70.964 E74.24637
G1 X131.28 Y71.723 E74.33193
G1 X132.513 Y72.571 E74.40659
G1 X133.713 Y73.646 E74.48697
G1 X175.662 Y118.024 E77.53359
G1 X176.414 Y119.042 E77.59674
G1 X177.045 Y120.197 E77.6624
G1 X177.584 Y121.873 E77.75023
G1 X177.734 Y122.857 E77.79989
G1 X177.723 Y124.714 E77.89254
G1 X177.557 Y125.632 E77.93908
G1 X176.95 Y127.393 E78.03201
G1 X176.437 Y128.333 E78.08544
G1 X175.8 Y129.236 E78.14057
G1 X169.36 Y136.977 E78.64294
G1 X168.075 Y137.914 E78.72229
G1 X167.909 Y138 E78.73161
G1 X167.868 Y138.124 E78.73813
G1 X167.061 Y139.73 E78.8278
G1 X160.989 Y147.003 E79.30048
G1 X159.966 Y147.957 E79.37027
G1 X158.666 Y148.828 E79.44834
G1 X157.798 Y149.239 E79.49625
G1 X156.513 Y149.637 E79.56337
G1 X155.089 Y149.872 E79.63537
G1 X153.809 Y149.827 E79.69927
G1 X152.29 Y149.554 E79.77627
G1 X151.158 Y149.166 E79.83597
G1 X150.547 Y148.877 E79.86969
G1 X133.031 Y138.613 E80.88254
G1 X132.333 Y138.182 E80.92347
G1 X128.653 Y135.987 E81.13725
G1 X125.224 Y134.376 E81.32626
G1 X121.512 Y133.057 E81.5228
G1 X117.788 Y132.12 E81.71438
G1 X113.931 Y131.555 E81.90886
G1 X109.998 Y131.366 E82.1053
G1 X106.069 Y131.554 E82.30155
G1 X102.217 Y132.119 E82.49578
G1 X98.482 Y133.059 E82.68793
G1 X94.775 Y134.375 E82.88418
G1 X91.224 Y136.047 E83.08
G1 X87.698 Y138.153 E83.2849
G1 X86.824 Y138.694 E83.33618
G1 X69.492 Y148.848 E84.33834
G1 X68.132 Y149.433 E84.4122
G1 X67.402 Y149.634 E84.44998
G1 X65.323 Y149.869 E84.55436
G1 X64.737 Y149.84 E84.58363
G1 X62.842 Y149.461 E84.68005
G1 X61.688 Y149.01 E84.74186
G1 X60.759 Y148.488 E84.79503
G1 X59.673 Y147.661 E84.86313
G1 X58.997 Y146.993 E84.91054
G1 X52.645 Y139.376 E85.40535
G1 X52.166 Y138.001 E85.47799
G1 X51.536 Y137.664 E85.51364
G1 X50.768 Y137.122 E85.56054
G1 X44.009 Y128.977 E86.08858
G1 X43.253 Y127.788 E86.15888
G1 X42.573 Y126.151 E86.24731
G1 X42.348 Y125.183 E86.2969
G1 X42.229 Y124.081 E86.35219
G1 X42.316 Y122.411 E86.43562
G1 X42.579 Y121.146 E86.50008
G1 X43.274 Y119.573 E86.58588
G1 X43.907 Y118.567 E86.64518
G1 X44.555 Y117.77 E86.69643
G1 X86.55 Y73.393 E89.74459
G0 F7500 X86.841 Y73.668
G1 F1500 X87.86 Y72.786 E89.81183
G1 X89.314 Y71.843 E89.89829
G1 X90.558 Y71.267 E89.96668
G1 X91.684 Y70.902 E90.02574
G1 X94.075 Y70.538 E90.1464
G1 X126.737 Y70.594 E91.77591
G1 X127.739 Y70.761 E91.82659
G1 X129.566 Y71.323 E91.92196
G1 X131.053 Y72.053 E92.0046
G1 X132.286 Y72.901 E92.07926
G1 X133.422 Y73.921 E92.15543
G1 X175.34 Y118.262 E95.19965
G1 X176.092 Y119.28 E95.26279
G1 X176.676 Y120.355 E95.32383
G1 X177.189 Y121.935 E95.4067
G1 X177.334 Y122.856 E95.45322
G1 X177.329 Y124.643 E95.54237
G1 X177.163 Y125.561 E95.58891
G1 X176.599 Y127.201 E95.67544
G1 X176.086 Y128.141 E95.72886
G1 X175.492 Y128.98 E95.78015
G1 X169.083 Y136.684 E96.28012
G1 X167.839 Y137.591 E96.35692
G1 X167.567 Y137.72 E96.37194
G1 X167.511 Y137.944 E96.38346
G1 X166.724 Y139.51 E96.4709
G1 X160.682 Y146.747 E96.94125
G1 X159.742 Y147.625 E97.00542
G1 X158.495 Y148.466 E97.08046
G1 X157.627 Y148.877 E97.12837
G1 X156.448 Y149.242 E97.18995
G1 X155.063 Y149.471 E97.25998
G1 X153.88 Y149.433 E97.31903
G1 X152.361 Y149.16 E97.39603
G1 X151.329 Y148.804 E97.4505
G1 X150.718 Y148.515 E97.48422
G1 X133.241 Y138.273 E98.49484
G1 X132.538 Y137.838 E98.53608
G1 X128.846 Y135.636 E98.75055
G1 X125.375 Y134.005 E98.94189
G1 X121.627 Y132.673 E99.14033
G1 X117.866 Y131.727 E99.33381
G1 X113.967 Y131.156 E99.53041
G1 X109.998 Y130.965 E99.72865
G1 X106.033 Y131.155 E99.9267
G1 X102.139 Y131.726 E100.12305
G1 X98.367 Y132.675 E100.3171
G1 X94.624 Y134.004 E100.51526
G1 X91.039 Y135.692 E100.71295
G1 X87.493 Y137.81 E100.91901
G1 X86.622 Y138.349 E100.97011
G1 X69.29 Y148.503 E101.97228
G1 X68.026 Y149.047 E102.04093
G1 X67.296 Y149.248 E102.07871
G1 X65.343 Y149.469 E102.17676
G1 X64.757 Y149.44 E102.20603
G1 X62.921 Y149.069 E102.29948
G1 X61.883 Y148.661 E102.35513
G1 X61.001 Y148.169 E102.40551
G1 X59.954 Y147.376 E102.47104
G1 X59.278 Y146.708 E102.51845
G1 X52.999 Y139.177 E103.00764
G1 X52.493 Y137.722 E103.08449
G1 X51.767 Y137.337 E103.12549
G1 X51.043 Y136.826 E103.1697
G1 X44.347 Y128.762 E103.69263
G1 X43.591 Y127.573 E103.76293
G1 X42.963 Y126.06 E103.84465
G1 X42.738 Y125.092 E103.89424
G1 X42.627 Y124.039 E103.94706
G1 X42.708 Y122.492 E104.02435
G1 X42.962 Y121.269 E104.08666
G1 X43.64 Y119.735 E104.17034
G1 X44.218 Y118.819 E104.22437
G1 X44.846 Y118.045 E104.2741
G1 X86.841 Y73.668 E107.32227
G0 F7500 X87.104 Y73.97
G1 F1500 X88.078 Y73.122 E107.3867
G1 X89.532 Y72.179 E107.47316
G1 X90.681 Y71.648 E107.53631
G1 X91.807 Y71.283 E107.59536
G1 X94.074 Y70.938 E107.70976
G1 X126.673 Y70.989 E109.33614
G1 X127.622 Y71.144 E109.38411
G1 X129.391 Y71.683 E109.47637
G1 X130.826 Y72.383 E109.55603
G1 X132.059 Y73.231 E109.63068
G1 X133.131 Y74.196 E109.70264
G1 X175.049 Y118.537 E112.74686
G1 X175.741 Y119.471 E112.80486
G1 X176.307 Y120.513 E112.86402
G1 X176.794 Y122 E112.94208
G1 X176.934 Y122.855 E112.98531
G1 X176.929 Y124.642 E113.07446
G1 X176.784 Y125.432 E113.11453
G1 X176.247 Y127.01 E113.19769
G1 X175.759 Y127.91 E113.24877
G1 X175.184 Y128.724 E113.29849
G1 X168.806 Y136.391 E113.79605
G1 X167.603 Y137.268 E113.87032
G1 X167.208 Y137.44 E113.89181
G1 X167.154 Y137.764 E113.9082
G1 X166.387 Y139.289 E113.99337
G1 X160.408 Y146.456 E114.45902
G1 X159.517 Y147.294 E114.52004
G1 X158.324 Y148.104 E114.59198
G1 X157.456 Y148.515 E114.63989
G1 X156.383 Y148.847 E114.69593
G1 X155.036 Y149.07 E114.76405
G1 X153.949 Y149.039 E114.8183
G1 X152.491 Y148.782 E114.89216
G1 X151.5 Y148.442 E114.94443
G1 X150.889 Y148.153 E114.97815
G1 X133.452 Y137.933 E115.9865
G1 X132.743 Y137.494 E116.0281
G1 X129.039 Y135.285 E116.24326
G1 X125.526 Y133.634 E116.43692
G1 X121.742 Y132.289 E116.63727
G1 X117.944 Y131.334 E116.83266
G1 X114.003 Y130.757 E117.03137
G1 X109.998 Y130.564 E117.23141
G1 X105.997 Y130.756 E117.43125
G1 X102.061 Y131.333 E117.62972
G1 X98.252 Y132.291 E117.82567
G1 X94.473 Y133.633 E118.02574
G1 X90.854 Y135.337 E118.2253
G1 X87.288 Y137.467 E118.43253
G1 X86.42 Y138.004 E118.48346
G1 X69.088 Y148.158 E119.48562
G1 X67.92 Y148.661 E119.54906
G1 X67.19 Y148.862 E119.58684
G1 X65.363 Y149.069 E119.67857
G1 X64.777 Y149.04 E119.70784
G1 X63.066 Y148.696 E119.79491
G1 X62.077 Y148.311 E119.84786
G1 X61.242 Y147.849 E119.89547
G1 X60.235 Y147.091 E119.95835
G1 X59.559 Y146.423 E120.00577
G1 X53.354 Y138.978 E120.48929
