;FLAVOR:Marlin
;TIME:1445
;Filament used: 1.67821m
;Layer height: 0.4
;MINX:71.794
;MINY:96.159
;MINZ:0.3
;MAXX:148.246
;MAXY:123.733
;MAXZ:19.9
;Generated with Cura_SteamEngine 5.4.0
M140 S98
M105
M190 S98
M104 S240
M105
M109 S240
M82 ;absolute extrusion mode
G28 ;Home
G1 Z15.0 F2000 ;Move the platform
G92 E0
G92 E0
G1 F1500 E-6.5
;LAYER_COUNT:50
;LAYER:0
M107
M204 S1000
G0 F7500 X78.102 Y97.278 Z0.3
;TYPE:SKIRT
G1 F1500 E0
G1 X80.434 Y96.442 E0.12359
G1 X81.42 Y96.238 E0.17383
G1 X83.257 Y96.285 E0.26551
G1 X85.329 Y96.784 E0.37183
G1 X86.124 Y97.1 E0.41452
G1 X89.579 Y99.498 E0.62434
G1 X91.975 Y100.923 E0.76342
G1 X94.248 Y102.067 E0.89037
G1 X96.776 Y103.111 E1.02682
G1 X99.324 Y103.962 E1.16085
G1 X101.823 Y104.604 E1.28957
G1 X104.643 Y105.119 E1.43259
G1 X107.327 Y105.412 E1.56729
G1 X110 Y105.507 E1.70073
G1 X112.673 Y105.412 E1.83417
G1 X115.37 Y105.117 E1.96953
G1 X118.218 Y104.597 E2.11396
G1 X120.626 Y103.978 E2.238
G1 X123.272 Y103.095 E2.37717
G1 X125.703 Y102.088 E2.50845
G1 X127.96 Y100.954 E2.63446
G1 X130.569 Y99.402 E2.78592
G1 X134.014 Y97.005 E2.9953
G1 X134.479 Y96.827 E3.02014
G1 X137.249 Y96.159 E3.1623
G1 X139.928 Y96.53 E3.29723
G1 X140.757 Y96.773 E3.34033
G1 X142.354 Y97.656 E3.43137
G1 X144.237 Y99.259 E3.55474
G1 X147.574 Y105.042 E3.88785
G1 X148.246 Y107.364 E4.00844
G1 X148.075 Y109.874 E4.13396
G1 X147.549 Y111.594 E4.22369
G1 X147.094 Y112.546 E4.27633
G1 X145.774 Y114.137 E4.37947
G1 X144.582 Y115.272 E4.46159
G1 X142.547 Y116.289 E4.57509
G1 X142.05 Y116.626 E4.60505
G1 X141.664 Y116.966 E4.63071
G1 X141.25 Y117.437 E4.66199
G1 X140.928 Y117.908 E4.69046
G1 X140.026 Y119.727 E4.79175
G1 X138.669 Y121.394 E4.89899
G1 X136.738 Y122.66 E5.01419
G1 X134.832 Y123.403 E5.11625
G1 X132.235 Y123.573 E5.24609
G1 X129.862 Y123.022 E5.36763
G1 X126.736 Y121.219 E5.54767
G1 X124.23 Y121.897 E5.67719
G1 X120.786 Y122.689 E5.8535
G1 X117.558 Y123.225 E6.01675
G1 X113.389 Y123.63 E6.22572
G1 X109.746 Y123.733 E6.40754
G1 X106.583 Y123.629 E6.56543
G1 X102.43 Y123.223 E6.77361
G1 X99.177 Y122.683 E6.93812
G1 X95.55 Y121.831 E7.124
G1 X93.266 Y121.22 E7.24196
G1 X90.32 Y122.919 E7.41162
G1 X87.969 Y123.595 E7.53367
G1 X85.477 Y123.424 E7.65829
G1 X83.637 Y122.85 E7.75445
G1 X82.801 Y122.441 E7.80088
G1 X81.212 Y121.123 E7.90388
G1 X80.077 Y119.932 E7.98596
G1 X79.057 Y117.893 E8.0997
G1 X78.735 Y117.418 E8.12833
G1 X78.362 Y116.994 E8.15651
G1 X77.916 Y116.602 E8.18613
G1 X77.442 Y116.278 E8.21477
G1 X75.622 Y115.375 E8.31614
G1 X73.955 Y114.018 E8.42337
G1 X72.689 Y112.087 E8.53857
G1 X71.946 Y110.181 E8.64063
G1 X71.794 Y107.893 E8.75503
G1 X72.168 Y105.489 E8.87641
G1 X75.773 Y99.246 E9.23607
G1 X78.102 Y97.278 E9.3882
G0 F7500 X78.305 Y97.631
G1 F1500 X80.569 Y96.819 E9.50819
G1 X81.456 Y96.639 E9.55335
G1 X83.204 Y96.684 E9.64058
G1 X85.235 Y97.173 E9.74481
G1 X85.933 Y97.455 E9.78237
G1 X89.358 Y99.832 E9.99036
G1 X91.781 Y101.273 E10.131
G1 X94.088 Y102.434 E10.25985
G1 X96.627 Y103.483 E10.39691
G1 X99.211 Y104.346 E10.53283
G1 X101.748 Y104.998 E10.66351
G1 X104.582 Y105.515 E10.80723
G1 X107.297 Y105.811 E10.94349
G1 X110 Y105.907 E11.07843
G1 X112.703 Y105.811 E11.21336
G1 X115.431 Y105.513 E11.35028
G1 X118.293 Y104.991 E11.49542
G1 X120.739 Y104.362 E11.62142
G1 X123.421 Y103.467 E11.76248
G1 X125.862 Y102.455 E11.89431
G1 X128.16 Y101.301 E12.0226
G1 X130.774 Y99.746 E12.17435
G1 X134.199 Y97.363 E12.38251
G1 X134.622 Y97.201 E12.40511
G1 X137.27 Y96.565 E12.54097
G1 X139.816 Y96.914 E12.66918
G1 X140.601 Y97.144 E12.70999
G1 X142.125 Y97.987 E12.79688
G1 X143.926 Y99.52 E12.91488
G1 X147.203 Y105.199 E13.24199
G1 X147.842 Y107.407 E13.35667
G1 X147.679 Y109.799 E13.47628
G1 X147.166 Y111.477 E13.56382
G1 X146.755 Y112.329 E13.61102
G1 X145.498 Y113.847 E13.70934
G1 X144.349 Y114.941 E13.7885
G1 X142.348 Y115.941 E13.9001
G1 X141.805 Y116.309 E13.93282
G1 X141.376 Y116.687 E13.96135
G1 X140.935 Y117.189 E13.99469
G1 X140.583 Y117.704 E14.02581
G1 X139.688 Y119.508 E14.12628
G1 X138.396 Y121.095 E14.22837
G1 X136.557 Y122.301 E14.33809
G1 X134.743 Y123.008 E14.43522
G1 X132.269 Y123.17 E14.55892
G1 X130.008 Y122.645 E14.67472
G1 X126.792 Y120.79 E14.85994
G1 X124.14 Y121.507 E14.997
G1 X120.72 Y122.294 E15.17209
G1 X117.492 Y122.83 E15.33534
G1 X113.378 Y123.23 E15.54155
G1 X109.759 Y123.333 E15.72218
G1 X106.596 Y123.229 E15.88007
G1 X102.496 Y122.828 E16.08559
G1 X99.243 Y122.288 E16.25011
G1 X95.653 Y121.445 E16.43408
G1 X93.209 Y120.791 E16.5603
G1 X90.163 Y122.548 E16.73574
G1 X87.927 Y123.191 E16.85181
G1 X85.551 Y123.028 E16.97063
G1 X83.813 Y122.491 E17.06139
G1 X83.02 Y122.103 E17.10543
G1 X81.502 Y120.847 E17.20373
G1 X80.408 Y119.699 E17.28284
G1 X79.403 Y117.69 E17.39491
G1 X79.055 Y117.177 E17.42584
G1 X78.641 Y116.706 E17.45713
G1 X78.164 Y116.287 E17.4888
G1 X77.646 Y115.933 E17.5201
G1 X75.841 Y115.037 E17.62064
G1 X74.254 Y113.745 E17.72273
G1 X73.048 Y111.906 E17.83245
G1 X72.341 Y110.092 E17.92958
G1 X72.196 Y107.91 E18.03868
G1 X72.552 Y105.624 E18.15411
G1 X76.083 Y99.508 E18.50644
G1 X78.305 Y97.631 E18.65155
G0 F7500 X78.509 Y97.983
G1 F1500 X80.649 Y97.211 E18.76505
G1 X81.491 Y97.04 E18.80792
G1 X83.152 Y97.083 E18.89081
G1 X85.085 Y97.544 E18.98996
G1 X85.741 Y97.809 E19.02525
G1 X89.137 Y100.166 E19.23149
G1 X91.587 Y101.623 E19.3737
G1 X93.929 Y102.801 E19.50449
G1 X96.478 Y103.855 E19.6421
G1 X99.098 Y104.73 E19.77991
G1 X101.66 Y105.388 E19.91188
G1 X104.535 Y105.913 E20.05769
G1 X107.267 Y106.21 E20.19479
G1 X110 Y106.307 E20.33123
G1 X112.733 Y106.21 E20.46766
G1 X115.478 Y105.911 E20.60542
G1 X118.381 Y105.381 E20.75265
G1 X120.852 Y104.746 E20.87993
G1 X123.558 Y103.843 E21.02225
G1 X126.027 Y102.819 E21.1556
G1 X128.359 Y101.648 E21.28579
G1 X130.985 Y100.086 E21.43823
G1 X134.387 Y97.719 E21.64499
G1 X134.715 Y97.59 E21.66258
G1 X137.291 Y96.971 E21.79475
G1 X139.704 Y97.298 E21.91624
G1 X140.445 Y97.515 E21.95476
G1 X141.896 Y98.318 E22.0375
G1 X143.615 Y99.781 E22.15011
G1 X146.832 Y105.356 E22.47124
G1 X147.438 Y107.45 E22.57999
G1 X147.283 Y109.724 E22.69371
G1 X146.783 Y111.36 E22.77905
G1 X146.416 Y112.111 E22.82076
G1 X145.222 Y113.557 E22.91431
G1 X144.116 Y114.61 E22.9905
G1 X142.145 Y115.595 E23.10043
G1 X141.564 Y115.989 E23.13545
G1 X141.088 Y116.408 E23.16709
G1 X140.62 Y116.941 E23.20248
G1 X140.238 Y117.5 E23.23626
G1 X139.35 Y119.289 E23.3359
G1 X138.123 Y120.796 E23.43285
G1 X136.376 Y121.942 E23.53709
G1 X134.654 Y122.613 E23.62929
G1 X132.303 Y122.767 E23.74684
G1 X130.154 Y122.268 E23.8569
G1 X126.848 Y120.361 E24.04731
G1 X124.05 Y121.117 E24.19191
G1 X120.654 Y121.899 E24.36577
G1 X117.426 Y122.435 E24.52902
G1 X113.367 Y122.83 E24.73248
G1 X109.772 Y122.933 E24.91191
G1 X106.609 Y122.829 E25.0698
G1 X102.562 Y122.433 E25.27267
G1 X99.309 Y121.893 E25.43719
G1 X95.756 Y121.059 E25.61926
G1 X93.151 Y120.362 E25.7538
G1 X90.002 Y122.178 E25.93516
G1 X87.885 Y122.787 E26.04506
G1 X85.623 Y122.632 E26.15817
G1 X83.989 Y122.132 E26.24342
G1 X83.238 Y121.765 E26.28513
G1 X81.792 Y120.571 E26.37868
G1 X80.739 Y119.466 E26.45483
G1 X79.751 Y117.491 E26.56501
G1 X79.372 Y116.932 E26.5987
G1 X78.92 Y116.418 E26.63285
G1 X78.412 Y115.972 E26.66658
G1 X77.85 Y115.588 E26.70054
G1 X76.06 Y114.699 E26.80025
G1 X74.553 Y113.472 E26.8972
G1 X73.407 Y111.725 E27.00144
G1 X72.736 Y110.003 E27.09364
G1 X72.598 Y107.927 E27.19744
G1 X72.935 Y105.759 E27.3069
G1 X76.393 Y99.77 E27.65192
G1 X78.509 Y97.983 E27.7901
G0 F7500 X78.713 Y98.335
G1 F1500 X80.729 Y97.603 E27.8971
G1 X81.526 Y97.441 E27.93768
G1 X83.102 Y97.482 E28.01633
G1 X84.935 Y97.915 E28.1103
G1 X85.549 Y98.163 E28.14334
G1 X88.916 Y100.5 E28.34781
G1 X91.393 Y101.973 E28.49159
G1 X93.77 Y103.168 E28.62432
G1 X96.329 Y104.227 E28.76249
G1 X98.985 Y105.114 E28.9022
G1 X101.585 Y105.782 E29.03612
G1 X104.475 Y106.309 E29.18268
G1 X107.237 Y106.609 E29.32129
G1 X110 Y106.707 E29.45922
G1 X112.763 Y106.609 E29.59716
G1 X115.539 Y106.307 E29.73647
G1 X118.456 Y105.775 E29.8844
G1 X120.965 Y105.13 E30.01364
G1 X123.695 Y104.219 E30.15723
G1 X126.192 Y103.183 E30.2921
G1 X128.558 Y101.995 E30.42419
G1 X131.196 Y100.426 E30.57731
G1 X134.575 Y98.075 E30.78268
G1 X134.808 Y97.979 E30.79526
G1 X137.313 Y97.377 E30.92379
G1 X139.592 Y97.682 E31.0385
G1 X140.289 Y97.886 E31.07473
G1 X141.667 Y98.649 E31.15332
G1 X143.304 Y100.042 E31.26056
G1 X146.461 Y105.513 E31.57569
G1 X147.034 Y107.493 E31.67852
G1 X146.887 Y109.649 E31.78634
G1 X146.4 Y111.243 E31.86949
G1 X146.078 Y111.892 E31.90564
G1 X144.946 Y113.267 E31.99449
G1 X143.883 Y114.279 E32.06772
G1 X141.946 Y115.247 E32.17575
G1 X141.319 Y115.672 E32.21354
G1 X140.8 Y116.129 E32.24804
G1 X140.305 Y116.693 E32.28548
G1 X139.893 Y117.296 E32.32191
G1 X139.012 Y119.07 E32.42073
G1 X137.852 Y120.495 E32.5124
G1 X136.191 Y121.584 E32.61149
G1 X134.565 Y122.218 E32.69856
G1 X132.337 Y122.364 E32.80996
G1 X130.3 Y121.891 E32.91429
G1 X126.904 Y119.932 E33.10988
G1 X123.96 Y120.727 E33.26202
G1 X120.588 Y121.504 E33.43466
G1 X117.36 Y122.04 E33.59791
G1 X113.355 Y122.43 E33.79866
G1 X109.785 Y122.533 E33.97685
G1 X106.622 Y122.429 E34.13473
G1 X102.628 Y122.038 E34.33495
G1 X99.375 Y121.498 E34.49946
G1 X95.859 Y120.673 E34.67964
G1 X93.094 Y119.933 E34.82244
G1 X89.845 Y121.807 E35.00956
G1 X87.843 Y122.383 E35.1135
G1 X85.699 Y122.236 E35.22071
G1 X84.106 Y121.749 E35.30382
G1 X83.457 Y121.427 E35.33996
G1 X82.082 Y120.295 E35.42882
G1 X81.07 Y119.233 E35.50201
G1 X80.097 Y117.288 E35.61051
G1 X79.692 Y116.691 E35.6465
G1 X79.199 Y116.13 E35.68376
G1 X78.66 Y115.657 E35.71954
G1 X78.054 Y115.243 E35.75615
G1 X76.279 Y114.361 E35.85504
G1 X74.854 Y113.201 E35.94671
G1 X73.765 Y111.54 E36.0458
G1 X73.131 Y109.914 E36.13287
G1 X73 Y107.944 E36.23137
G1 X73.319 Y105.894 E36.33487
G1 X76.703 Y100.032 E36.67256
G1 X78.713 Y98.335 E36.8038
G0 F7500 X78.917 Y98.687
G1 F1500 X80.809 Y97.995 E36.90431
G1 X81.561 Y97.842 E36.9426
G1 X83.053 Y97.881 E37.01706
G1 X84.785 Y98.286 E37.1058
G1 X85.357 Y98.517 E37.13657
G1 X88.695 Y100.834 E37.33929
G1 X91.199 Y102.323 E37.48464
G1 X93.611 Y103.535 E37.61931
G1 X96.18 Y104.599 E37.75804
G1 X98.868 Y105.497 E37.89943
G1 X101.513 Y106.176 E38.03567
G1 X104.415 Y106.705 E38.18283
G1 X107.207 Y107.008 E38.32294
G1 X110 Y107.107 E38.46238
G1 X112.793 Y107.008 E38.60181
G1 X115.586 Y106.705 E38.74197
G1 X118.544 Y106.165 E38.89198
G1 X121.078 Y105.514 E39.02251
G1 X123.832 Y104.595 E39.16735
G1 X126.363 Y103.545 E39.30406
G1 X128.752 Y102.345 E39.43744
G1 X131.407 Y100.766 E39.59155
G1 X134.765 Y98.429 E39.79566
G1 X134.901 Y98.368 E39.8031
G1 X137.333 Y97.784 E39.92788
G1 X139.479 Y98.066 E40.03587
G1 X140.134 Y98.258 E40.06992
G1 X141.438 Y98.98 E40.14428
G1 X142.993 Y100.303 E40.24614
G1 X146.09 Y105.67 E40.55528
G1 X146.63 Y107.536 E40.6522
G1 X146.491 Y109.574 E40.75411
G1 X146.017 Y111.126 E40.83507
G1 X145.741 Y111.673 E40.86564
G1 X144.67 Y112.977 E40.94983
G1 X143.65 Y113.948 E41.02008
G1 X141.743 Y114.901 E41.12644
G1 X141.078 Y115.352 E41.16653
G1 X140.512 Y115.85 E41.20414
G1 X139.993 Y116.441 E41.24338
G1 X139.546 Y117.096 E41.28295
G1 X138.674 Y118.851 E41.38072
G1 X137.579 Y120.196 E41.46724
G1 X136.01 Y121.225 E41.56085
G1 X134.476 Y121.823 E41.643
G1 X132.371 Y121.961 E41.74824
G1 X130.446 Y121.514 E41.84683
G1 X126.96 Y119.503 E42.04761
G1 X123.87 Y120.337 E42.20729
G1 X120.522 Y121.109 E42.37871
G1 X117.294 Y121.645 E42.54196
G1 X113.343 Y122.03 E42.74001
G1 X109.798 Y122.133 E42.91694
G1 X106.635 Y122.029 E43.07483
G1 X102.694 Y121.643 E43.27239
G1 X99.441 Y121.103 E43.4369
G1 X95.962 Y120.287 E43.61518
G1 X93.037 Y119.504 E43.76625
G1 X89.688 Y121.436 E43.95914
G1 X87.801 Y121.979 E44.0571
G1 X85.775 Y121.84 E44.15842
G1 X84.223 Y121.366 E44.23938
G1 X83.676 Y121.09 E44.26995
G1 X82.372 Y120.019 E44.35413
G1 X81.401 Y119 E44.42436
G1 X80.445 Y117.089 E44.53096
G1 X80.009 Y116.446 E44.56972
G1 X79.478 Y115.842 E44.60984
G1 X78.908 Y115.342 E44.64767
G1 X78.258 Y114.898 E44.68694
G1 X76.498 Y114.023 E44.785
G1 X75.153 Y112.928 E44.87153
G1 X74.124 Y111.359 E44.96514
G1 X73.526 Y109.825 E45.04728
G1 X73.402 Y107.961 E45.14048
G1 X73.703 Y106.029 E45.23803
G1 X77.013 Y100.294 E45.56839
G1 X78.917 Y98.687 E45.69269
G0 F7500 X79.121 Y99.038
G1 F1500 X80.946 Y98.371 E45.78963
G1 X81.594 Y98.243 E45.82258
G1 X83.001 Y98.28 E45.8928
G1 X84.635 Y98.657 E45.97647
G1 X85.165 Y98.871 E46.00498
G1 X88.474 Y101.168 E46.20595
G1 X91.005 Y102.673 E46.35285
G1 X93.452 Y103.902 E46.48947
G1 X96.031 Y104.971 E46.62875
G1 X98.752 Y105.88 E46.77188
G1 X101.441 Y106.57 E46.91038
G1 X104.355 Y107.101 E47.05815
G1 X107.177 Y107.407 E47.19977
G1 X110 Y107.507 E47.3407
G1 X112.823 Y107.407 E47.48162
G1 X115.646 Y107.101 E47.62329
G1 X118.616 Y106.559 E47.77391
G1 X121.194 Y105.897 E47.9067
G1 X123.969 Y104.971 E48.05265
G1 X126.528 Y103.909 E48.19088
G1 X128.958 Y102.689 E48.32653
G1 X131.619 Y101.106 E48.481
G1 X134.994 Y98.757 E48.68615
G1 X137.354 Y98.19 E48.80724
G1 X139.366 Y98.45 E48.90846
G1 X139.979 Y98.63 E48.94033
G1 X141.209 Y99.311 E49.01047
G1 X142.682 Y100.564 E49.10695
G1 X145.719 Y105.827 E49.41011
G1 X146.226 Y107.579 E49.5011
G1 X146.095 Y109.499 E49.59711
G1 X145.634 Y111.009 E49.67588
G1 X145.403 Y111.455 E49.70094
G1 X144.394 Y112.687 E49.78038
G1 X143.417 Y113.617 E49.84768
G1 X141.544 Y114.553 E49.95214
G1 X140.833 Y115.035 E49.995
G1 X140.224 Y115.571 E50.03547
G1 X139.677 Y116.194 E50.07683
G1 X139.202 Y116.891 E50.11891
G1 X138.335 Y118.634 E50.21604
G1 X137.308 Y119.896 E50.29721
G1 X135.829 Y120.866 E50.38545
G1 X134.387 Y121.428 E50.46267
G1 X132.405 Y121.558 E50.56176
G1 X130.592 Y121.137 E50.65462
G1 X127.016 Y119.074 E50.86059
G1 X123.78 Y119.947 E51.0278
G1 X120.456 Y120.714 E51.19799
G1 X117.228 Y121.25 E51.36125
G1 X113.331 Y121.63 E51.55659
G1 X109.811 Y121.733 E51.73228
G1 X106.648 Y121.629 E51.89017
G1 X102.76 Y121.248 E52.08507
G1 X99.507 Y120.708 E52.24958
G1 X96.065 Y119.901 E52.42596
G1 X92.98 Y119.075 E52.58529
G1 X89.53 Y121.066 E52.78402
G1 X87.759 Y121.575 E52.87595
G1 X85.85 Y121.444 E52.97142
G1 X84.34 Y120.983 E53.05018
G1 X83.894 Y120.752 E53.07524
G1 X82.662 Y119.743 E53.15469
G1 X81.732 Y118.767 E53.22195
G1 X80.793 Y116.89 E53.32666
G1 X80.326 Y116.201 E53.36818
G1 X79.757 Y115.554 E53.41117
G1 X79.16 Y115.03 E53.4508
G1 X78.458 Y114.551 E53.4932
G1 X76.715 Y113.684 E53.59032
G1 X75.453 Y112.657 E53.6715
G1 X74.483 Y111.178 E53.75974
G1 X73.921 Y109.736 E53.83695
G1 X73.804 Y107.978 E53.92485
G1 X74.086 Y106.164 E54.01644
G1 X77.323 Y100.556 E54.33949
G1 X79.121 Y99.038 E54.45688
G0 F7500 X79.325 Y99.389
G1 F1500 X81.083 Y98.747 E54.55026
G1 X81.627 Y98.644 E54.57788
G1 X82.951 Y98.679 E54.64396
G1 X84.485 Y99.028 E54.72244
G1 X84.973 Y99.225 E54.7487
G1 X88.259 Y101.506 E54.94826
G1 X90.799 Y103.017 E55.09571
G1 X93.287 Y104.266 E55.2346
G1 X95.894 Y105.347 E55.3754
G1 X98.636 Y106.263 E55.51963
G1 X101.369 Y106.964 E55.6604
G1 X104.295 Y107.497 E55.80878
G1 X107.147 Y107.806 E55.9519
G1 X110 Y107.907 E56.09432
G1 X112.853 Y107.806 E56.23675
G1 X115.706 Y107.497 E56.37992
G1 X118.691 Y106.953 E56.53129
G1 X121.307 Y106.281 E56.66604
G1 X124.106 Y105.347 E56.81326
G1 X126.699 Y104.271 E56.95332
G1 X129.158 Y103.036 E57.0906
G1 X131.824 Y101.45 E57.24537
G1 X135.159 Y99.129 E57.44808
G1 X137.376 Y98.596 E57.56184
G1 X139.253 Y98.834 E57.65623
G1 X139.824 Y99.002 E57.68592
G1 X140.98 Y99.642 E57.75185
G1 X142.371 Y100.825 E57.84295
G1 X145.348 Y105.984 E58.14011
G1 X145.822 Y107.622 E58.22518
G1 X145.699 Y109.424 E58.31529
G1 X145.251 Y110.892 E58.39187
G1 X145.069 Y111.231 E58.41106
G1 X144.118 Y112.397 E58.48613
G1 X143.184 Y113.286 E58.55046
G1 X141.341 Y114.207 E58.65325
G1 X140.592 Y114.715 E58.6984
G1 X139.941 Y115.288 E58.74167
G1 X139.357 Y115.952 E58.78579
G1 X138.858 Y116.686 E58.83007
G1 X137.996 Y118.417 E58.92654
G1 X137.037 Y119.596 E59.00236
G1 X135.648 Y120.507 E59.08524
G1 X134.298 Y121.033 E59.15752
G1 X132.439 Y121.155 E59.25047
G1 X130.738 Y120.76 E59.33759
G1 X127.072 Y118.645 E59.54874
G1 X123.69 Y119.557 E59.72349
