;FLAVOR:Marlin
;TIME:4743
;Filament used: 6.2005m
;Layer height: 0.4
;MINX:79.886
;MINY:79.896
;MINZ:0.3
;MAXX:140.104
;MAXY:140.137
;MAXZ:29.1
;Generated with Cura_SteamEngine 5.4.0
M140 S98
M105
M190 S98
M104 S240
M105
M109 S240
M82 ;absolute extrusion mode
G28 ;Home
G1 Z15.0 F2000 ;Move the platform
G92 E0
G92 E0
G1 F1500 E-6.5
;LAYER_COUNT:73
;LAYER:0
M107
M204 S1000
G0 F7500 X94.096 Y90.862 Z0.3
;TYPE:SKIRT
G1 F1500 E0
G1 X100.616 Y84.338 E0.46016
G1 X101.034 Y83.951 E0.48858
G1 X101.956 Y83.196 E0.54804
G1 X103.175 Y82.336 E0.62246
G1 X103.684 Y82.029 E0.65212
G1 X104.725 Y81.485 E0.71072
G1 X106.011 Y80.927 E0.78066
G1 X106.787 Y80.652 E0.82173
G1 X107.983 Y80.321 E0.88364
G1 X109.058 Y80.103 E0.93837
G1 X110.006 Y79.977 E0.98608
G1 X111.376 Y79.896 E1.05455
G1 X111.958 Y79.896 E1.08358
G1 X113.328 Y79.977 E1.15205
G1 X114.291 Y80.105 E1.20052
G1 X115.246 Y80.299 E1.24914
G1 X116.755 Y80.721 E1.32731
G1 X117.317 Y80.922 E1.35709
G1 X118.367 Y81.375 E1.41414
G1 X119.653 Y82.038 E1.48632
G1 X120.264 Y82.409 E1.52198
G1 X121.361 Y83.187 E1.58908
G1 X122.209 Y83.88 E1.64372
G1 X122.931 Y84.553 E1.69296
G1 X135.662 Y97.282 E2.59113
G1 X136.048 Y97.699 E2.61948
G1 X136.889 Y98.735 E2.68605
G1 X137.649 Y99.814 E2.7519
G1 X137.959 Y100.328 E2.78184
G1 X138.527 Y101.416 E2.84308
G1 X139.073 Y102.676 E2.91159
G1 X139.348 Y103.453 E2.95271
G1 X139.679 Y104.649 E3.01462
G1 X139.897 Y105.722 E3.06924
G1 X140.023 Y106.671 E3.11701
G1 X140.104 Y108.119 E3.18936
G1 X140.085 Y109.142 E3.24041
G1 X140.035 Y109.846 E3.27562
G1 X139.865 Y111.124 E3.33994
G1 X139.722 Y111.832 E3.37597
G1 X139.327 Y113.257 E3.44975
G1 X138.992 Y114.191 E3.49925
G1 X138.466 Y115.382 E3.56421
G1 X138.141 Y116.003 E3.59918
G1 X137.355 Y117.291 E3.67446
G1 X137.009 Y117.781 E3.70438
G1 X136.103 Y118.895 E3.77602
G1 X135.457 Y119.587 E3.82325
G1 X129.003 Y126.03 E4.27823
G1 X127.997 Y126.972 E4.34698
G1 X127.041 Y127.767 E4.40902
G1 X125.69 Y128.755 E4.49252
G1 X124.283 Y129.654 E4.57582
G1 X123.25 Y130.234 E4.63492
G1 X105.496 Y139.477 E5.63352
G1 X103.857 Y140.051 E5.72016
G1 X101.062 Y140.137 E5.85967
G1 X97.993 Y139.166 E6.02026
G1 X96.324 Y137.833 E6.12683
G1 X89.469 Y131.011 E6.60932
G1 X89.223 Y130.64 E6.63153
G1 X88.773 Y130.285 E6.66013
G1 X81.678 Y123.226 E7.15945
G1 X80.369 Y120.858 E7.29444
G1 X79.886 Y118.569 E7.41115
G1 X79.932 Y116.391 E7.51984
G1 X80.488 Y114.433 E7.62138
G1 X89.858 Y96.587 E8.62699
G1 X90.53 Y95.413 E8.69447
G1 X91.39 Y94.102 E8.7727
G1 X92.223 Y92.981 E8.84237
G1 X93.23 Y91.784 E8.92042
G1 X94.096 Y90.862 E8.98352
G0 F7500 X94.379 Y91.145
G1 F1500 X100.888 Y84.632 E9.44291
G1 X101.306 Y84.245 E9.47133
G1 X102.209 Y83.506 E9.52954
G1 X103.382 Y82.679 E9.60115
G1 X103.891 Y82.372 E9.6308
G1 X104.91 Y81.84 E9.68815
G1 X106.17 Y81.294 E9.75666
G1 X106.894 Y81.038 E9.79497
G1 X108.09 Y80.707 E9.85688
G1 X109.111 Y80.5 E9.90886
G1 X110.059 Y80.374 E9.95657
G1 X111.376 Y80.296 E10.02239
G1 X111.958 Y80.296 E10.05143
G1 X113.275 Y80.374 E10.11725
G1 X114.238 Y80.502 E10.16572
G1 X115.166 Y80.691 E10.21296
G1 X116.62 Y81.098 E10.28829
G1 X117.182 Y81.299 E10.31807
G1 X118.209 Y81.742 E10.37387
G1 X119.445 Y82.38 E10.44327
G1 X120.056 Y82.751 E10.47893
G1 X121.108 Y83.497 E10.54327
G1 X121.956 Y84.19 E10.59791
G1 X122.648 Y84.836 E10.64514
G1 X135.368 Y97.554 E11.54253
G1 X135.754 Y97.971 E11.57088
G1 X136.562 Y98.965 E11.63479
G1 X137.306 Y100.021 E11.69923
G1 X137.616 Y100.535 E11.72918
G1 X138.16 Y101.575 E11.78774
G1 X138.696 Y102.81 E11.8549
G1 X138.962 Y103.56 E11.8946
G1 X139.293 Y104.756 E11.95652
G1 X139.5 Y105.775 E12.00839
G1 X139.626 Y106.724 E12.05615
G1 X139.704 Y108.112 E12.12551
G1 X139.686 Y109.114 E12.17551
G1 X139.638 Y109.793 E12.20947
G1 X139.468 Y111.071 E12.27379
G1 X139.33 Y111.753 E12.3085
G1 X138.95 Y113.122 E12.37939
G1 X138.615 Y114.056 E12.42889
G1 X138.1 Y115.22 E12.49239
G1 X137.787 Y115.817 E12.52602
G1 X137.028 Y117.06 E12.59868
G1 X136.682 Y117.55 E12.62861
G1 X135.81 Y118.622 E12.69755
G1 X135.174 Y119.304 E12.74408
G1 X128.73 Y125.738 E13.19838
G1 X127.741 Y126.664 E13.26598
G1 X126.785 Y127.459 E13.32801
G1 X125.474 Y128.418 E13.40904
G1 X124.087 Y129.305 E13.49118
G1 X123.065 Y129.879 E13.54966
G1 X105.364 Y139.099 E14.54539
G1 X103.782 Y139.653 E14.62901
G1 X101.117 Y139.735 E14.76203
G1 X98.185 Y138.807 E14.91546
G1 X96.606 Y137.549 E15.01618
G1 X89.781 Y130.757 E15.49656
G1 X89.521 Y130.364 E15.52007
G1 X89.055 Y130.001 E15.54954
G1 X81.999 Y122.981 E16.04611
G1 X80.748 Y120.717 E16.17516
G1 X80.287 Y118.533 E16.28652
G1 X80.331 Y116.451 E16.39041
G1 X80.862 Y114.581 E16.4874
G1 X90.205 Y96.785 E17.49016
G1 X90.864 Y95.632 E17.55642
G1 X91.711 Y94.341 E17.63345
G1 X92.544 Y93.22 E17.70313
G1 X93.521 Y92.058 E17.77887
G1 X94.379 Y91.145 E17.84138
G0 F7500 X94.662 Y91.428
G1 F1500 X101.16 Y84.926 E18.29999
G1 X101.578 Y84.539 E18.32841
G1 X102.462 Y83.816 E18.38538
G1 X103.589 Y83.022 E18.45416
G1 X104.098 Y82.715 E18.48382
G1 X105.069 Y82.207 E18.53849
G1 X106.304 Y81.671 E18.60566
G1 X107.001 Y81.424 E18.64255
G1 X108.197 Y81.093 E18.70446
G1 X109.164 Y80.897 E18.75369
G1 X110.112 Y80.771 E18.8014
G1 X111.376 Y80.696 E18.86457
G1 X111.958 Y80.696 E18.89361
G1 X113.222 Y80.771 E18.95678
G1 X114.185 Y80.899 E19.00525
G1 X115.058 Y81.076 E19.04969
G1 X116.485 Y81.475 E19.12361
G1 X117.047 Y81.676 E19.15339
G1 X118.05 Y82.109 E19.20789
G1 X119.237 Y82.722 E19.27454
G1 X119.848 Y83.093 E19.3102
G1 X120.877 Y83.823 E19.37315
G1 X121.683 Y84.483 E19.42512
G1 X122.365 Y85.119 E19.47165
G1 X135.074 Y97.826 E20.36826
G1 X135.46 Y98.243 E20.39661
G1 X136.251 Y99.217 E20.45921
G1 X136.963 Y100.228 E20.5209
G1 X137.273 Y100.742 E20.55085
G1 X137.805 Y101.76 E20.60815
G1 X138.329 Y102.969 E20.67389
G1 X138.576 Y103.667 E20.71083
G1 X138.907 Y104.863 E20.77274
G1 X139.103 Y105.828 E20.82187
G1 X139.229 Y106.777 E20.86963
G1 X139.304 Y108.105 E20.93599
G1 X139.287 Y109.086 E20.98494
G1 X139.241 Y109.74 E21.01765
G1 X139.071 Y111.018 E21.08197
G1 X138.938 Y111.674 E21.11537
G1 X138.573 Y112.987 E21.18336
G1 X138.238 Y113.921 E21.23286
G1 X137.745 Y115.035 E21.29364
G1 X137.445 Y115.609 E21.32595
G1 X136.701 Y116.829 E21.39724
G1 X136.355 Y117.319 E21.42717
G1 X135.517 Y118.349 E21.49341
G1 X134.891 Y119.021 E21.53923
G1 X128.457 Y125.446 E21.99287
G1 X127.485 Y126.356 E22.0593
G1 X126.529 Y127.151 E22.12133
G1 X125.238 Y128.095 E22.20112
G1 X123.891 Y128.956 E22.28088
G1 X122.88 Y129.524 E22.33873
G1 X105.232 Y138.721 E23.33158
G1 X103.707 Y139.255 E23.41219
G1 X101.172 Y139.333 E23.53872
G1 X98.377 Y138.448 E23.68499
G1 X96.888 Y137.265 E23.77987
G1 X90.09 Y130.5 E24.25834
G1 X89.817 Y130.088 E24.283
G1 X89.337 Y129.717 E24.31327
G1 X82.322 Y122.737 E24.80698
G1 X81.126 Y120.574 E24.93029
G1 X80.688 Y118.497 E25.03619
G1 X80.73 Y116.511 E25.13529
G1 X81.236 Y114.729 E25.22771
G1 X90.552 Y96.983 E26.22765
G1 X91.198 Y95.851 E26.29267
G1 X92.032 Y94.58 E26.36851
G1 X92.865 Y93.459 E26.43819
G1 X93.813 Y92.332 E26.51166
G1 X94.662 Y91.428 E26.57354
G0 F7500 X94.945 Y91.711
G1 F1500 X101.432 Y85.22 E27.03137
G1 X101.85 Y84.833 E27.05979
G1 X102.693 Y84.143 E27.11414
G1 X103.796 Y83.365 E27.18148
G1 X104.305 Y83.058 E27.21113
G1 X105.254 Y82.562 E27.26456
G1 X106.463 Y82.038 E27.3303
G1 X107.108 Y81.81 E27.36443
G1 X108.304 Y81.479 E27.42634
G1 X109.217 Y81.294 E27.47281
G1 X110.165 Y81.168 E27.52053
G1 X111.376 Y81.096 E27.58105
G1 X111.958 Y81.096 E27.61009
G1 X113.169 Y81.168 E27.67061
G1 X114.132 Y81.296 E27.71908
G1 X114.978 Y81.468 E27.76215
G1 X116.35 Y81.852 E27.83323
G1 X116.912 Y82.053 E27.863
G1 X117.867 Y82.465 E27.91489
G1 X119.029 Y83.064 E27.98012
G1 X119.64 Y83.435 E28.01578
G1 X120.624 Y84.133 E28.07597
G1 X121.41 Y84.776 E28.12663
G1 X122.082 Y85.402 E28.17245
G1 X134.78 Y98.098 E29.06829
G1 X135.166 Y98.515 E29.09664
G1 X135.94 Y99.469 E29.15793
G1 X136.62 Y100.435 E29.21687
G1 X136.93 Y100.949 E29.24681
G1 X137.45 Y101.945 E29.30287
G1 X137.952 Y103.103 E29.36584
G1 X138.19 Y103.774 E29.40136
G1 X138.521 Y104.97 E29.46327
G1 X138.706 Y105.881 E29.50965
G1 X138.832 Y106.83 E29.55741
G1 X138.904 Y108.098 E29.62077
G1 X138.888 Y109.058 E29.66867
G1 X138.844 Y109.687 E29.70013
G1 X138.674 Y110.965 E29.76445
G1 X138.546 Y111.594 E29.79647
G1 X138.196 Y112.852 E29.86162
G1 X137.861 Y113.786 E29.91112
G1 X137.39 Y114.85 E29.96918
G1 X137.09 Y115.424 E30.00149
G1 X136.374 Y116.598 E30.07009
G1 X136.028 Y117.088 E30.10002
G1 X135.207 Y118.096 E30.16488
G1 X134.608 Y118.738 E30.20868
G1 X128.184 Y125.154 E30.66165
G1 X127.229 Y126.048 E30.72691
G1 X126.273 Y126.843 E30.78895
G1 X125.022 Y127.758 E30.86627
G1 X123.695 Y128.607 E30.94487
G1 X122.695 Y129.169 E31.00209
G1 X105.1 Y138.343 E31.99207
G1 X103.632 Y138.857 E32.06967
G1 X101.227 Y138.931 E32.18971
G1 X98.569 Y138.089 E32.32881
G1 X97.17 Y136.981 E32.41785
G1 X90.399 Y130.243 E32.89441
G1 X90.112 Y129.81 E32.92033
G1 X89.619 Y129.433 E32.95129
G1 X82.643 Y122.492 E33.44226
G1 X81.505 Y120.433 E33.55963
G1 X81.089 Y118.461 E33.66017
G1 X81.129 Y116.571 E33.75449
G1 X81.61 Y114.877 E33.84234
G1 X90.899 Y97.181 E34.83944
G1 X91.533 Y96.07 E34.90326
G1 X92.353 Y94.819 E34.97788
G1 X93.186 Y93.698 E35.04756
G1 X94.104 Y92.606 E35.11874
G1 X94.945 Y91.711 E35.18001
G0 F7500 X95.228 Y91.994
G1 F1500 X101.704 Y85.514 E35.63706
G1 X102.122 Y85.127 E35.66548
G1 X102.946 Y84.453 E35.71859
G1 X104.003 Y83.708 E35.78311
G1 X104.512 Y83.401 E35.81277
G1 X105.439 Y82.917 E35.86494
G1 X106.597 Y82.415 E35.92791
G1 X107.215 Y82.196 E35.96062
G1 X108.411 Y81.865 E36.02253
G1 X109.27 Y81.691 E36.06626
G1 X110.218 Y81.565 E36.11397
G1 X111.376 Y81.496 E36.17184
G1 X111.958 Y81.496 E36.20088
G1 X113.116 Y81.565 E36.25875
G1 X114.079 Y81.693 E36.30722
G1 X114.87 Y81.853 E36.34748
G1 X116.215 Y82.229 E36.41716
G1 X116.777 Y82.43 E36.44694
G1 X117.709 Y82.832 E36.49757
G1 X118.821 Y83.406 E36.56001
G1 X119.432 Y83.777 E36.59567
G1 X120.371 Y84.443 E36.6531
G1 X121.157 Y85.086 E36.70377
G1 X121.799 Y85.685 E36.74757
G1 X134.486 Y98.37 E37.64264
G1 X134.872 Y98.787 E37.67099
G1 X135.613 Y99.699 E37.72961
G1 X136.277 Y100.642 E37.78715
G1 X136.587 Y101.156 E37.8171
G1 X137.095 Y102.13 E37.8719
G1 X137.585 Y103.262 E37.93344
G1 X137.804 Y103.881 E37.9662
G1 X138.135 Y105.077 E38.02811
G1 X138.309 Y105.934 E38.07174
G1 X138.435 Y106.883 E38.1195
G1 X138.504 Y108.092 E38.17992
G1 X138.489 Y109.03 E38.22672
G1 X138.447 Y109.634 E38.25693
G1 X138.277 Y110.912 E38.32125
G1 X138.154 Y111.514 E38.3519
G1 X137.819 Y112.717 E38.4142
G1 X137.484 Y113.651 E38.46371
G1 X137.035 Y114.665 E38.51904
G1 X136.735 Y115.239 E38.55135
G1 X136.047 Y116.367 E38.61727
G1 X135.701 Y116.857 E38.64719
G1 X134.915 Y117.823 E38.70932
G1 X134.325 Y118.455 E38.75246
G1 X127.91 Y124.862 E39.20479
G1 X126.973 Y125.74 E39.26885
G1 X126.017 Y126.535 E39.33088
G1 X124.786 Y127.435 E39.40696
G1 X123.499 Y128.258 E39.48318
G1 X122.51 Y128.814 E39.53978
G1 X104.968 Y137.965 E40.52688
G1 X103.557 Y138.459 E40.60146
G1 X101.282 Y138.529 E40.71502
G1 X98.761 Y137.73 E40.84696
G1 X97.452 Y136.697 E40.93015
G1 X90.708 Y129.986 E41.40481
G1 X90.407 Y129.532 E41.43199
G1 X89.901 Y129.149 E41.46365
G1 X82.964 Y122.247 E41.95186
G1 X81.883 Y120.291 E42.06335
G1 X81.49 Y118.426 E42.15844
G1 X81.528 Y116.631 E42.24802
G1 X81.984 Y115.025 E42.33131
G1 X91.246 Y97.379 E43.32557
G1 X91.868 Y96.289 E43.38818
G1 X92.674 Y95.058 E43.46159
G1 X93.507 Y93.937 E43.53127
G1 X94.395 Y92.88 E43.60014
G1 X95.228 Y91.994 E43.66081
G0 F7500 X95.511 Y92.277
G1 F1500 X101.976 Y85.808 E44.11709
G1 X102.394 Y85.421 E44.14551
G1 X103.199 Y84.763 E44.19738
G1 X104.21 Y84.051 E44.25908
G1 X104.719 Y83.744 E44.28873
G1 X105.624 Y83.272 E44.33965
G1 X106.731 Y82.792 E44.39985
G1 X107.322 Y82.582 E44.43114
G1 X108.518 Y82.251 E44.49305
G1 X109.323 Y82.088 E44.53403
G1 X110.271 Y81.962 E44.58174
G1 X111.376 Y81.896 E44.63697
G1 X111.958 Y81.896 E44.66601
G1 X113.063 Y81.962 E44.72123
G1 X114.026 Y82.09 E44.7697
G1 X114.79 Y82.245 E44.80859
G1 X116.08 Y82.606 E44.87542
G1 X116.642 Y82.807 E44.9052
G1 X117.55 Y83.199 E44.95454
G1 X118.613 Y83.748 E45.01423
G1 X119.224 Y84.119 E45.04989
G1 X120.118 Y84.753 E45.10457
G1 X120.884 Y85.379 E45.15393
G1 X121.516 Y85.968 E45.19703
G1 X134.192 Y98.642 E46.09132
G1 X134.578 Y99.059 E46.11967
G1 X135.286 Y99.93 E46.17567
G1 X135.934 Y100.849 E46.23177
G1 X136.244 Y101.363 E46.26171
G1 X136.728 Y102.289 E46.31384
G1 X137.208 Y103.396 E46.37404
G1 X137.418 Y103.988 E46.40538
G1 X137.749 Y105.184 E46.46729
G1 X137.912 Y105.987 E46.50817
G1 X138.038 Y106.936 E46.55593
G1 X138.104 Y108.086 E46.6134
G1 X138.09 Y109.002 E46.6591
G1 X138.05 Y109.581 E46.68806
G1 X137.88 Y110.859 E46.75238
G1 X137.762 Y111.433 E46.78161
G1 X137.442 Y112.582 E46.84112
G1 X137.107 Y113.516 E46.89062
G1 X136.68 Y114.48 E46.94322
G1 X136.38 Y115.054 E46.97554
G1 X135.72 Y116.136 E47.03877
G1 X135.374 Y116.626 E47.06869
G1 X134.622 Y117.55 E47.12813
G1 X134.042 Y118.172 E47.17056
G1 X127.637 Y124.57 E47.62222
G1 X126.717 Y125.432 E47.68512
G1 X125.761 Y126.227 E47.74715
G1 X124.55 Y127.112 E47.82198
G1 X123.303 Y127.909 E47.89581
G1 X122.325 Y128.459 E47.95179
G1 X104.836 Y137.587 E48.93602
G1 X103.482 Y138.061 E49.00759
G1 X101.337 Y138.127 E49.11465
G1 X98.951 Y137.371 E49.23952
G1 X97.734 Y136.413 E49.31679
G1 X91.017 Y129.729 E49.78955
G1 X90.701 Y129.253 E49.81806
G1 X90.183 Y128.865 E49.85035
G1 X83.285 Y122.002 E50.3358
G1 X82.262 Y120.15 E50.44136
G1 X81.891 Y118.39 E50.5311
G1 X81.927 Y116.691 E50.61588
G1 X82.358 Y115.173 E50.69461
G1 X91.593 Y97.577 E51.68603
G1 X92.203 Y96.508 E51.74744
G1 X92.995 Y95.297 E51.81963
G1 X93.828 Y94.176 E51.88931
G1 X94.687 Y93.154 E51.95591
G1 X95.511 Y92.277 E52.01595
G0 F7500 X95.794 Y92.56
G1 F1500 X102.248 Y86.102 E52.47145
G1 X102.666 Y85.715 E52.49987
G1 X103.43 Y85.09 E52.54912
G1 X104.417 Y84.394 E52.60937
G1 X104.926 Y84.087 E52.63903
G1 X105.783 Y83.639 E52.68727
G1 X106.865 Y83.169 E52.74613
G1 X107.429 Y82.968 E52.776
G1 X108.625 Y82.637 E52.83791
G1 X109.376 Y82.485 E52.87614
G1 X110.324 Y82.359 E52.92385
G1 X111.376 Y82.296 E52.97643
G1 X111.958 Y82.296 E53.00546
G1 X113.01 Y82.359 E53.05804
G1 X113.973 Y82.487 E53.10651
G1 X114.71 Y82.637 E53.14403
G1 X115.945 Y82.983 E53.20802
G1 X116.507 Y83.184 E53.2378
G1 X117.391 Y83.566 E53.28584
G1 X118.405 Y84.09 E53.34279
G1 X119.016 Y84.461 E53.37845
G1 X119.865 Y85.063 E53.43037
G1 X120.631 Y85.689 E53.47973
G1 X121.233 Y86.251 E53.52081
G1 X133.898 Y98.914 E54.41433
G1 X134.284 Y99.331 E54.44268
G1 X134.975 Y100.182 E54.49737
G1 X135.591 Y101.056 E54.55071
G1 X135.901 Y101.57 E54.58066
G1 X136.373 Y102.474 E54.63154
G1 X136.831 Y103.53 E54.68896
G1 X137.032 Y104.095 E54.71888
G1 X137.363 Y105.291 E54.78079
G1 X137.515 Y106.04 E54.81892
G1 X137.641 Y106.989 E54.86668
G1 X137.704 Y108.08 E54.92121
G1 X137.691 Y108.975 E54.96586
G1 X137.653 Y109.528 E54.99352
G1 X137.483 Y110.806 E55.05784
G1 X137.37 Y111.352 E55.08566
G1 X137.065 Y112.447 E55.14236
G1 X136.73 Y113.381 E55.19187
G1 X136.325 Y114.295 E55.24174
G1 X136.025 Y114.869 E55.27406
G1 X135.393 Y115.905 E55.3346
G1 X135.047 Y116.395 E55.36453
G1 X134.33 Y117.277 E55.42124
G1 X133.759 Y117.889 E55.463
G1 X127.364 Y124.278 E55.91399
G1 X126.461 Y125.124 E55.97572
G1 X125.505 Y125.919 E56.03775
G1 X124.334 Y126.775 E56.11012
G1 X123.107 Y127.56 E56.18279
G1 X122.14 Y128.104 E56.23814
G1 X104.704 Y137.209 E57.21949
G1 X103.407 Y137.663 E57.28805
G1 X101.392 Y137.725 E57.38862
G1 X99.143 Y137.012 E57.50633
G1 X98.016 Y136.129 E57.57776
G1 X91.326 Y129.472 E58.04861
G1 X90.995 Y128.974 E58.07844
G1 X90.465 Y128.581 E58.11136
G1 X83.606 Y121.757 E58.59407
G1 X82.641 Y120.009 E58.69368
G1 X82.292 Y118.354 E58.77807
G1 X82.326 Y116.751 E58.85806
G1 X82.732 Y115.321 E58.93222
G1 X91.94 Y97.775 E59.92082
G1 X92.538 Y96.727 E59.98101
G1 X93.316 Y95.536 E60.05199
G1 X94.149 Y94.415 E60.12166
G1 X94.978 Y93.428 E60.18597
G1 X95.794 Y92.56 E60.24541
G0 F7500 X96.077 Y92.843
G1 F1500 X102.52 Y86.396 E60.70014
G1 X102.938 Y86.009 E60.72856
G1 X103.683 Y85.4 E60.77656
