;FLAVOR:Marlin
;TIME:1662
;Filament used: 1.02912m
;Layer height: 0.15
;MINX:95.746
;MINY:88.845
;MINZ:0.3
;MAXX:124.295
;MAXY:131.138
;MAXZ:28.05
;Generated with Cura_SteamEngine 5.4.0
M140 S98
M105
M190 S98
M104 S240
M105
M109 S240
M82 ;absolute extrusion mode
G28 ;Home
G1 Z15.0 F2000 ;Move the platform
G92 E0
G92 E0
G1 F1500 E-6.5
;LAYER_COUNT:186
;LAYER:0
M107
M204 S1000
G0 F7500 X97.278 Y92.009 Z0.3
;TYPE:SKIRT
G1 F1500 E0
G1 X98.892 Y90.546 E0.10868
G1 X100.217 Y89.778 E0.18509
G1 X101.373 Y89.274 E0.248
G1 X103.25 Y89.043 E0.34235
G1 X103.955 Y89.032 E0.37753
G1 X104.519 Y89.004 E0.4057
G1 X105.887 Y88.845 E0.47441
G1 X107.553 Y89.097 E0.55847
G1 X109.031 Y89.498 E0.63488
G1 X111.169 Y90.841 E0.76084
G1 X112.298 Y92.317 E0.85355
G1 X123.727 Y112.044 E1.99098
G1 X124.176 Y114.181 E2.09992
G1 X124.295 Y115.566 E2.16927
G1 X123.653 Y118.445 E2.31644
G1 X123.183 Y119.983 E2.39667
G1 X122.203 Y122.384 E2.52605
G1 X121.455 Y123.838 E2.60763
G1 X120.013 Y126.094 E2.74121
G1 X118.783 Y127.676 E2.84118
G1 X117.606 Y128.989 E2.92915
G1 X116.253 Y129.997 E3.01333
G1 X114.616 Y130.766 E3.10356
G1 X112.265 Y131.138 E3.22231
G1 X111.439 Y131.05 E3.26376
G1 X109.577 Y130.605 E3.35927
G1 X101.545 Y127.657 E3.78612
G1 X99.982 Y126.821 E3.87456
G1 X98.698 Y125.805 E3.95624
G1 X97.646 Y124.639 E4.03459
G1 X97.008 Y123.679 E4.0921
G1 X96.212 Y122.128 E4.17907
G1 X95.791 Y119.974 E4.28857
G1 X95.766 Y119.686 E4.30299
G1 X95.746 Y95.965 E5.48644
G1 X96.191 Y94.105 E5.58185
G1 X97.278 Y92.009 E5.69965
G0 F7500 X97.6 Y92.257
G1 F1500 X99.129 Y90.871 E5.80261
G1 X100.377 Y90.145 E5.87464
G1 X101.481 Y89.664 E5.93472
G1 X103.256 Y89.443 E6.02396
G1 X103.975 Y89.432 E6.05983
G1 X104.539 Y89.404 E6.08801
G1 X105.877 Y89.248 E6.15521
G1 X107.448 Y89.483 E6.23446
G1 X108.868 Y89.868 E6.30786
G1 X110.897 Y91.143 E6.42742
G1 X111.952 Y92.518 E6.51388
G1 X123.349 Y112.19 E7.64813
G1 X123.777 Y114.215 E7.75139
G1 X123.891 Y115.542 E7.81784
G1 X123.27 Y118.328 E7.96025
G1 X122.8 Y119.866 E8.04048
G1 X121.847 Y122.201 E8.1663
G1 X121.099 Y123.655 E8.24788
G1 X119.697 Y125.849 E8.37778
G1 X118.485 Y127.409 E8.47634
G1 X117.335 Y128.692 E8.5623
G1 X116.045 Y129.653 E8.64255
G1 X114.498 Y130.38 E8.72783
G1 X112.255 Y130.735 E8.84112
G1 X111.532 Y130.661 E8.87738
G1 X109.715 Y130.229 E8.97056
G1 X101.683 Y127.281 E9.39742
G1 X100.229 Y126.506 E9.47962
G1 X98.994 Y125.536 E9.55797
G1 X97.979 Y124.417 E9.63334
G1 X97.364 Y123.496 E9.68859
G1 X96.594 Y121.996 E9.77271
G1 X96.19 Y119.939 E9.87729
G1 X96.165 Y119.651 E9.89172
G1 X96.146 Y96.012 E11.07107
G1 X96.569 Y94.245 E11.16172
G1 X97.6 Y92.257 E11.27344
G0 F7500 X97.922 Y92.505
G1 F1500 X99.367 Y91.195 E11.37075
G1 X100.537 Y90.512 E11.43834
G1 X101.589 Y90.054 E11.49558
G1 X103.262 Y89.843 E11.57971
G1 X103.995 Y89.832 E11.61628
G1 X104.559 Y89.804 E11.64446
G1 X105.868 Y89.651 E11.71021
G1 X107.343 Y89.869 E11.78459
G1 X108.705 Y90.238 E11.85499
G1 X110.624 Y91.444 E11.96807
G1 X111.606 Y92.719 E12.04836
G1 X122.971 Y112.337 E13.17948
G1 X123.378 Y114.249 E13.27701
G1 X123.487 Y115.518 E13.34055
G1 X122.887 Y118.211 E13.4782
G1 X122.417 Y119.749 E13.55844
G1 X121.491 Y122.018 E13.6807
G1 X120.743 Y123.472 E13.76228
G1 X119.381 Y125.604 E13.88849
G1 X118.187 Y127.142 E13.98563
G1 X117.064 Y128.395 E14.06958
G1 X115.837 Y129.309 E14.14591
G1 X114.38 Y129.994 E14.22623
G1 X112.244 Y130.332 E14.33413
G1 X111.624 Y130.272 E14.3652
G1 X109.853 Y129.853 E14.456
G1 X101.821 Y126.905 E14.88285
G1 X100.476 Y126.191 E14.95883
G1 X99.241 Y125.221 E15.03717
G1 X98.311 Y124.194 E15.1063
G1 X97.72 Y123.313 E15.15922
G1 X96.975 Y121.861 E15.24064
G1 X96.589 Y119.904 E15.34016
G1 X96.564 Y119.616 E15.35458
G1 X96.546 Y96.059 E16.52984
G1 X96.947 Y94.385 E16.61572
G1 X97.922 Y92.505 E16.72138
G0 F7500 X98.244 Y92.753
G1 F1500 X99.605 Y91.519 E16.81304
G1 X100.697 Y90.879 E16.87618
G1 X101.696 Y90.444 E16.93054
G1 X103.268 Y90.243 E17.00961
G1 X104.015 Y90.232 E17.04688
G1 X104.581 Y90.204 E17.07515
G1 X105.86 Y90.054 E17.1394
G1 X107.284 Y90.265 E17.21122
G1 X108.542 Y90.608 E17.27627
G1 X110.352 Y91.746 E17.38294
G1 X111.26 Y92.92 E17.45698
G1 X122.593 Y112.483 E18.58493
G1 X122.979 Y114.283 E18.67677
G1 X123.083 Y115.494 E18.73741
G1 X122.504 Y118.094 E18.87031
G1 X122.034 Y119.632 E18.95054
G1 X121.135 Y121.835 E19.06925
G1 X120.387 Y123.289 E19.15082
G1 X119.065 Y125.359 E19.27336
G1 X117.889 Y126.875 E19.36908
G1 X116.793 Y128.098 E19.45101
G1 X115.629 Y128.965 E19.52343
G1 X114.261 Y129.608 E19.59884
G1 X112.231 Y129.929 E19.70137
G1 X111.716 Y129.883 E19.72717
G1 X109.991 Y129.477 E19.81558
G1 X101.959 Y126.529 E20.24244
G1 X100.664 Y125.838 E20.31567
G1 X99.537 Y124.952 E20.38719
G1 X98.643 Y123.97 E20.45344
G1 X98.076 Y123.13 E20.504
G1 X97.356 Y121.726 E20.58272
G1 X96.988 Y119.869 E20.67717
G1 X96.963 Y119.581 E20.69159
G1 X96.946 Y96.106 E21.86277
G1 X97.325 Y94.525 E21.94388
G1 X98.244 Y92.753 E22.04347
G0 F7500 X98.566 Y93.001
G1 F1500 X99.842 Y91.844 E22.1294
G1 X100.857 Y91.246 E22.18817
G1 X101.803 Y90.834 E22.23965
G1 X103.274 Y90.643 E22.31365
G1 X104.021 Y90.632 E22.35093
G1 X104.618 Y90.602 E22.38075
G1 X105.852 Y90.457 E22.44274
G1 X107.179 Y90.651 E22.50964
G1 X108.378 Y90.978 E22.57165
G1 X110.08 Y92.048 E22.67195
G1 X110.914 Y93.121 E22.73975
G1 X122.215 Y112.629 E23.86452
G1 X122.58 Y114.317 E23.95068
G1 X122.679 Y115.47 E24.00842
G1 X122.121 Y117.977 E24.13655
G1 X121.651 Y119.515 E24.21679
G1 X120.779 Y121.652 E24.33194
G1 X120.031 Y123.106 E24.41351
G1 X118.749 Y125.114 E24.53237
G1 X117.591 Y126.608 E24.62667
G1 X116.522 Y127.801 E24.70659
G1 X115.421 Y128.621 E24.77508
G1 X114.142 Y129.222 E24.84558
G1 X112.219 Y129.526 E24.94271
G1 X111.807 Y129.493 E24.96333
G1 X110.129 Y129.101 E25.0493
G1 X102.146 Y126.175 E25.47349
G1 X100.91 Y125.522 E25.54323
G1 X99.832 Y124.682 E25.61141
G1 X98.975 Y123.746 E25.67472
G1 X98.408 Y122.906 E25.72529
G1 X97.737 Y121.593 E25.79885
G1 X97.387 Y119.834 E25.88833
G1 X97.362 Y119.546 E25.90275
G1 X97.346 Y96.153 E27.06983
G1 X97.703 Y94.665 E27.14617
G1 X98.566 Y93.001 E27.23969
G0 F7500 X98.888 Y93.249
G1 F1500 X100.079 Y92.169 E27.3199
G1 X101.06 Y91.591 E27.37671
G1 X101.909 Y91.224 E27.42285
G1 X103.28 Y91.043 E27.49185
G1 X104.041 Y91.032 E27.52982
G1 X104.641 Y91.002 E27.55979
G1 X105.845 Y90.86 E27.62027
G1 X107.074 Y91.037 E27.68222
G1 X108.214 Y91.348 E27.74117
G1 X109.807 Y92.35 E27.83506
G1 X110.568 Y93.322 E27.89665
G1 X121.837 Y112.775 E29.01825
G1 X122.181 Y114.351 E29.09873
G1 X122.275 Y115.446 E29.15356
G1 X121.738 Y117.86 E29.27694
G1 X121.268 Y119.398 E29.35717
G1 X120.423 Y121.469 E29.46876
G1 X119.675 Y122.923 E29.55034
G1 X118.433 Y124.869 E29.66551
G1 X117.293 Y126.341 E29.7584
G1 X116.251 Y127.504 E29.83631
G1 X115.213 Y128.277 E29.90087
G1 X114.023 Y128.836 E29.96647
G1 X112.205 Y129.123 E30.05829
G1 X111.839 Y129.094 E30.07661
G1 X110.267 Y128.725 E30.15717
G1 X102.284 Y125.799 E30.58135
G1 X101.098 Y125.169 E30.64835
G1 X100.126 Y124.411 E30.70985
G1 X99.307 Y123.522 E30.77015
G1 X98.74 Y122.682 E30.82071
G1 X98.119 Y121.462 E30.88901
G1 X97.786 Y119.799 E30.97362
G1 X97.761 Y119.511 E30.98805
G1 X97.746 Y96.2 E32.15104
G1 X98.081 Y94.805 E32.22261
G1 X98.888 Y93.249 E32.31006
G0 F7500 X99.21 Y93.497
G1 F1500 X100.316 Y92.494 E32.38455
G1 X101.263 Y91.936 E32.43939
G1 X102.016 Y91.614 E32.48025
G1 X103.332 Y91.44 E32.54647
G1 X104.061 Y91.432 E32.58285
G1 X104.664 Y91.402 E32.61297
G1 X105.839 Y91.263 E32.672
G1 X106.969 Y91.423 E32.72893
G1 X108.05 Y91.718 E32.78484
G1 X109.535 Y92.652 E32.87236
G1 X110.253 Y93.569 E32.93046
G1 X121.459 Y112.919 E34.04604
G1 X121.782 Y114.385 E34.12093
G1 X121.871 Y115.422 E34.17286
G1 X121.355 Y117.743 E34.29148
G1 X120.885 Y119.281 E34.37172
G1 X120.067 Y121.286 E34.47975
G1 X119.319 Y122.74 E34.56133
G1 X118.117 Y124.624 E34.67282
G1 X116.995 Y126.074 E34.76429
G1 X115.98 Y127.207 E34.84018
G1 X115.005 Y127.933 E34.90083
G1 X113.904 Y128.45 E34.96151
G1 X112.189 Y128.721 E35.04813
G1 X111.93 Y128.704 E35.06108
G1 X110.405 Y128.349 E35.1392
G1 X102.422 Y125.423 E35.56338
G1 X101.287 Y124.816 E35.6276
G1 X100.419 Y124.139 E35.68252
G1 X99.639 Y123.298 E35.73974
G1 X99.072 Y122.458 E35.7903
G1 X98.5 Y121.328 E35.85349
G1 X98.185 Y119.764 E35.93309
G1 X98.16 Y119.476 E35.94751
G1 X98.146 Y96.247 E37.10641
G1 X98.459 Y94.945 E37.17322
G1 X99.21 Y93.497 E37.2546
G0 F7500 X99.532 Y93.745
G1 F1500 X100.553 Y92.819 E37.32336
G1 X101.466 Y92.281 E37.37623
G1 X102.12 Y92.004 E37.41167
G1 X103.384 Y91.837 E37.47528
G1 X104.064 Y91.832 E37.5092
G1 X104.702 Y91.8 E37.54107
G1 X105.834 Y91.666 E37.59794
G1 X106.864 Y91.809 E37.64982
G1 X107.886 Y92.088 E37.70268
G1 X109.263 Y92.954 E37.78383
G1 X109.938 Y93.816 E37.83845
G1 X121.082 Y113.066 E38.94816
G1 X121.383 Y114.419 E39.01731
G1 X121.467 Y115.398 E39.06633
G1 X120.972 Y117.626 E39.1802
G1 X120.502 Y119.164 E39.26043
G1 X119.711 Y121.103 E39.36491
G1 X118.963 Y122.557 E39.44649
G1 X117.801 Y124.379 E39.5543
G1 X116.697 Y125.807 E39.64435
G1 X115.709 Y126.91 E39.71823
G1 X114.797 Y127.589 E39.77495
G1 X113.785 Y128.064 E39.83073
G1 X112.171 Y128.319 E39.91225
G1 X112.02 Y128.314 E39.91979
G1 X110.542 Y127.973 E39.99546
G1 X102.611 Y125.07 E40.41682
G1 X101.476 Y124.463 E40.48103
G1 X100.711 Y123.866 E40.52944
G1 X99.971 Y123.074 E40.58352
G1 X99.404 Y122.234 E40.63408
G1 X98.882 Y121.197 E40.692
G1 X98.584 Y119.729 E40.76673
G1 X98.559 Y119.441 E40.78116
G1 X98.546 Y96.295 E41.93592
G1 X98.837 Y95.085 E41.998
G1 X99.532 Y93.745 E42.07331
G0 F7500 X99.854 Y93.993
G1 F1500 X100.79 Y93.144 E42.13636
G1 X101.669 Y92.626 E42.18726
G1 X102.224 Y92.394 E42.21727
G1 X103.436 Y92.234 E42.27826
G1 X104.084 Y92.232 E42.31059
G1 X104.725 Y92.2 E42.34261
G1 X105.83 Y92.069 E42.39813
G1 X106.759 Y92.195 E42.4449
G1 X107.722 Y92.458 E42.4947
G1 X108.991 Y93.256 E42.56949
G1 X109.623 Y94.063 E42.62063
G1 X120.705 Y113.212 E43.72443
G1 X120.984 Y114.453 E43.78789
G1 X121.063 Y115.371 E43.83385
G1 X120.589 Y117.509 E43.94311
G1 X120.119 Y119.047 E44.02334
G1 X119.355 Y120.92 E44.12426
G1 X118.607 Y122.374 E44.20584
G1 X117.484 Y124.135 E44.31004
G1 X116.399 Y125.54 E44.3986
G1 X115.438 Y126.613 E44.47047
G1 X114.589 Y127.245 E44.52327
G1 X113.666 Y127.678 E44.57414
G1 X112.109 Y127.924 E44.65278
G1 X110.679 Y127.597 E44.72596
G1 X102.8 Y124.717 E45.14448
G1 X101.665 Y124.11 E45.2087
G1 X101.002 Y123.592 E45.25067
G1 X100.303 Y122.85 E45.30153
G1 X99.736 Y122.01 E45.35209
G1 X99.263 Y121.064 E45.40486
G1 X98.983 Y119.694 E45.47462
G1 X98.958 Y119.406 E45.48905
G1 X98.946 Y96.343 E46.63966
G1 X99.215 Y95.225 E46.69703
G1 X99.854 Y93.993 E46.76627
G0 F7500 X100.176 Y94.241
G1 F1500 X101.027 Y93.469 E46.8236
G1 X101.872 Y92.971 E46.87253
G1 X102.328 Y92.784 E46.89712
G1 X103.488 Y92.631 E46.95549
G1 X104.084 Y92.632 E46.98523
G1 X104.763 Y92.598 E47.01915
G1 X105.824 Y92.472 E47.07245
G1 X106.654 Y92.581 E47.11422
G1 X107.558 Y92.828 E47.16097
G1 X108.719 Y93.558 E47.22939
G1 X109.308 Y94.31 E47.27705
G1 X120.328 Y113.358 E48.37493
G1 X120.585 Y114.487 E48.4327
G1 X120.659 Y115.345 E48.47566
G1 X120.206 Y117.392 E48.58026
G1 X119.736 Y118.93 E48.66049
G1 X118.999 Y120.737 E48.75786
G1 X118.251 Y122.191 E48.83943
G1 X117.167 Y123.891 E48.94002
G1 X116.101 Y125.273 E49.0271
G1 X115.167 Y126.316 E49.09695
G1 X114.381 Y126.901 E49.14583
G1 X113.547 Y127.292 E49.19178
G1 X112.123 Y127.517 E49.26371
G1 X110.816 Y127.221 E49.33057
G1 X102.937 Y124.341 E49.74909
G1 X101.91 Y123.794 E49.80714
G1 X101.292 Y123.316 E49.84612
G1 X100.634 Y122.625 E49.89372
G1 X100.094 Y121.831 E49.94163
G1 X99.645 Y120.932 E49.99176
G1 X99.382 Y119.659 E50.05661
G1 X99.357 Y119.371 E50.07104
G1 X99.346 Y96.391 E51.21751
G1 X99.593 Y95.365 E51.27016
G1 X100.176 Y94.241 E51.33333
G0 F7500 X100.498 Y94.489
G1 F1500 X101.264 Y93.794 E51.38494
G1 X102.075 Y93.316 E51.4319
G1 X102.43 Y93.174 E51.45098
G1 X103.54 Y93.028 E51.50683
G1 X104.084 Y93.032 E51.53397
G1 X104.801 Y92.996 E51.56979
G1 X105.819 Y92.875 E51.62094
G1 X106.602 Y92.978 E51.66034
G1 X107.393 Y93.197 E51.70128
G1 X108.447 Y93.86 E51.76341
G1 X108.993 Y94.557 E51.80758
G1 X119.951 Y113.504 E52.89956
G1 X120.186 Y114.521 E52.95163
G1 X120.255 Y115.319 E52.99159
G1 X119.823 Y117.275 E53.09153
G1 X119.353 Y118.813 E53.17176
G1 X118.643 Y120.554 E53.26557
G1 X117.895 Y122.008 E53.34714
G1 X116.85 Y123.647 E53.44412
G1 X115.803 Y125.006 E53.52971
G1 X114.896 Y126.019 E53.59754
G1 X114.173 Y126.557 E53.64251
G1 X113.428 Y126.906 E53.68355
G1 X112.136 Y127.11 E53.74881
G1 X110.953 Y126.845 E53.80929
G1 X103.074 Y123.965 E54.22781
G1 X102.153 Y123.476 E54.27984
G1 X101.58 Y123.038 E54.31582
G1 X100.965 Y122.4 E54.36003
G1 X100.425 Y121.606 E54.40793
G1 X100.028 Y120.804 E54.45258
G1 X99.781 Y119.624 E54.51273
G1 X99.756 Y119.336 E54.52715
G1 X99.746 Y96.439 E55.66949
G1 X99.971 Y95.505 E55.71742
G1 X100.498 Y94.489 E55.77452
G0 F7500 X100.82 Y94.737
G1 F1500 X101.501 Y94.119 E55.8204
G1 X102.278 Y93.661 E55.86539
G1 X102.528 Y93.565 E55.87876
G1 X103.592 Y93.425 E55.9323
G1 X104.083 Y93.432 E55.95679
G1 X104.839 Y93.394 E55.99456
G1 X105.814 Y93.278 E56.04355
G1 X106.55 Y93.375 E56.08058
G1 X107.229 Y93.567 E56.11579
G1 X108.175 Y94.162 E56.17154
G1 X108.678 Y94.804 E56.21223
G1 X119.574 Y113.65 E57.2983
G1 X119.796 Y114.611 E57.3475
G1 X119.851 Y115.292 E57.38159
G1 X119.44 Y117.158 E57.47692
G1 X118.97 Y118.696 E57.55715
G1 X118.287 Y120.371 E57.6474
G1 X117.539 Y121.825 E57.72897
G1 X116.533 Y123.403 E57.82234
G1 X115.505 Y124.739 E57.90644
G1 X114.625 Y125.722 E57.97226
G1 X113.964 Y126.214 E58.01337
G1 X113.311 Y126.519 E58.04933
G1 X112.15 Y126.703 E58.10797
G1 X111.09 Y126.469 E58.16213
G1 X103.211 Y123.589 E58.58065
G1 X102.394 Y123.156 E58.62678
G1 X101.868 Y122.76 E58.65963
G1 X101.253 Y122.122 E58.70384
G1 X100.783 Y121.428 E58.74566
G1 X100.408 Y120.671 E58.7878
G1 X100.18 Y119.589 E58.84297
G1 X100.155 Y119.301 E58.85739
G1 X100.146 Y96.487 E59.99559
G1 X100.349 Y95.645 E60.0388
G1 X100.82 Y94.737 E60.08983
G0 F7500 X101.142 Y94.985
G1 F1500 X101.738 Y94.444 E60.12999
G1 X102.481 Y94.006 E60.17302
G1 X102.628 Y93.955 E60.18078
G1 X103.586 Y93.825 E60.22902
G1 X104.082 Y93.832 E60.25376
G1 X104.877 Y93.792 E60.29348
G1 X105.809 Y93.681 E60.3403
G1 X106.498 Y93.772 E60.37498
G1 X107.063 Y93.936 E60.40433
G1 X107.903 Y94.464 E60.45383
G1 X108.363 Y95.051 E60.49103
G1 X119.198 Y113.798 E61.5713
G1 X119.397 Y114.643 E61.61461
G1 X119.447 Y115.264 E61.64569
G1 X119.057 Y117.041 E61.73646
G1 X118.587 Y118.579 E61.81669
G1 X117.931 Y120.188 E61.90338
G1 X117.183 Y121.642 E61.98496
G1 X116.216 Y123.159 E62.07471
G1 X115.207 Y124.472 E62.15732
G1 X114.354 Y125.425 E62.22113
G1 X113.755 Y125.871 E62.25839
G1 X113.194 Y126.133 E62.28928
G1 X112.163 Y126.296 E62.34135
G1 X111.227 Y126.093 E62.38914
G1 X103.397 Y123.235 E62.80499
G1 X102.635 Y122.836 E62.8479
G1 X102.109 Y122.44 E62.88075
G1 X101.543 Y121.846 E62.92168
G1 X101.141 Y121.251 E62.95751
G1 X100.789 Y120.54 E62.99709
G1 X100.579 Y119.554 E63.04738
G1 X100.554 Y119.266 E63.0618
G1 X100.546 Y96.535 E64.19586
G1 X100.727 Y95.785 E64.23435
G1 X101.142 Y94.985 E64.27931
G0 F7500 X101.464 Y95.233
G1 F1500 X101.975 Y94.769 E64.31375
G1 X102.684 Y94.351 E64.35481
G1 X103.58 Y94.225 E64.39995
G1 X104.081 Y94.232 E64.42495
G1 X104.915 Y94.19 E64.46661
G1 X105.803 Y94.084 E64.51123
G1 X106.445 Y94.169 E64.54354
G1 X106.896 Y94.304 E64.56702
G1 X107.631 Y94.766 E64.61034
G1 X108.048 Y95.298 E64.64406
G1 X118.822 Y113.945 E65.71848
G1 X118.998 Y114.675 E65.75595
G1 X119.043 Y115.237 E65.78408
G1 X118.674 Y116.924 E65.87023
G1 X118.204 Y118.462 E65.95046
G1 X117.575 Y120.005 E66.0336
G1 X116.827 Y121.459 E66.11517
G1 X115.899 Y122.915 E66.20131
G1 X114.909 Y124.205 E66.28244
G1 X114.083 Y125.128 E66.34423
G1 X113.546 Y125.528 E66.37764
G1 X113.077 Y125.747 E66.40346
G1 X112.174 Y125.889 E66.44907
G1 X111.364 Y125.717 E66.49038
G1 X103.58 Y122.879 E66.90373
G1 X102.876 Y122.516 E66.94325
G1 X102.35 Y122.12 E66.9761
G1 X101.873 Y121.62 E67.01057
G1 X101.5 Y121.074 E67.04356
