;FLAVOR:Marlin
;TIME:4463
;Filament used: 5.33388m
;Layer height: 0.4
;MINX:70.258
;MINY:78.009
;MINZ:0.3
;MAXX:149.764
;MAXY:144.776
;MAXZ:21.9
;Generated with Cura_SteamEngine 5.4.0
M140 S98
M105
M190 S98
M104 S240
M105
M109 S240
M82 ;absolute extrusion mode
G28 ;Home
G1 Z15.0 F2000 ;Move the platform
G92 E0
G92 E0
G1 F1500 E-6.5
;LAYER_COUNT:55
;LAYER:0
M107
M204 S1000
G0 F7500 X78.372 Y79.81 Z0.3
;TYPE:SKIRT
G1 F1500 E0
G1 X80.359 Y78.541 E0.11762
G1 X82.399 Y78.098 E0.22177
G1 X84.621 Y78.059 E0.33265
G1 X86.681 Y78.763 E0.44125
G1 X99.077 Y85.972 E1.15667
G1 X100.05 Y86.739 E1.21848
G1 X101.227 Y87.966 E1.30331
G1 X102.101 Y89.232 E1.38006
G1 X103.031 Y91.216 E1.48938
G1 X103.247 Y91.945 E1.52731
G1 X103.572 Y94.202 E1.64107
G1 X103.6 Y96.188 E1.74016
G1 X103.732 Y97.044 E1.78338
G1 X104.042 Y98.034 E1.83513
G1 X104.435 Y98.847 E1.88018
G1 X104.936 Y99.587 E1.92477
G1 X105.639 Y100.353 E1.97664
G1 X106.349 Y100.926 E2.02216
G1 X108.74 Y102.355 E2.16112
G1 X110.011 Y103.538 E2.24775
G1 X110.391 Y103.136 E2.27535
G1 X111.805 Y102.021 E2.36519
G1 X113.636 Y100.922 E2.47173
G1 X114.438 Y100.271 E2.52326
G1 X115.035 Y99.625 E2.56715
G1 X115.57 Y98.833 E2.61483
G1 X115.961 Y98.031 E2.65935
G1 X116.268 Y97.049 E2.71068
G1 X116.412 Y96.147 E2.75625
G1 X116.466 Y93.319 E2.89736
G1 X116.965 Y91.248 E3.00364
G1 X117.43 Y90.079 E3.06641
G1 X118.092 Y88.91 E3.13343
G1 X119.223 Y87.456 E3.22533
G1 X120.57 Y86.215 E3.31671
G1 X121.123 Y85.824 E3.3505
G1 X133.378 Y78.729 E4.05698
G1 X135.138 Y78.143 E4.14952
G1 X137.64 Y78.009 E4.27453
G1 X139.673 Y78.643 E4.38077
G1 X141.62 Y79.727 E4.49195
G1 X143.045 Y81.37 E4.60045
G1 X149.063 Y91.785 E5.20056
G1 X149.764 Y93.893 E5.31139
G1 X149.645 Y96.187 E5.426
G1 X149.356 Y97.785 E5.50701
G1 X148.204 Y99.703 E5.61864
G1 X144.854 Y104.04 E5.89204
G1 X141.763 Y108.428 E6.15982
G1 X138.991 Y112.786 E6.4175
G1 X136.14 Y117.764 E6.7037
G1 X133.679 Y122.58 E6.97353
G1 X131.594 Y127.192 E7.22604
G1 X129.455 Y132.553 E7.514
G1 X127.458 Y138.256 E7.81547
G1 X126.855 Y139.497 E7.8843
G1 X125.937 Y140.831 E7.96509
G1 X124.73 Y142.117 E8.05308
G1 X123.596 Y142.998 E8.12473
G1 X122.472 Y143.646 E8.18946
G1 X120.475 Y144.419 E8.29629
G1 X119.686 Y144.594 E8.33661
G1 X118.134 Y144.761 E8.41449
G1 X106.969 Y144.776 E8.97151
G1 X104.519 Y144.079 E9.09859
G1 X102.756 Y142.771 E9.20811
G1 X99.312 Y139.585 E9.44218
G1 X95.747 Y135.819 E9.7009
G1 X92.181 Y131.502 E9.98025
G1 X89.441 Y127.691 E10.21442
G1 X86.439 Y122.824 E10.49971
G1 X83.984 Y118.013 E10.76918
G1 X81.124 Y112.987 E11.05768
G1 X78.192 Y108.367 E11.33067
G1 X75.246 Y104.169 E11.58654
G1 X71.468 Y99.281 E11.89475
G1 X70.697 Y97.701 E11.98246
G1 X70.258 Y96.036 E12.06837
G1 X70.319 Y93.581 E12.19089
G1 X70.373 Y93.286 E12.20585
G1 X71.24 Y91.257 E12.31593
G1 X77.027 Y81.217 E12.89408
G1 X78.372 Y79.81 E12.99119
G0 F7500 X78.63 Y80.12
G1 F1500 X80.513 Y78.917 E13.10267
G1 X82.446 Y78.497 E13.20136
G1 X84.56 Y78.46 E13.30684
G1 X86.511 Y79.127 E13.40971
G1 X98.876 Y86.318 E14.12333
G1 X99.761 Y87.016 E14.17957
G1 X100.938 Y88.243 E14.26439
G1 X101.739 Y89.402 E14.33468
G1 X102.647 Y91.33 E14.441
G1 X102.863 Y92.059 E14.47894
G1 X103.172 Y94.208 E14.58725
G1 X103.2 Y96.219 E14.68759
G1 X103.342 Y97.137 E14.73394
G1 X103.668 Y98.18 E14.78845
G1 X104.087 Y99.046 E14.83645
G1 X104.625 Y99.841 E14.88434
G1 X105.36 Y100.641 E14.93854
G1 X106.119 Y101.254 E14.98721
G1 X108.498 Y102.676 E15.12549
G1 X109.832 Y103.917 E15.21639
G1 X110.008 Y104.124 E15.22995
G1 X110.682 Y103.411 E15.27889
G1 X112.011 Y102.364 E15.3633
G1 X113.867 Y101.25 E15.4713
G1 X114.714 Y100.563 E15.52571
G1 X115.35 Y99.875 E15.57245
G1 X115.917 Y99.035 E15.62301
G1 X116.334 Y98.178 E15.67056
G1 X116.658 Y97.144 E15.72462
G1 X116.811 Y96.182 E15.77322
G1 X116.865 Y93.37 E15.91354
G1 X117.337 Y91.396 E16.0148
G1 X117.802 Y90.227 E16.07756
G1 X118.408 Y89.156 E16.13895
G1 X119.539 Y87.702 E16.23086
G1 X120.801 Y86.542 E16.31637
G1 X121.354 Y86.151 E16.35016
G1 X133.54 Y79.097 E17.05264
G1 X135.216 Y78.539 E17.14077
G1 X137.588 Y78.412 E17.25927
G1 X139.512 Y79.012 E17.35982
G1 X141.366 Y80.044 E17.46568
G1 X142.719 Y81.604 E17.56871
G1 X148.695 Y91.947 E18.16466
G1 X149.361 Y93.95 E18.26997
G1 X149.251 Y96.116 E18.37817
G1 X148.975 Y97.642 E18.45554
G1 X147.887 Y99.458 E18.56115
G1 X144.537 Y103.795 E18.83456
G1 X141.425 Y108.213 E19.10417
G1 X138.653 Y112.571 E19.36185
G1 X135.793 Y117.565 E19.64896
G1 X133.323 Y122.398 E19.91975
G1 X131.222 Y127.044 E20.17413
G1 X129.083 Y132.405 E20.4621
G1 X127.098 Y138.081 E20.76209
G1 X126.495 Y139.322 E20.83093
G1 X125.645 Y140.557 E20.90573
G1 X124.438 Y141.843 E20.99372
G1 X123.396 Y142.651 E21.0595
G1 X122.272 Y143.299 E21.12423
G1 X120.387 Y144.029 E21.22508
G1 X119.643 Y144.196 E21.26312
G1 X118.091 Y144.363 E21.341
G1 X107.025 Y144.376 E21.89308
G1 X104.697 Y143.714 E22.01383
G1 X103.028 Y142.477 E22.11747
G1 X99.584 Y139.291 E22.35154
G1 X96.038 Y135.544 E22.60892
G1 X92.506 Y131.268 E22.88562
G1 X89.766 Y127.457 E23.11979
G1 X86.795 Y122.642 E23.40206
G1 X84.332 Y117.815 E23.67242
G1 X81.472 Y112.789 E23.96092
G1 X78.53 Y108.153 E24.23485
G1 X75.562 Y103.924 E24.49261
G1 X71.808 Y99.067 E24.79887
G1 X71.075 Y97.565 E24.88226
G1 X70.659 Y95.989 E24.96358
G1 X70.713 Y93.653 E25.08015
G1 X70.759 Y93.4 E25.09298
G1 X71.587 Y91.457 E25.19835
G1 X77.35 Y81.458 E25.77413
G1 X78.63 Y80.12 E25.86651
G0 F7500 X78.888 Y80.43
G1 F1500 X80.667 Y79.293 E25.97184
G1 X82.493 Y78.896 E26.06507
G1 X84.496 Y78.861 E26.16501
G1 X86.345 Y79.493 E26.2625
G1 X98.629 Y86.633 E26.97136
G1 X99.472 Y87.293 E27.02477
G1 X100.649 Y88.52 E27.1096
G1 X101.377 Y89.573 E27.17346
G1 X102.263 Y91.444 E27.27675
G1 X102.479 Y92.173 E27.31468
G1 X102.772 Y94.214 E27.41755
G1 X102.8 Y96.25 E27.51913
G1 X102.952 Y97.231 E27.56866
G1 X103.294 Y98.326 E27.62589
G1 X103.739 Y99.245 E27.67683
G1 X104.312 Y100.091 E27.72781
G1 X105.084 Y100.932 E27.78477
G1 X105.889 Y101.582 E27.83639
G1 X108.256 Y102.997 E27.97397
G1 X109.56 Y104.21 E28.06282
G1 X109.989 Y104.727 E28.09634
G1 X110.973 Y103.686 E28.1678
G1 X112.217 Y102.707 E28.24678
G1 X114.098 Y101.578 E28.35623
G1 X114.99 Y100.855 E28.41351
G1 X115.665 Y100.125 E28.46312
G1 X116.264 Y99.237 E28.51656
G1 X116.707 Y98.325 E28.56714
G1 X117.048 Y97.238 E28.62398
G1 X117.21 Y96.217 E28.67555
G1 X117.264 Y93.419 E28.81517
G1 X117.709 Y91.543 E28.91136
G1 X118.151 Y90.423 E28.97143
G1 X118.724 Y89.402 E29.02984
G1 X119.855 Y87.948 E29.12175
G1 X121.032 Y86.869 E29.20141
G1 X121.585 Y86.478 E29.2352
G1 X133.702 Y79.465 E29.93367
G1 X135.294 Y78.935 E30.01738
G1 X137.536 Y78.815 E30.12939
G1 X139.355 Y79.382 E30.22445
G1 X141.11 Y80.359 E30.32466
G1 X142.393 Y81.838 E30.42234
G1 X148.327 Y92.109 E31.01414
G1 X148.957 Y94.004 E31.11377
G1 X148.857 Y96.045 E31.21571
G1 X148.594 Y97.501 E31.28953
G1 X147.57 Y99.213 E31.38905
G1 X144.22 Y103.55 E31.66246
G1 X141.087 Y107.998 E31.93389
G1 X138.315 Y112.356 E32.19157
G1 X135.446 Y117.366 E32.4796
G1 X132.967 Y122.216 E32.75135
G1 X130.85 Y126.896 E33.00761
G1 X128.711 Y132.257 E33.29557
G1 X126.738 Y137.906 E33.5941
G1 X126.135 Y139.147 E33.66294
G1 X125.353 Y140.283 E33.73174
G1 X124.146 Y141.569 E33.81973
G1 X123.196 Y142.304 E33.87966
G1 X122.072 Y142.952 E33.94439
G1 X120.298 Y143.639 E34.0393
G1 X119.6 Y143.798 E34.07501
G1 X118.048 Y143.965 E34.15289
G1 X107.081 Y143.976 E34.70003
G1 X104.875 Y143.349 E34.81445
G1 X103.3 Y142.183 E34.91222
G1 X99.856 Y138.997 E35.14629
G1 X96.346 Y135.289 E35.40102
G1 X92.831 Y131.034 E35.67636
G1 X90.091 Y127.223 E35.91054
G1 X87.151 Y122.46 E36.18979
G1 X84.68 Y117.617 E36.46104
G1 X81.82 Y112.591 E36.74954
G1 X78.868 Y107.939 E37.02441
G1 X75.878 Y103.679 E37.28407
G1 X72.148 Y98.853 E37.58837
G1 X71.453 Y97.429 E37.66743
G1 X71.06 Y95.941 E37.74421
G1 X71.113 Y93.662 E37.85794
G1 X71.145 Y93.515 E37.86545
G1 X71.934 Y91.657 E37.96615
G1 X77.673 Y81.699 E38.53956
G1 X78.888 Y80.43 E38.62721
G0 F7500 X79.143 Y80.741
G1 F1500 X80.821 Y79.669 E38.72655
G1 X82.54 Y79.295 E38.81432
G1 X84.432 Y79.262 E38.90873
G1 X86.179 Y79.859 E39.00083
G1 X98.382 Y86.948 E39.70492
G1 X99.225 Y87.608 E39.75833
G1 X100.321 Y88.749 E39.83726
G1 X101.016 Y89.745 E39.89786
G1 X101.879 Y91.558 E39.99803
G1 X102.095 Y92.287 E40.03596
G1 X102.372 Y94.219 E40.13334
G1 X102.4 Y96.281 E40.23622
G1 X102.562 Y97.327 E40.28903
G1 X102.92 Y98.47 E40.34878
G1 X103.391 Y99.444 E40.40276
G1 X103.999 Y100.341 E40.45682
G1 X104.808 Y101.223 E40.51653
G1 X105.659 Y101.91 E40.5711
G1 X108.014 Y103.318 E40.70799
G1 X109.252 Y104.466 E40.79222
G1 X110.029 Y105.401 E40.85287
G1 X110.373 Y104.903 E40.88307
G1 X111.264 Y103.961 E40.94776
G1 X112.423 Y103.05 E41.0213
G1 X114.329 Y101.906 E41.13221
G1 X115.262 Y101.15 E41.19212
G1 X115.978 Y100.375 E41.24476
G1 X116.614 Y99.434 E41.30142
G1 X117.08 Y98.474 E41.35466
G1 X117.438 Y97.33 E41.41447
G1 X117.609 Y96.252 E41.46892
G1 X117.663 Y93.468 E41.60784
G1 X118.082 Y91.689 E41.69902
G1 X118.5 Y90.619 E41.75633
G1 X119.073 Y89.598 E41.81475
G1 X120.126 Y88.242 E41.9004
G1 X121.263 Y87.196 E41.97748
G1 X121.816 Y86.805 E42.01127
G1 X133.868 Y79.831 E42.70596
G1 X135.369 Y79.331 E42.78489
G1 X137.484 Y79.218 E42.89055
G1 X139.198 Y79.752 E42.98012
G1 X140.854 Y80.674 E43.07468
G1 X142.067 Y82.072 E43.16702
G1 X147.959 Y92.271 E43.75466
G1 X148.553 Y94.059 E43.84866
G1 X148.463 Y95.974 E43.9443
G1 X148.213 Y97.36 E44.01456
G1 X147.253 Y98.968 E44.108
G1 X143.903 Y103.305 E44.3814
G1 X140.76 Y107.768 E44.65374
G1 X137.968 Y112.157 E44.91325
G1 X135.099 Y117.167 E45.20129
G1 X132.611 Y122.034 E45.47399
G1 X130.478 Y126.748 E45.73213
G1 X128.339 Y132.109 E46.02009
G1 X126.36 Y137.774 E46.31947
G1 X125.805 Y138.921 E46.38304
G1 X125.061 Y140.009 E46.4488
G1 X123.854 Y141.295 E46.53679
G1 X122.996 Y141.957 E46.59086
G1 X121.872 Y142.605 E46.65558
G1 X120.207 Y143.249 E46.74465
G1 X119.557 Y143.4 E46.77794
G1 X118.005 Y143.567 E46.85582
G1 X107.137 Y143.576 E47.39802
G1 X105.055 Y142.984 E47.50601
G1 X103.572 Y141.889 E47.59798
G1 X100.128 Y138.703 E47.83205
G1 X96.637 Y135.014 E48.08544
G1 X93.156 Y130.8 E48.35813
G1 X90.416 Y126.989 E48.5923
G1 X87.507 Y122.278 E48.86853
G1 X85.028 Y117.419 E49.14068
G1 X82.168 Y112.393 E49.42918
G1 X79.206 Y107.725 E49.705
G1 X76.194 Y103.434 E49.96655
G1 X72.491 Y98.643 E50.26865
G1 X71.83 Y97.288 E50.34386
G1 X71.461 Y95.893 E50.41585
G1 X71.513 Y93.671 E50.52674
G1 X72.281 Y91.857 E50.62502
G1 X77.998 Y81.938 E51.19619
G1 X79.143 Y80.741 E51.27883
G0 F7500 X79.401 Y81.051
G1 F1500 X80.975 Y80.045 E51.37203
G1 X82.587 Y79.694 E51.45434
G1 X84.371 Y79.663 E51.54335
G1 X86.009 Y80.223 E51.62972
G1 X98.135 Y87.263 E52.32925
G1 X98.978 Y87.923 E52.38266
G1 X99.994 Y88.979 E52.45577
G1 X100.655 Y89.918 E52.51306
G1 X101.495 Y91.672 E52.61009
G1 X101.711 Y92.401 E52.64802
G1 X101.972 Y94.224 E52.7399
G1 X102 Y96.313 E52.84413
G1 X102.172 Y97.421 E52.90007
G1 X102.546 Y98.616 E52.96254
G1 X103.043 Y99.643 E53.01946
G1 X103.685 Y100.591 E53.07658
G1 X104.532 Y101.514 E53.13908
G1 X105.429 Y102.238 E53.19659
G1 X107.772 Y103.639 E53.33279
G1 X108.944 Y104.722 E53.4124
G1 X109.615 Y105.53 E53.4648
G1 X109.994 Y106.164 E53.50165
G1 X110.664 Y105.178 E53.56112
G1 X111.555 Y104.236 E53.62581
G1 X112.669 Y103.365 E53.69636
G1 X114.563 Y102.232 E53.80647
G1 X115.534 Y101.445 E53.86883
G1 X116.291 Y100.625 E53.92451
G1 X116.962 Y99.633 E53.98425
G1 X117.454 Y98.618 E54.04053
G1 X117.828 Y97.424 E54.10295
G1 X118.008 Y96.289 E54.16028
G1 X118.062 Y93.516 E54.29866
G1 X118.455 Y91.835 E54.38478
G1 X118.873 Y90.765 E54.44209
G1 X119.39 Y89.842 E54.49488
G1 X120.397 Y88.536 E54.57715
G1 X121.494 Y87.523 E54.65165
G1 X122.047 Y87.132 E54.68544
G1 X134.03 Y80.199 E55.37612
G1 X135.447 Y79.727 E55.45063
G1 X137.432 Y79.621 E55.54981
G1 X139.037 Y80.121 E55.63368
G1 X140.6 Y80.991 E55.72292
G1 X141.741 Y82.306 E55.80978
G1 X147.591 Y92.433 E56.39326
G1 X148.15 Y94.114 E56.48164
G1 X148.069 Y95.903 E56.57098
G1 X147.832 Y97.217 E56.6376
G1 X146.936 Y98.723 E56.72502
G1 X143.586 Y103.06 E56.99843
G1 X140.433 Y107.538 E57.27166
G1 X137.621 Y111.958 E57.53302
G1 X134.752 Y116.968 E57.82105
G1 X132.255 Y121.852 E58.09471
G1 X130.106 Y126.6 E58.35473
G1 X127.967 Y131.961 E58.64269
G1 X125.999 Y137.601 E58.94071
G1 X125.474 Y138.696 E59.00129
G1 X124.769 Y139.735 E59.06394
G1 X123.562 Y141.021 E59.15193
G1 X122.795 Y141.611 E59.20021
G1 X121.727 Y142.232 E59.26184
G1 X120.116 Y142.859 E59.34809
G1 X119.466 Y143.01 E59.38138
G1 X117.963 Y143.169 E59.45678
G1 X107.193 Y143.176 E59.9941
G1 X105.233 Y142.619 E60.09576
G1 X103.844 Y141.595 E60.18185
G1 X100.4 Y138.409 E60.41592
G1 X96.945 Y134.759 E60.66666
G1 X93.481 Y130.566 E60.938
G1 X90.741 Y126.755 E61.17218
G1 X87.863 Y122.096 E61.44539
G1 X85.376 Y117.221 E61.71842
G1 X82.516 Y112.195 E62.00693
G1 X79.544 Y107.511 E62.28368
G1 X76.51 Y103.189 E62.54713
G1 X72.831 Y98.429 E62.84727
G1 X72.208 Y97.152 E62.91816
G1 X71.862 Y95.845 E62.98561
G1 X71.911 Y93.757 E63.08981
G1 X72.628 Y92.057 E63.18186
G1 X78.321 Y82.179 E63.75066
G1 X79.401 Y81.051 E63.82858
G0 F7500 X79.656 Y81.362
G1 F1500 X81.129 Y80.421 E63.91578
G1 X82.634 Y80.093 E63.99263
G1 X84.307 Y80.064 E64.07611
G1 X85.843 Y80.589 E64.15709
G1 X97.888 Y87.578 E64.85185
G1 X98.731 Y88.238 E64.90527
G1 X99.668 Y89.211 E64.97266
G1 X100.295 Y90.092 E65.02661
G1 X101.111 Y91.786 E65.12041
G1 X101.327 Y92.515 E65.15835
G1 X101.572 Y94.229 E65.24473
G1 X101.6 Y96.344 E65.35025
G1 X101.782 Y97.515 E65.40938
G1 X102.172 Y98.762 E65.47456
G1 X102.695 Y99.842 E65.53443
G1 X103.374 Y100.845 E65.59486
G1 X104.253 Y101.802 E65.65969
G1 X105.199 Y102.566 E65.72035
G1 X107.53 Y103.96 E65.85585
G1 X108.636 Y104.978 E65.93085
G1 X109.307 Y105.786 E65.98325
G1 X109.99 Y106.945 E66.05036
G1 X110.089 Y106.74 E66.06172
G1 X110.955 Y105.453 E66.13911
G1 X111.846 Y104.511 E66.2038
G1 X112.914 Y103.681 E66.27128
G1 X114.796 Y102.558 E66.38062
G1 X115.806 Y101.74 E66.44546
G1 X116.605 Y100.875 E66.50421
G1 X117.31 Y99.832 E66.56702
G1 X117.828 Y98.762 E66.62633
G1 X118.218 Y97.518 E66.69137
G1 X118.407 Y96.324 E66.75168
G1 X118.461 Y93.567 E66.88925
G1 X118.828 Y91.981 E66.97047
G1 X119.246 Y90.911 E67.02778
G1 X119.708 Y90.085 E67.075
G1 X120.669 Y88.829 E67.1539
G1 X121.725 Y87.85 E67.22574
G1 X122.278 Y87.459 E67.25953
G1 X134.192 Y80.567 E67.94621
G1 X135.525 Y80.123 E68.01631
G1 X137.38 Y80.024 E68.10898
G1 X138.88 Y80.491 E68.18736
G1 X140.344 Y81.306 E68.27096
G1 X141.415 Y82.54 E68.35248
G1 X147.223 Y92.595 E68.93179
G1 X147.747 Y94.17 E69.01461
G1 X147.675 Y95.832 E69.0976
G1 X147.451 Y97.076 E69.16066
G1 X146.619 Y98.478 E69.242
G1 X143.269 Y102.815 E69.5154
G1 X140.106 Y107.308 E69.78954
G1 X137.274 Y111.759 E70.05274
G1 X134.405 Y116.769 E70.34077
G1 X131.899 Y121.67 E70.61539
G1 X129.734 Y126.452 E70.87728
G1 X127.595 Y131.813 E71.16524
G1 X125.638 Y137.428 E71.4619
G1 X125.113 Y138.523 E71.52249
G1 X124.477 Y139.462 E71.57907
G1 X123.318 Y140.704 E71.66382
G1 X122.551 Y141.294 E71.7121
G1 X121.581 Y141.86 E71.76813
G1 X120.025 Y142.469 E71.85149
G1 X119.375 Y142.62 E71.88478
G1 X117.922 Y142.771 E71.95766
G1 X107.249 Y142.776 E72.49014
G1 X105.411 Y142.254 E72.58546
G1 X104.116 Y141.301 E72.66568
G1 X100.672 Y138.115 E72.89975
G1 X97.253 Y134.504 E73.14784
G1 X93.806 Y130.332 E73.41784
G1 X91.066 Y126.521 E73.65201
G1 X88.219 Y121.914 E73.9222
G1 X85.724 Y117.023 E74.19613
G1 X82.864 Y111.997 E74.48463
G1 X79.882 Y107.297 E74.76233
G1 X76.826 Y102.944 E75.02768
G1 X73.171 Y98.215 E75.32586
G1 X72.586 Y97.016 E75.39242
G1 X72.263 Y95.797 E75.45534
G1 X72.309 Y93.843 E75.55285
G1 X72.975 Y92.257 E75.63867
G1 X78.646 Y82.418 E76.20524
G1 X79.656 Y81.362 E76.27814
G0 F7500 X79.914 Y81.672
G1 F1500 X81.283 Y80.797 E76.3592
G1 X82.681 Y80.492 E76.43059
G1 X84.243 Y80.465 E76.50853
G1 X85.677 Y80.955 E76.58413
G1 X97.687 Y87.924 E77.27688
G1 X98.444 Y88.516 E77.32482
G1 X99.343 Y89.445 E77.38932
G1 X99.935 Y90.267 E77.43986
G1 X100.727 Y91.9 E77.53041
G1 X100.943 Y92.629 E77.56834
G1 X101.172 Y94.234 E77.64922
